liuyurong129/figaroh_kinova/examples/airbot_play/data/identification/trapezoidal_motion/identification_q_real.csv
q0,q1,q2,q3,q4,q5
-0.00019073777366429567,-0.00019073777366429567,-0.00019073777366429567,-0.000572213320992887,0.00019073777366429567,-0.00019073777366429567
-0.00019073777366429567,-0.00019073777366429567,-0.00019073777366429567,-0.00019073777366429567,0.00019073777366429567,0.00019073777366429567
-0.00019073777366429567,-0.00019073777366429567,-0.00019073777366429567,-0.00019073777366429567,0.00019073777366429567,0.00019073777366429567
-0.00019073777366429567,-0.00019073777366429567,-0.00019073777366429567,-0.00019073777366429567,0.00019073777366429567,0.00019073777366429567
-0.00019073777366429567,-0.00019073777366429567,-0.00019073777366429567,-0.00019073777366429567,0.00019073777366429567,0.00019073777366429567
-0.00019073777366429567,-0.00019073777366429567,-0.00019073777366429567,-0.00019073777366429567,0.00019073777366429567,0.00019073777366429567
-0.00019073777366429567,-0.00019073777366429567,0.00019073777366429567,-0.00019073777366429567,0.00019073777366429567,0.00019073777366429567
-0.00019073777366429567,-0.00019073777366429567,0.00019073777366429567,-0.00019073777366429567,0.00019073777366429567,0.00019073777366429567
-0.00019073777366429567,-0.00019073777366429567,0.00019073777366429567,-0.00019073777366429567,0.00019073777366429567,0.00019073777366429567
-0.00019073777366429567,-0.00019073777366429567,0.00019073777366429567,-0.00019073777366429567,0.00019073777366429567,0.00019073777366429567
0.00019073777366429567,-0.00019073777366429567,0.00019073777366429567,-0.00019073777366429567,0.00019073777366429567,0.00019073777366429567
0.00019073777366429567,-0.000572213320992887,0.00019073777366429567,-0.00019073777366429567,0.00019073777366429567,0.00019073777366429567
0.0009536888683214784,-0.000572213320992887,0.000572213320992887,-0.00019073777366429567,0.00019073777366429567,0.00019073777366429567
0.0013351644156500697,-0.000572213320992887,0.0009536888683214784,-0.00019073777366429567,0.00019073777366429567,0.00019073777366429567
0.0020981156267225742,-0.000572213320992887,0.0013351644156500697,0.00019073777366429567,0.00019073777366429567,0.000572213320992887
0.0020981156267225742,-0.000572213320992887,0.001716639962978661,0.00019073777366429567,0.00019073777366429567,0.000572213320992887
0.0032425422687083483,-0.0009536888683214784,0.0024795911740511656,0.00019073777366429567,0.000572213320992887,0.0009536888683214784
0.0032425422687083483,-0.0013351644156500697,0.002861066721379757,0.000572213320992887,0.00019073777366429567,0.0009536888683214784
0.0036240178160369396,-0.0013351644156500697,0.0032425422687083483,0.0009536888683214784,0.000572213320992887,0.0013351644156500697
0.004386968910694122,-0.001716639962978661,0.004386968910694122,0.0013351644156500697,0.0009536888683214784,0.0020981156267225742
0.00476844422519207,-0.001716639962978661,0.00476844422519207,0.0020981156267225742,0.0009536888683214784,0.0024795911740511656
0.005531395319849253,-0.0024795911740511656,0.005531395319849253,0.002861066721379757,0.0009536888683214784,0.002861066721379757
0.006294346414506435,-0.0024795911740511656,0.006294346414506435,0.004005493130534887,0.0013351644156500697,0.002861066721379757
0.0078202486038208,-0.002861066721379757,0.007438773289322853,0.00476844422519207,0.001716639962978661,0.0036240178160369396
0.00858320016413927,-0.0032425422687083483,0.00858320016413927,0.005531395319849253,0.0024795911740511656,0.00476844422519207
0.009727626107633114,-0.0036240178160369396,0.009346150793135166,0.00667582219466567,0.004005493130534887,0.005912871100008488
0.010490577667951584,-0.0036240178160369396,0.010872052982449532,0.0078202486038208,0.00476844422519207,0.007057297509163618
0.011635004542768002,-0.004005493130534887,0.01201647985726595,0.008201723918318748,0.005912871100008488,0.0078202486038208
0.012779430486261845,-0.00476844422519207,0.012779430486261845,0.00858320016413927,0.007438773289322853,0.008201723918318748
0.013923857361078262,-0.00476844422519207,0.01430533267557621,0.009727626107633114,0.00858320016413927,0.010109102353453636
0.01506828423589468,-0.005531395319849253,0.01583123579621315,0.01125352829694748,0.009727626107633114,0.01125352829694748
0.016975661739706993,-0.005912871100008488,0.016594186425209045,0.01201647985726595,0.01125352829694748,0.01201647985726595
0.018501564860343933,-0.005912871100008488,0.01773861236870289,0.013542382046580315,0.012779430486261845,0.013923857361078262
0.019645990803837776,-0.00667582219466567,0.019645990803837776,0.015449759550392628,0.014686808921396732,0.01506828423589468
0.021171892061829567,-0.007057297509163618,0.02079041674733162,0.016212711110711098,0.016594186425209045,0.016975661739706993
0.022697795182466507,-0.0078202486038208,0.02193484455347061,0.016975661739706993,0.018501564860343933,0.01888304017484188
0.024605173617601395,-0.0078202486038208,0.024605173617601395,0.01926451548933983,0.019645990803837776,0.019645990803837776
0.026512550190091133,-0.008964675478637218,0.026512550190091133,0.02040894143283367,0.02040894143283367,0.021553369238972664
0.02841992862522602,-0.009346150793135166,0.02841992862522602,0.022697795182466507,0.02193484455347061,0.023079270496964455
0.03032730519771576,-0.010109102353453636,0.03032730519771576,0.024605173617601395,0.02384222112596035,0.024605173617601395
0.03223468363285065,-0.010872052982449532,0.03223468363285065,0.026512550190091133,0.025749599561095238,0.026512550190091133
0.034142062067985535,-0.011635004542768002,0.034142062067985535,0.028038453310728073,0.027656977996230125,0.027656977996230125
0.03604944050312042,-0.012397955171763897,0.03604944050312042,0.02994582988321781,0.02841992862522602,0.02994582988321781
0.03833829239010811,-0.013160906732082367,0.03833829239010811,0.03185320645570755,0.03032730519771576,0.031090257689356804
0.04100862145423889,-0.013923857361078262,0.040627144277095795,0.03376058489084244,0.03299763426184654,0.03376058489084244
0.04291599988937378,-0.014686808921396732,0.04291599988937378,0.03528648987412453,0.03490501269698143,0.035667963325977325
0.045204851776361465,-0.015449759550392628,0.045204851776361465,0.03757534176111221,0.03643091395497322,0.03795681521296501
0.04787518084049225,-0.016594186425209045,0.04787518084049225,0.039101243019104004,0.038719769567251205,0.040627144277095795
0.05054550990462303,-0.01773861236870289,0.05054550990462303,0.042153049260377884,0.040627144277095795,0.043678950518369675
0.053215838968753815,-0.018120087683200836,0.053215838968753815,0.045204851776361465,0.04406042397022247,0.04596780240535736
0.0555046908557415,-0.01926451548933983,0.0558861680328846,0.04711223021149635,0.04596780240535736,0.048256658017635345
0.05855649709701538,-0.019645990803837776,0.05893797054886818,0.05054550990462303,0.048256658017635345,0.05092698708176613
0.06160829961299896,-0.02040894143283367,0.06160829961299896,0.053215838968753815,0.05130846053361893,0.05359731614589691
0.06389715522527695,-0.021553369238972664,0.06389715522527695,0.054741740226745605,0.054741740226745605,0.0555046908557415
0.06733043491840363,-0.022697795182466507,0.06694895774126053,0.057793546468019485,0.057793546468019485,0.057793546468019485
0.07038223743438721,-0.023460745811462402,0.07038223743438721,0.06084534898400307,0.06008239835500717,0.06084534898400307
0.07381551712751389,-0.024605173617601395,0.07381551712751389,0.06313420087099075,0.06313420087099075,0.06389715522527695
0.07648584991693497,-0.02536812424659729,0.07648584991693497,0.06580453366041183,0.06618601083755493,0.06618601083755493
0.07991912961006165,-0.02727550081908703,0.07991912961006165,0.06885633617639542,0.06961929053068161,0.06961929053068161
0.08373387902975082,-0.028038453310728073,0.08335240930318832,0.07267109304666519,0.0715266615152359,0.07305257022380829
0.0871671661734581,-0.029564354568719864,0.0871671661734581,0.07572289556264877,0.07534141838550568,0.07610437273979187
0.09021896868944168,-0.03032730519771576,0.09021896868944168,0.07915617525577545,0.07801175117492676,0.07953765243291855
0.09403372555971146,-0.03147173300385475,0.09403372555971146,0.08220797777175903,0.08068207651376724,0.08297093212604523
0.09784847497940063,-0.03299763426184654,0.09784847497940063,0.08602273464202881,0.08449683338403702,0.0864042118191719
0.10090028494596481,-0.034142062067985535,0.10090028494596481,0.08869306743144989,0.0879301130771637,0.08945601433515549
0.10509651154279709,-0.035667963325977325,0.10433356463909149,0.09212634712457657,0.09212634712457657,0.09288929402828217
0.10891126841306686,-0.03681239113211632,0.10929274559020996,0.09632257372140884,0.09517814964056015,0.09670405089855194
0.11310750246047974,-0.03795681521296501,0.11310750246047974,0.09937438368797302,0.09937438368797302,0.10051880776882172
0.11692225188016891,-0.039101243019104004,0.11654078215360641,0.1024261862039566,0.1024261862039566,0.10433356463909149
0.12111848592758179,-0.040627144277095795,0.12073700875043869,0.10662241280078888,0.10700388997793198,0.10814831405878067
0.12531471252441406,-0.042153049260377884,0.12531471252441406,0.11120012402534485,0.11005569249391556,0.11234454810619354
0.12912946939468384,-0.04329747334122658,0.12912946939468384,0.11425192654132843,0.11387044936418533,0.11539635062217712
0.1337071806192398,-0.04482337832450867,0.1337071806192398,0.1184481605887413,0.1180666834115982,0.1199740618467331
0.13828489184379578,-0.04634927958250046,0.13752193748950958,0.12302586436271667,0.12340734153985977,0.12378881871700287
0.14286258816719055,-0.048256658017635345,0.14324407279491425,0.12760357558727264,0.12645913660526276,0.12836651504039764
0.14705882966518402,-0.04940108209848404,0.14705882966518402,0.13179980218410492,0.12989242374897003,0.1329442262649536
0.1520180106163025,-0.05092698708176613,0.1520180106163025,0.1363775134086609,0.1348516047000885,0.1371404528617859
0.15697719156742096,-0.05245288833975792,0.15697719156742096,0.14095520973205566,0.13904783129692078,0.14171816408634186
0.16117341816425323,-0.05436026677489281,0.16117341816425323,0.14400701224803925,0.14438849687576294,0.14476996660232544
0.1661325991153717,-0.0558861680328846,0.1661325991153717,0.1489662081003189,0.14858472347259521,0.1497291475534439
0.17147326469421387,-0.05703059583902359,0.17109178006649017,0.15354390442371368,0.15354390442371368,0.15506981313228607
0.17643244564533234,-0.05893797054886818,0.17566949129104614,0.15888457000255585,0.15850308537483215,0.16041046380996704
0.1810101419687271,-0.06084534898400307,0.1806286722421646,0.16346226632595062,0.16231784224510193,0.16422522068023682
0.18635080754756927,-0.06237125024199486,0.18635080754756927,0.1684214472770691,0.16880293190479279,0.16880293190479279
0.19169145822525024,-0.06427863240242004,0.19169145822525024,0.17299915850162506,0.17338064312934875,0.17376211285591125
0.1962691694498062,-0.06580453366041183,0.1962691694498062,0.17757686972618103,0.17757686972618103,0.17872129380702972
0.20199130475521088,-0.06771191209554672,0.20199130475521088,0.1836804747581482,0.1810101419687271,0.1840619444847107
0.20771344006061554,-0.06961929053068161,0.20771344006061554,0.18902114033699036,0.18673227727413177,0.18978407979011536
0.2134355753660202,-0.0715266615152359,0.2134355753660202,0.19436179101467133,0.19245441257953644,0.19474326074123383
0.21801327168941498,-0.07305257022380829,0.21725031733512878,0.1981765478849411,0.1985580176115036,0.1993209719657898
0.22411687672138214,-0.07495994865894318,0.22373540699481964,0.20389868319034576,0.20313572883605957,0.20504310727119446
0.2298390120267868,-0.07686731964349747,0.2298390120267868,0.21038375794887543,0.20733195543289185,0.21038375794887543
0.23594263195991516,-0.07915617525577545,0.23594263195991516,0.2157244235277176,0.2138170450925827,0.2161058932542801
0.24090181291103363,-0.08068207651376724,0.24090181291103363,0.22030213475227356,0.21839475631713867,0.22106507420539856
0.2466239482164383,-0.08297093212604523,0.2470054179430008,0.22602425515651703,0.22602425515651703,0.22678720951080322
0.25310903787612915,-0.08487831056118011,0.25272753834724426,0.2313649207353592,0.2317463904619217,0.23250934481620789
0.2580682039260864,-0.08602273464202881,0.2576867341995239,0.23708705604076385,0.23632410168647766,0.23823148012161255
0.2641718089580536,-0.0883115902543068,0.2630273997783661,0.24319066107273102,0.24280919134616852,0.24319066107273102
0.27027541399002075,-0.09021896868944168,0.27027541399002075,0.2473868876695633,0.24967575073242188,0.24929426610469818
0.2756160795688629,-0.09212634712457657,0.2752346098423004,0.25349050760269165,0.25387197732925415,0.25463491678237915
0.2817196846008301,-0.09403372555971146,0.2817196846008301,0.2588311731815338,0.2603570520877838,0.2603570520877838
0.28820478916168213,-0.09632257372140884,0.28820478916168213,0.2641718089580536,0.264934778213501,0.26684215664863586
0.2943083941936493,-0.09861142933368683,0.2943083941936493,0.27065691351890564,0.27218279242515564,0.272945761680603
0.29964902997016907,-0.10051880776882172,0.29964902997016907,0.2775234580039978,0.2767605185508728,0.2779049277305603
0.3057526648044586,-0.10204470902681351,0.3057526648044586,0.28286412358283997,0.28286412358283997,0.28362706303596497
0.3122377395629883,-0.10433356463909149,0.3118562698364258,0.28896772861480713,0.28896772861480713,0.290112167596817
0.31834134459495544,-0.10624094307422638,0.31834134459495544,0.2954528033733368,0.2939268946647644,0.2962157726287842
0.3236820101737976,-0.10814831405878067,0.3236820101737976,0.30079346895217896,0.29964902997016907,0.30155640840530396
0.33016708493232727,-0.11005569249391556,0.33016708493232727,0.3072785437107086,0.3065156042575836,0.3072785437107086
0.33665215969085693,-0.11234454810619354,0.33665215969085693,0.3130006790161133,0.3118562698364258,0.31414511799812317
0.3419928252696991,-0.11425192654132843,0.3419928252696991,0.31757840514183044,0.31681543588638306,0.31986725330352783
0.34847790002822876,-0.11615930497646332,0.34847790002822876,0.32520791888237,0.3244449496269226,0.32520791888237
0.3545815348625183,-0.1184481605887413,0.3545815348625183,0.33054855465888977,0.33016708493232727,0.33169299364089966
0.361066609621048,-0.12073700875043869,0.3599221706390381,0.33665215969085693,0.3374151289463043,0.3377965986728668
0.36640727519989014,-0.12226291000843048,0.36640727519989014,0.3423742949962616,0.3408484160900116,0.3435187339782715
0.3728923499584198,-0.12455176562070847,0.3728923499584198,0.34847790002822876,0.34809643030166626,0.34962233901023865
0.37937742471694946,-0.12645913660526276,0.37937742471694946,0.3549630045890808,0.3545815348625183,0.3557259440422058
0.3847180902957916,-0.12874799966812134,0.3847180902957916,0.3603036403656006,0.3603036403656006,0.3614480793476105
0.3912031650543213,-0.13065537810325623,0.3912031650543213,0.36717021465301514,0.36526283621788025,0.36793315410614014
0.39768826961517334,-0.1329442262649536,0.39806973934173584,0.3740367889404297,0.3717479109764099,0.3740367889404297
0.404173344373703,-0.1348516047000885,0.404173344373703,0.37975889444351196,0.37823301553726196,0.38052186369895935
0.40951400995254517,-0.1367589831352234,0.40951400995254517,0.3854810297489166,0.3843366205692291,0.3858625292778015
0.41599908471107483,-0.13866636157035828,0.41638055443763733,0.3919661343097687,0.3908216953277588,0.3923476040363312
0.4224841594696045,-0.14095520973205566,0.4224841594696045,0.39692530035972595,0.39768826961517334,0.39883267879486084
0.42896926403045654,-0.14324407279491425,0.42935073375701904,0.4045548141002655,0.4037918746471405,0.404936283826828
0.4343098998069763,-0.14515145123004913,0.4346913993358612,0.40951400995254517,0.40989547967910767,0.41103988885879517
0.44117647409439087,-0.14744029939174652,0.44079500436782837,0.41599908471107483,0.41409170627593994,0.41676202416419983
0.44766154885292053,-0.1493476778268814,0.44766154885292053,0.4224841594696045,0.4224841594696045,0.4236285984516144
0.4537651538848877,-0.1516365259885788,0.4537651538848877,0.42553597688674927,0.42973220348358154,0.43049514293670654
0.45948728919029236,-0.15316243469715118,0.45834288001060486,0.4346913993358612,0.4354543387889862,0.4354543387889862
0.4659723937511444,-0.15545128285884857,0.4659723937511444,0.44079500436782837,0.44079500436782837,0.44155794382095337
0.4724574685096741,-0.15774014592170715,0.4724574685096741,0.44689860939979553,0.44613564014434814,0.4488059878349304
0.47779813408851624,-0.15926603972911835,0.47817960381507874,0.4533836841583252,0.4522392749786377,0.4537651538848877
0.4842832088470459,-0.16193637251853943,0.4846646785736084,0.45948728919029236,0.45834288001060486,0.46025025844573975
0.49114975333213806,-0.16384375095367432,0.49114975333213806,0.4659723937511444,0.464446485042572,0.4663538634777069
0.4976348578929901,-0.1661325991153717,0.4976348578929901,0.4728389382362366,0.4705500900745392,0.4732204079627991
0.5029755234718323,-0.1680399775505066,0.5029755234718323,0.47817960381507874,0.47665369510650635,0.47894254326820374
0.5098420977592468,-0.16994735598564148,0.5094605684280396,0.4846646785736084,0.482375830411911,0.4850461483001709
0.5163271427154541,-0.17223620414733887,0.5151827335357666,0.49076828360557556,0.49153125286102295,0.49191272258758545
0.5216678380966187,-0.17414358258247375,0.5216678380966187,0.4961089491844177,0.4972533881664276,0.4976348578929901
0.5281528830528259,-0.17643244564533234,0.5281528830528259,0.5033569931983948,0.5022125840187073,0.5033569931983948
0.5350194573402405,-0.17872129380702972,0.534637987613678,0.5094605684280396,0.509079098701477,0.5094605684280396
0.5415045619010925,-0.1806286722421646,0.54112309217453,0.5144197940826416,0.5163271427154541,0.5163271427154541
0.5468451976776123,-0.1825360506772995,0.5468451976776123,0.5205233693122864,0.5209048390388489,0.5220493078231812
0.5533303022384644,-0.1844434291124344,0.5533303022384644,0.5258640646934509,0.5281528830528259,0.5281528830528259
0.5598153471946716,-0.18673227727413177,0.5586709380149841,0.5342565178871155,0.534637987613678,0.5350194573402405
0.5663004517555237,-0.18902114033699036,0.5663004517555237,0.5415045619010925,0.5395971536636353,0.5415045619010925
0.572022557258606,-0.19092851877212524,0.572022557258606,0.5472266674041748,0.5460822582244873,0.5472266674041748
0.578507661819458,-0.19321736693382263,0.578507661819458,0.5537117719650269,0.5529488325119019,0.5537117719650269
0.5849927663803101,-0.19512474536895752,0.5853742361068726,0.5598153471946716,0.5563820600509644,0.5598153471946716
0.5907148718833923,-0.1970321238040924,0.5907148718833923,0.5659189820289612,0.5643930435180664,0.5655375123023987
0.5971999764442444,-0.1993209719657898,0.5971999764442444,0.5724040865898132,0.5716410875320435,0.572022557258606
0.6036850810050964,-0.20122835040092468,0.6040665507316589,0.578507661819458,0.576218843460083,0.5788891315460205
0.6105515956878662,-0.20351719856262207,0.6105515956878662,0.5849927663803101,0.5842298269271851,0.5846112966537476
0.6158922910690308,-0.20542457699775696,0.6158922910690308,0.5907148718833923,0.5910963416099548,0.5903334021568298
0.622377336025238,-0.20771344006061554,0.622377336025238,0.5964370369911194,0.5971999764442444,0.5971999764442444
0.6292439103126526,-0.21000228822231293,0.6292439103126526,0.6029220819473267,0.6040665507316589,0.6040665507316589
0.6349660754203796,-0.21190966665744781,0.6349660754203796,0.6071183085441589,0.6097886562347412,0.6094071865081787
0.6410696506500244,-0.2138170450925827,0.6414511203765869,0.6158922910690308,0.6155108213424683,0.6158922910690308
0.647936224937439,-0.21648737788200378,0.647936224937439,0.621614396572113,0.6239032745361328,0.622377336025238
0.6540398001670837,-0.21839475631713867,0.654421329498291,0.6288624405860901,0.6288624405860901,0.6292439103126526
0.6597619652748108,-0.22030213475227356,0.6601434350013733,0.6345845460891724,0.6338216066360474,0.6349660754203796
0.6666285395622253,-0.22259098291397095,0.6666285395622253,0.6414511203765869,0.6399252414703369,0.6410696506500244
0.6727321147918701,-0.22449836134910583,0.6731135845184326,0.6475547552108765,0.6467918157577515,0.6475547552108765
0.6784542798995972,-0.22640573978424072,0.6788357496261597,0.6528953909873962,0.6536583304405212,0.6532768607139587
0.6853207945823669,-0.2286945879459381,0.6853207945823669,0.6605249047279358,0.6589990258216858,0.6601434350013733
0.691805899143219,-0.2309834510087967,0.691805899143219,0.6658655405044556,0.6666285395622253,0.6662470698356628
0.6986724734306335,-0.23289081454277039,0.698291003704071,0.6731135845184326,0.6719691753387451,0.6727321147918701
0.7036316394805908,-0.23479819297790527,0.7036316394805908,0.6784542798995972,0.6780728101730347,0.6788357496261597
0.7104982137680054,-0.23708705604076385,0.7104982137680054,0.6849393248558044,0.6857023239135742,0.6853207945823669
0.7169833183288574,-0.23899443447589874,0.7169833183288574,0.6906614899635315,0.6921873688697815,0.6914244294166565
0.7234683632850647,-0.24128328263759613,0.7234683632850647,0.6963835954666138,0.6986724734306335,0.6979095339775085
0.7291905283927917,-0.24319066107273102,0.7291905283927917,0.7028687000274658,0.7043945789337158,0.7036316394805908
0.735675573348999,-0.2454795092344284,0.7345311641693115,0.7093538045883179,0.7104982137680054,0.7093538045883179
0.7421606779098511,-0.2473868876695633,0.7421606779098511,0.7166017889976501,0.7173647880554199,0.7166017889976501
0.7486457824707031,-0.24967575073242188,0.7486457824707031,0.7234683632850647,0.724612832069397,0.7234683632850647
0.7539864182472229,-0.25158312916755676,0.7543678879737854,0.7295719981193542,0.7291905283927917,0.728427529335022
0.7608529925346375,-0.25387197732925415,0.7608529925346375,0.7360570430755615,0.735675573348999,0.735675573348999
0.7673380374908447,-0.25577935576438904,0.7673380374908447,0.7425421476364136,0.7417792081832886,0.7421606779098511
0.7730602025985718,-0.2576867341995239,0.7730602025985718,0.7486457824707031,0.7467383742332458,0.7475013136863708
0.7795453071594238,-0.2599755823612213,0.7799267768859863,0.7547493577003479,0.7547493577003479,0.7536049485206604
0.7860303521156311,-0.2618829607963562,0.7864118218421936,0.7612344622612,0.7612344622612,0.760471522808075
0.7917525172233582,-0.2641718089580536,0.7917525172233582,0.7665750980377197,0.7665750980377197,0.7661936283111572
0.7982375621795654,-0.266460657119751,0.7986190319061279,0.7730602025985718,0.7730602025985718,0.7730602025985718
0.8047226667404175,-0.26836803555488586,0.80510413646698,0.7795453071594238,0.7803082466125488,0.7795453071594238
0.811589241027832,-0.27065691351890564,0.811589241027832,0.7852674126625061,0.7883192300796509,0.7860303521156311
0.8169298768043518,-0.2725642919540405,0.8169298768043518,0.7906080484390259,0.7936598658561707,0.7917525172233582
0.8237964510917664,-0.2748531401157379,0.8237964510917664,0.7982375621795654,0.8005264401435852,0.7978560924530029
0.8299000263214111,-0.2767605185508728,0.8302815556526184,0.80357825756073,0.8070115447044373,0.804341197013855
0.8363851308822632,-0.2790493667125702,0.8367666006088257,0.8112077713012695,0.812352180480957,0.8112077713012695
0.8424887657165527,-0.2809567451477051,0.8424887657165527,0.8173113465309143,0.8173113465309143,0.8169298768043518
0.8485923409461975,-0.28286412358283997,0.84897381067276,0.8241779208183289,0.8241779208183289,0.8230335116386414
0.8554589152336121,-0.28515297174453735,0.8554589152336121,0.8306630253791809,0.8302815556526184,0.8291370868682861
0.8607995510101318,-0.28706035017967224,0.8611810207366943,0.8367666006088257,0.8371480703353882,0.8352407217025757
0.8676661252975464,-0.28934919834136963,0.8680475950241089,0.8432517051696777,0.8436331748962402,0.8421072959899902
0.8745326995849609,-0.291638046503067,0.8741512298583984,0.8497368097305298,0.8501182794570923,0.848210871219635
0.8798733353614807,-0.2931639552116394,0.8798733353614807,0.8554589152336121,0.8558403849601746,0.8539330363273621
0.8863584399223328,-0.2954528033733368,0.8867399096488953,0.8615625500679016,0.8611810207366943,0.8607995510101318
0.8928435444831848,-0.2977416515350342,0.8928435444831848,0.8672846555709839,0.8684290647506714,0.8684290647506714
0.8993285894393921,-0.30003052949905396,0.8997100591659546,0.8737697601318359,0.8752956390380859,0.8737697601318359
0.9050507545471191,-0.30193790793418884,0.9050507545471191,0.8787289261817932,0.8802548050880432,0.8791103959083557
0.9115357995033264,-0.30422675609588623,0.9115357995033264,0.8863584399223328,0.8878843188285828,0.8855955004692078
0.9180209040641785,-0.3061341345310211,0.918402373790741,0.8932250142097473,0.8932250142097473,0.8924620151519775
0.9237430095672607,-0.308041512966156,0.9237430095672607,0.8985656499862671,0.8997100591659546,0.8985656499862671
0.9302281141281128,-0.3103303611278534,0.9302281141281128,0.9046692848205566,0.9058136940002441,0.9046692848205566
0.9367132186889648,-0.3122377395629883,0.9359502792358398,0.9119172692298889,0.9134432077407837,0.9111543297767639
0.9435797929763794,-0.31452658772468567,0.9435797929763794,0.9187838435173035,0.919165313243866,0.9180209040641785
0.9489204287528992,-0.31643396615982056,0.9481574892997742,0.9245060086250305,0.9260318875312805,0.9233615398406982
0.9557870030403137,-0.31872281432151794,0.9557870030403137,0.9313725233078003,0.9325169920921326,0.9287022352218628
0.9618905782699585,-0.32063019275665283,0.962272047996521,0.9382390975952148,0.9390020370483398,0.9359502792358398
0.967994213104248,-0.3229190409183502,0.967994213104248,0.9439612627029419,0.9443427324295044,0.9420538544654846
0.9744792580604553,-0.3248264193534851,0.9744792580604553,0.9504463076591492,0.951972246170044,0.9496833682060242
0.9809643626213074,-0.32673379778862,0.9813458323478699,0.9565499424934387,0.9588387608528137,0.9546425342559814
0.9874494671821594,-0.32940414547920227,0.9874494671821594,0.9626535177230835,0.9664682745933533,0.9618905782699585
0.9927901029586792,-0.33093002438545227,0.9931715726852417,0.9683756828308105,0.9710460305213928,0.9676127433776855
0.9996566772460938,-0.33321890234947205,0.9996566772460938,0.9748607873916626,0.9771496057510376,0.9744792580604553
1.0061417818069458,-0.33550775051116943,1.0065232515335083,0.9809643626213074,0.9851605892181396,0.9802014231681824
1.0118639469146729,-0.3374151289463043,1.0118639469146729,0.9866865277290344,0.9912642240524292,0.9859235286712646
1.0187304019927979,-0.3397039771080017,1.0187304019927979,0.9935530424118042,0.9977492690086365,0.9920271635055542
1.0248340368270874,-0.3416113555431366,1.02521550655365,1.0004196166992188,1.0019454956054688,0.9996566772460938
1.031700611114502,-0.3435187339782715,1.031700611114502,1.0069047212600708,1.0088120698928833,1.0057603120803833
1.0370413064956665,-0.34580758213996887,1.0370413064956665,1.0126268863677979,1.0141527652740479,1.0114823579788208
1.0435264110565186,-0.34771496057510376,1.043907880783081,1.019874930381775,1.021400809288025,1.0179674625396729
1.0503928661346436,-0.35000380873680115,1.0503928661346436,1.0263599157333374,1.0275044441223145,1.0248340368270874
1.055733561515808,-0.35191118717193604,1.0561150312423706,1.0320820808410645,1.0336079597473145,1.030174732208252
1.0626001358032227,-0.3542000353336334,1.0626001358032227,1.038948655128479,1.041237473487854,1.0370413064956665
1.0690852403640747,-0.3561074137687683,1.0690852403640747,1.045433759689331,1.047722578048706,1.0435264110565186
1.0751888751983643,-0.3583962619304657,1.0755703449249268,1.0515373945236206,1.053444743156433,1.050011396408081
1.0809109210968018,-0.3603036403656006,1.0812923908233643,1.0568779706954956,1.0587854385375977,1.055733561515808
1.0873960256576538,-0.36259251832962036,1.0877774953842163,1.0633630752563477,1.0645074844360352,1.0618371963500977
1.0938811302185059,-0.36449989676475525,1.0942625999450684,1.0698481798171997,1.0721369981765747,1.0679408311843872
1.0999847650527954,-0.36678874492645264,1.0999847650527954,1.0759518146514893,1.0778591632843018,1.0744259357452393
1.1064698696136475,-0.36907759308815,1.10685133934021,1.0816738605499268,1.0858701467514038,1.0812923908233643
1.113336443901062,-0.3713664412498474,1.113336443901062,1.0889219045639038,1.0919737815856934,1.0877774953842163
1.118677020072937,-0.3728923499584198,1.118677020072937,1.0942625999450684,1.0969328880310059,1.0931181907653809
1.125162124633789,-0.3751811981201172,1.1255435943603516,1.1007477045059204,1.1030365228652954,1.099603295326233
1.1316472291946411,-0.3770885765552521,1.1320286989212036,1.1072328090667725,1.109140157699585,1.1064698696136475
1.1381323337554932,-0.37899595499038696,1.1385138034820557,1.114099383354187,1.1144808530807495,1.112191915512085
1.1438543796539307,-0.38128480315208435,1.1438543796539307,1.1190584897994995,1.1224918365478516,1.117914080619812
1.1503394842147827,-0.38357365131378174,1.1507209539413452,1.1270694732666016,1.1285953521728516,1.125162124633789
1.1572060585021973,-0.3858625292778015,1.1575875282287598,1.1339360475540161,1.1339360475540161,1.1316472291946411
1.1629282236099243,-0.3877699077129364,1.1629282236099243,1.1392767429351807,1.1415655612945557,1.1369879245758057
1.1690318584442139,-0.3896772861480713,1.1694133281707764,1.1461433172225952,1.1472877264022827,1.1430914402008057
1.1758984327316284,-0.3919661343097687,1.1758984327316284,1.1522468328475952,1.1530098915100098,1.1499580144882202
1.1820019483566284,-0.39387351274490356,1.182383418083191,1.1583504676818848,1.1594948768615723,1.1564431190490723
1.1877241134643555,-0.39578089118003845,1.188105583190918,1.1633096933364868,1.1659799814224243,1.1617838144302368
1.19459068775177,-0.39845120906829834,1.19459068775177,1.1705577373504639,1.1728465557098389,1.1686503887176514
1.201075792312622,-0.4003585875034332,1.2014572620391846,1.176279902458191,1.178568720817566,1.1755168437957764
1.2079423666000366,-0.4026474356651306,1.2079423666000366,1.1839094161987305,1.1854352951049805,1.182383418083191
1.2132829427719116,-0.4045548141002655,1.2132829427719116,1.1892499923706055,1.19153892993927,1.1877241134643555
1.2197680473327637,-0.4064621925354004,1.2197680473327637,1.19611656665802,1.1980239152908325,1.1942092180252075
1.2262531518936157,-0.4091325104236603,1.2262531518936157,1.2006943225860596,1.204890489578247,1.2006943225860596
1.2315938472747803,-0.41065841913223267,1.2319753170013428,1.2079423666000366,1.2079423666000366,1.2060348987579346
1.2384604215621948,-0.41294726729393005,1.2384604215621948,1.2140458822250366,1.2151904106140137,1.2129014730453491
1.2449454069137573,-0.41523614525794983,1.2449454069137573,1.2209124565124512,1.2197680473327637,1.2193865776062012
1.2514305114746094,-0.4171435236930847,1.2518119812011719,1.2277790307998657,1.2285419702529907,1.2254902124404907
1.256771206855774,-0.4194323718547821,1.2571526765823364,1.2327382564544678,1.2350270748138428,1.2315938472747803
1.263256311416626,-0.421339750289917,1.263256311416626,1.2399863004684448,1.2399863004684448,1.2380788326263428
1.269741415977478,-0.4232471287250519,1.269741415977478,1.2457083463668823,1.2483787536621094,1.2441824674606323
1.275081992149353,-0.42515450716018677,1.275081992149353,1.2518119812011719,1.2529563903808594,1.2499046325683594
1.281567096710205,-0.42744335532188416,1.2819485664367676,1.2586785554885864,1.258297085762024,1.2563897371292114
1.2876707315444946,-0.42935073375701904,1.2880522012710571,1.264782190322876,1.265545129776001,1.2628748416900635
1.2941558361053467,-0.43125811219215393,1.2941558361053467,1.2708858251571655,1.2716487646102905,1.268596887588501
1.2991149425506592,-0.4327840209007263,1.2994964122772217,1.276607871055603,1.278515338897705,1.274319052696228
1.3052185773849487,-0.4354543387889862,1.3056000471115112,1.2827115058898926,1.284618854522705,1.28080415725708
1.3117036819458008,-0.4373617172241211,1.3117036819458008,1.2888151407241821,1.2895780801773071,1.2869077920913696
1.3166629076004028,-0.4388876259326935,1.3170443773269653,1.2941558361053467,1.2953002452850342,1.2914854288101196
1.3227664232254028,-0.44117647409439087,1.3227664232254028,1.3006408214569092,1.3002593517303467,1.2983520030975342
1.3284885883331299,-0.44308385252952576,1.3288700580596924,1.3063629865646362,1.3063629865646362,1.3048371076583862
1.3345922231674194,-0.44499123096466064,1.334973692893982,1.3128480911254883,1.3124666213989258,1.3105592727661133
1.339551329612732,-0.44651713967323303,1.339551329612732,1.3170443773269653,1.3181887865066528,1.3151369094848633
1.345273494720459,-0.4484245181083679,1.345273494720459,1.3239108324050903,1.3231478929519653,1.3212405443191528
1.350995659828186,-0.4503318965435028,1.3513771295547485,1.3292515277862549,1.3296329975128174,1.3273441791534424
1.3555734157562256,-0.4522392749786377,1.355954885482788,1.3338292837142944,1.335736632347107,1.3323034048080444
1.361295461654663,-0.4541466534137726,1.3616769313812256,1.3403143882751465,1.340695858001709,1.338025450706482
1.3670176267623901,-0.4560540020465851,1.3670176267623901,1.3456549644470215,1.3464179039001465,1.343747615814209
1.3723583221435547,-0.45757991075515747,1.3719768524169922,1.3513771295547485,1.353284478187561,1.349469780921936
1.3769359588623047,-0.45910581946372986,1.3773174285888672,1.3563363552093506,1.356717824935913,1.3544288873672485
1.3822766542434692,-0.46101319789886475,1.3822766542434692,1.362058401107788,1.3624398708343506,1.359769582748413
1.3876173496246338,-0.46253910660743713,1.3879988193511963,1.3670176267623901,1.3666361570358276,1.3654917478561401
1.3921949863433838,-0.4640650153160095,1.3921949863433838,1.3715953826904297,1.3719768524169922,1.3696879148483276
1.3971542119979858,-0.4659723937511444,1.3975356817245483,1.3769359588623047,1.3780803680419922,1.3750286102294922
1.4024949073791504,-0.4674982726573944,1.4013503789901733,1.3818951845169067,1.3830395936965942,1.3799878358840942
1.407454013824463,-0.4694056510925293,1.407454013824463,1.3876173496246338,1.3891432285308838,1.3857098817825317
1.4112688302993774,-0.4705500900745392,1.41165030002594,1.3918135166168213,1.3925764560699463,1.3906691074371338
1.41622793674469,-0.4720759987831116,1.41622793674469,1.3971542119979858,1.3971542119979858,1.3952468633651733
1.421187162399292,-0.47398337721824646,1.421187162399292,1.4021133184432983,1.4021133184432983,1.3998245000839233
1.425001859664917,-0.47512778639793396,1.425001859664917,1.4063096046447754,1.4063096046447754,1.4040207862854004
1.4295796155929565,-0.47665369510650635,1.4295796155929565,1.410887360572815,1.4112688302993774,1.4093613624572754
1.434157371520996,-0.47856107354164124,1.4333943128585815,1.4158464670181274,1.416990876197815,1.413939118385315
1.438735008239746,-0.4797055125236511,1.438735008239746,1.420424222946167,1.420424222946167,1.418898344039917
1.4421683549880981,-0.4808499217033386,1.4425498247146606,1.424238920211792,1.4246203899383545,1.422713041305542
1.4463645219802856,-0.482375830411911,1.4467459917068481,1.4288166761398315,1.429198145866394,1.4272907972335815
1.4509422779083252,-0.4839017391204834,1.4509422779083252,1.433012843132019,1.4337759017944336,1.4311054944992065
1.4551384449005127,-0.4850461483001709,1.4555199146270752,1.4375905990600586,1.4383535385131836,1.436446189880371
1.4585717916488647,-0.4861905872821808,1.4589532613754272,1.4414052963256836,1.4417868852615356,1.441023826599121
1.4627679586410522,-0.4877164959907532,1.4627679586410522,1.4459830522537231,1.4456015825271606,1.4448386430740356
1.4662013053894043,-0.4888609051704407,1.4662013053894043,1.4494163990020752,1.4494163990020752,1.4475089311599731
1.4703974723815918,-0.49038681387901306,1.4703974723815918,1.4532310962677002,1.4539940357208252,1.4517052173614502
1.4738308191299438,-0.49153125286102295,1.4742122888565063,1.4578088521957397,1.4581903219223022,1.4562828540802002
1.4768825769424438,-0.49267566204071045,1.4772640466690063,1.4608606100082397,1.4623864889144897,1.4597162008285522
1.481078863143921,-0.49382010102272034,1.4806973934173584,1.4654383659362793,1.4662013053894043,1.4639123678207397
1.4845120906829834,-0.49496451020240784,1.4845120906829834,1.4688715934753418,1.4700160026550293,1.4681086540222168
1.487945318222046,-0.4961089491844177,1.4875638484954834,1.4730678796768188,1.4734493494033813,1.4715418815612793
1.490615725517273,-0.4972533881664276,1.4909971952438354,1.4761196374893188,1.4757381677627563,1.4742122888565063
1.4940489530563354,-0.4983977973461151,1.4940489530563354,1.4795528650283813,1.4780269861221313,1.4776455163955688
1.4974822998046875,-0.4991607666015625,1.4974822998046875,1.4829862117767334,1.483367681503296,1.481078863143921
1.500152587890625,-0.50030517578125,1.500152587890625,1.4860379695892334,1.486419439315796,1.4852750301361084
1.503204345703125,-0.501068115234375,1.503204345703125,1.4894713163375854,1.4894713163375854,1.4887083768844604
1.5062562227249146,-0.5022125840187073,1.505874752998352,1.4925230741500854,1.4925230741500854,1.4917601346969604
1.5093079805374146,-0.5029755234718323,1.5093079805374146,1.4955748319625854,1.4948118925094604,1.4948118925094604
1.5115967988967896,-0.5041199326515198,1.5115967988967896,1.4982452392578125,1.4974822998046875,1.4974822998046875
1.514648675918579,-0.5048828721046448,1.514648675918579,1.501678466796875,1.500152587890625,1.500152587890625
1.5173189640045166,-0.506027340888977,1.5173189640045166,1.5039674043655396,1.5054932832717896,1.503204345703125
1.5199893712997437,-0.506790280342102,1.5199893712997437,1.5054932832717896,1.508926510810852,1.5062562227249146
1.5218967199325562,-0.507553219795227,1.5222781896591187,1.509689450263977,1.5127413272857666,1.5093079805374146
1.5245670080184937,-0.508316159248352,1.5245670080184937,1.5127413272857666,1.514648675918579,1.5115967988967896
1.5272372961044312,-0.509079098701477,1.5272372961044312,1.5142672061920166,1.516937494277954,1.5142672061920166
1.5291447639465332,-0.5094605684280396,1.5287632942199707,1.5180819034576416,1.5180819034576416,1.516937494277954
1.5314335823059082,-0.5106050372123718,1.5314335823059082,1.5203708410263062,1.5196079015731812,1.5199893712997437
1.5337224006652832,-0.5117494463920593,1.5337224006652832,1.5226596593856812,1.5218967199325562,1.5222781896591187
1.5352483987808228,-0.5117494463920593,1.5356298685073853,1.5249484777450562,1.5241855382919312,1.5241855382919312
1.5375372171401978,-0.5128938555717468,1.5375372171401978,1.5272372961044312,1.5268558263778687,1.5260928869247437
1.5394445657730103,-0.5136567950248718,1.5394445657730103,1.5295262336730957,1.5295262336730957,1.5280003547668457
1.5413519144058228,-0.5140383243560791,1.5413519144058228,1.5314335823059082,1.5329594612121582,1.5306706428527832
1.5428777933120728,-0.5148012638092041,1.5428777933120728,1.5333409309387207,1.5344853401184082,1.5321965217590332
1.5447852611541748,-0.5148012638092041,1.5444037914276123,1.5352483987808228,1.5360113382339478,1.5344853401184082
1.5463111400604248,-0.5155642032623291,1.5463111400604248,1.5371557474136353,1.5375372171401978,1.5363928079605103
1.5474555492401123,-0.5159456729888916,1.5470740795135498,1.5386816263198853,1.5383001565933228,1.5386816263198853
1.5489814281463623,-0.5163271427154541,1.5489814281463623,1.5405889749526978,1.5398260354995728,1.5405889749526978
1.5505073070526123,-0.5167086124420166,1.5505073070526123,1.5421148538589478,1.5417333841323853,1.5417333841323853
1.5516518354415894,-0.5170900821685791,1.5512703657150269,1.5436408519744873,1.5436408519744873,1.5436408519744873
1.5527962446212769,-0.5174715518951416,1.5527962446212769,1.5455482006072998,1.5455482006072998,1.5459296703338623
1.5539406538009644,-0.5178530812263489,1.5543221235275269,1.5466926097869873,1.5470740795135498,1.5466926097869873
1.5550850629806519,-0.5182345509529114,1.5550850629806519,1.5478370189666748,1.5482184886932373,1.5478370189666748
1.5562294721603394,-0.5186160206794739,1.5558480024337769,1.5493628978729248,1.5493628978729248,1.5485999584197998
1.5566109418869019,-0.5189974904060364,1.5573738813400269,1.5501258373260498,1.5501258373260498,1.5493628978729248
1.5573738813400269,-0.5193789601325989,1.5577553510665894,1.5516518354415894,1.5512703657150269,1.5508888959884644
1.5585182905197144,-0.5197604298591614,1.5585182905197144,1.5527962446212769,1.5520333051681519,1.5512703657150269
1.5596628189086914,-0.5201418995857239,1.559281349182129,1.5535591840744019,1.5535591840744019,1.5524147748947144
1.560044288635254,-0.5205233693122864,1.5596628189086914,1.5543221235275269,1.5554665327072144,1.5539406538009644
1.560044288635254,-0.5209048390388489,1.5604257583618164,1.5547035932540894,1.5566109418869019,1.5543221235275269
1.5604257583618164,-0.5209048390388489,1.560807228088379,1.5562294721603394,1.5573738813400269,1.5554665327072144
1.5611886978149414,-0.5209048390388489,1.5611886978149414,1.5566109418869019,1.5577553510665894,1.5558480024337769
1.561570167541504,-0.5209048390388489,1.5611886978149414,1.5569924116134644,1.5577553510665894,1.5562294721603394
1.562333106994629,-0.5209048390388489,1.561570167541504,1.5573738813400269,1.5573738813400269,1.5573738813400269
1.562333106994629,-0.5209048390388489,1.561570167541504,1.5577553510665894,1.5577553510665894,1.5581368207931519
1.562333106994629,-0.5209048390388489,1.561570167541504,1.5581368207931519,1.5585182905197144,1.5581368207931519
1.562333106994629,-0.5209048390388489,1.561570167541504,1.5581368207931519,1.559281349182129,1.5581368207931519
1.562333106994629,-0.5209048390388489,1.5619516372680664,1.5585182905197144,1.5604257583618164,1.5581368207931519
1.562333106994629,-0.5209048390388489,1.5619516372680664,1.5588998794555664,1.560807228088379,1.5588998794555664
1.562333106994629,-0.5209048390388489,1.5619516372680664,1.559281349182129,1.560807228088379,1.5596628189086914
1.5619516372680664,-0.5209048390388489,1.5619516372680664,1.5596628189086914,1.560807228088379,1.5604257583618164
1.562333106994629,-0.5209048390388489,1.561570167541504,1.5596628189086914,1.560807228088379,1.560044288635254
1.5619516372680664,-0.5209048390388489,1.5611886978149414,1.5596628189086914,1.560807228088379,1.560044288635254
1.5619516372680664,-0.5209048390388489,1.5611886978149414,1.559281349182129,1.5604257583618164,1.560044288635254
1.5619516372680664,-0.5209048390388489,1.5604257583618164,1.559281349182129,1.5604257583618164,1.560044288635254
1.560807228088379,-0.5205233693122864,1.560044288635254,1.559281349182129,1.5604257583618164,1.560044288635254
1.560044288635254,-0.5205233693122864,1.5588998794555664,1.559281349182129,1.5604257583618164,1.560044288635254
1.559281349182129,-0.5205233693122864,1.5581368207931519,1.559281349182129,1.560044288635254,1.5596628189086914
1.5585182905197144,-0.5197604298591614,1.5573738813400269,1.559281349182129,1.5596628189086914,1.559281349182129
1.5573738813400269,-0.5197604298591614,1.5562294721603394,1.5588998794555664,1.5581368207931519,1.559281349182129
1.5562294721603394,-0.5193789601325989,1.5558480024337769,1.5585182905197144,1.5577553510665894,1.559281349182129
1.5550850629806519,-0.5186160206794739,1.5543221235275269,1.5573738813400269,1.5558480024337769,1.5585182905197144
1.5535591840744019,-0.5182345509529114,1.5531777143478394,1.5566109418869019,1.5550850629806519,1.5569924116134644
1.5524147748947144,-0.5174715518951416,1.5516518354415894,1.5558480024337769,1.5543221235275269,1.5547035932540894
1.5516518354415894,-0.5174715518951416,1.5505073070526123,1.5539406538009644,1.5539406538009644,1.5543221235275269
1.5501258373260498,-0.5167086124420166,1.5493628978729248,1.5524147748947144,1.5535591840744019,1.5527962446212769
1.5482184886932373,-0.5163271427154541,1.5474555492401123,1.5516518354415894,1.5520333051681519,1.5524147748947144
1.5463111400604248,-0.5155642032623291,1.5459296703338623,1.5493628978729248,1.5505073070526123,1.5516518354415894
1.5447852611541748,-0.5151827335357666,1.5451667308807373,1.5489814281463623,1.5493628978729248,1.5501258373260498
1.5432593822479248,-0.5144197940826416,1.5428777933120728,1.5470740795135498,1.5478370189666748,1.5478370189666748
1.5413519144058228,-0.5140383243560791,1.5409704446792603,1.5455482006072998,1.5447852611541748,1.5466926097869873
1.5398260354995728,-0.5132753252983093,1.5390630960464478,1.5444037914276123,1.5447852611541748,1.5451667308807373
1.5375372171401978,-0.5128938555717468,1.5375372171401978,1.5428777933120728,1.5417333841323853,1.5444037914276123
1.5356298685073853,-0.5121309161186218,1.5348668098449707,1.5417333841323853,1.5417333841323853,1.5428777933120728
1.5333409309387207,-0.5113679766654968,1.5329594612121582,1.5405889749526978,1.5383001565933228,1.5398260354995728
1.5314335823059082,-0.5113679766654968,1.5310521125793457,1.5379186868667603,1.5363928079605103,1.5383001565933228
1.5291447639465332,-0.5102235674858093,1.5287632942199707,1.5363928079605103,1.5344853401184082,1.5363928079605103
1.5268558263778687,-0.5094605684280396,1.5264743566513062,1.5341038703918457,1.5318150520324707,1.5337224006652832
1.5245670080184937,-0.5086976289749146,1.5241855382919312,1.5325779914855957,1.5299077033996582,1.5318150520324707
1.5222781896591187,-0.5079346895217896,1.5215152502059937,1.5299077033996582,1.5276188850402832,1.5291447639465332
1.5196079015731812,-0.506790280342102,1.519226312637329,1.5276188850402832,1.5253299474716187,1.5272372961044312
1.5165560245513916,-0.506027340888977,1.5165560245513916,1.5249484777450562,1.5238040685653687,1.5249484777450562
1.5142672061920166,-0.5056458115577698,1.5142672061920166,1.5230411291122437,1.5215152502059937,1.5226596593856812
1.5115967988967896,-0.5041199326515198,1.5115967988967896,1.5196079015731812,1.519226312637329,1.5203708410263062
1.5085450410842896,-0.5033569931983948,1.508163571357727,1.5173189640045166,1.5165560245513916,1.517700433731079
1.5054932832717896,-0.5018310546875,1.505111813545227,1.514648675918579,1.5135042667388916,1.515411615371704
1.5028228759765625,-0.501068115234375,1.5028228759765625,1.5115967988967896,1.511215329170227,1.5127413272857666
1.4997711181640625,-0.4999237060546875,1.4993896484375,1.5085450410842896,1.508926510810852,1.5093079805374146
1.496337890625,-0.4991607666015625,1.4967193603515625,1.5054932832717896,1.5054932832717896,1.5062562227249146
1.493667483329773,-0.4983977973461151,1.493667483329773,1.50244140625,1.5039674043655396,1.5035858154296875
1.4902342557907104,-0.4968718886375427,1.489852786064148,1.4990081787109375,1.50091552734375,1.50091552734375
1.4868009090423584,-0.4957274794578552,1.486419439315796,1.496337890625,1.4974822998046875,1.497100830078125
1.4837491512298584,-0.49458304047584534,1.483367681503296,1.493667483329773,1.4940489530563354,1.494430422782898
1.4799343347549438,-0.49382010102272034,1.4799343347549438,1.490615725517273,1.490615725517273,1.4909971952438354
1.4765011072158813,-0.49229419231414795,1.4761196374893188,1.487945318222046,1.486419439315796,1.488326907157898
1.4723048210144043,-0.49114975333213806,1.4719233512878418,1.484130620956421,1.4822232723236084,1.4845120906829834
1.4692530632019043,-0.49000534415245056,1.4688715934753418,1.4806973934173584,1.4799343347549438,1.481841802597046
1.4650568962097168,-0.4888609051704407,1.4650568962097168,1.4780269861221313,1.4768825769424438,1.4780269861221313
1.4612420797348022,-0.4873350262641907,1.4608606100082397,1.4726864099502563,1.4734493494033813,1.4738308191299438
1.4578088521957397,-0.4861905872821808,1.4574273824691772,1.4696345329284668,1.4703974723815918,1.4700160026550293
1.4536125659942627,-0.4846646785736084,1.4536125659942627,1.4654383659362793,1.4654383659362793,1.4662013053894043
1.4490348100662231,-0.483138769865036,1.4497978687286377,1.4623864889144897,1.4620050191879272,1.4627679586410522
1.4448386430740356,-0.481612890958786,1.4448386430740356,1.4581903219223022,1.4570459127426147,1.4589532613754272
1.441023826599121,-0.4804684519767761,1.441023826599121,1.4543755054473877,1.4539940357208252,1.4551384449005127
1.436446189880371,-0.47894254326820374,1.436446189880371,1.4497978687286377,1.4501793384552002,1.4509422779083252
1.4318684339523315,-0.47779813408851624,1.4318684339523315,1.4452201128005981,1.4463645219802856,1.4467459917068481
1.4280537366867065,-0.47627222537994385,1.427672266960144,1.441023826599121,1.4425498247146606,1.4425498247146606
1.4230945110321045,-0.47474631667137146,1.4230945110321045,1.4360647201538086,1.437972068786621,1.4375905990600586
1.418135404586792,-0.4732204079627991,1.41775381565094,1.431486964225769,1.433012843132019,1.4337759017944336
1.413939118385315,-0.4716945290565491,1.413939118385315,1.427672266960144,1.4288166761398315,1.4303425550460815
1.408979892730713,-0.4701686203479767,1.408979892730713,1.422713041305542,1.425001859664917,1.425764799118042
1.4040207862854004,-0.4682612419128418,1.403639316558838,1.418135404586792,1.4192798137664795,1.4200427532196045
1.3994430303573608,-0.4671168029308319,1.4002059698104858,1.4135576486587524,1.41470205783844,1.4150835275650024
1.3941023349761963,-0.465209424495697,1.3941023349761963,1.4085984230041504,1.409742832183838,1.4105058908462524
1.3895246982574463,-0.46330204606056213,1.3895246982574463,1.404402256011963,1.405165195465088,1.4070725440979004
1.3841840028762817,-0.46177613735198975,1.3838025331497192,1.3994430303573608,1.3994430303573608,1.4021133184432983
1.3788433074951172,-0.45986875891685486,1.3784618377685547,1.3944838047027588,1.3952468633651733,1.3967727422714233
1.3738842010498047,-0.45834288001060486,1.3738842010498047,1.3899061679840088,1.3902876377105713,1.3918135166168213
1.3681620359420776,-0.45643550157546997,1.3681620359420776,1.3849469423294067,1.3853284120559692,1.3860913515090942
1.3624398708343506,-0.4545281231403351,1.3624398708343506,1.3799878358840942,1.3811322450637817,1.3811322450637817
1.3578622341156006,-0.4530022144317627,1.357480764389038,1.3746471405029297,1.3746471405029297,1.3765544891357422
1.351758599281311,-0.4507133662700653,1.351758599281311,1.3689249753952026,1.3696879148483276,1.3712139129638672
1.346036434173584,-0.4488059878349304,1.3456549644470215,1.3639658689498901,1.3643473386764526,1.3651102781295776
1.340695858001709,-0.44728007912635803,1.340695858001709,1.3586251735687256,1.359769582748413,1.3601510524749756
1.334973692893982,-0.44537270069122314,1.3345922231674194,1.3529030084609985,1.3544288873672485,1.354810357093811
1.3288700580596924,-0.44308385252952576,1.3288700580596924,1.347562313079834,1.348706841468811,1.3490883111953735
1.3239108324050903,-0.44155794382095337,1.3235293626785278,1.3418402671813965,1.3426032066345215,1.344510555267334
1.3174258470535278,-0.4396505653858185,1.3174258470535278,1.335736632347107,1.3368810415267944,1.3384069204330444
1.3124666213989258,-0.4377431869506836,1.3132295608520508,1.3307774066925049,1.3311588764190674,1.3330663442611694
1.3063629865646362,-0.4358358085155487,1.3059815168380737,1.3246738910675049,1.3265812397003174,1.3273441791534424
1.2998778820037842,-0.4339284300804138,1.2998778820037842,1.3185702562332153,1.3200961351394653,1.3212405443191528
1.2949187755584717,-0.43202105164527893,1.2945373058319092,1.3136110305786133,1.3155183792114258,1.3162813186645508
1.2884336709976196,-0.43011367321014404,1.2880522012710571,1.3075073957443237,1.3101778030395508,1.3101778030395508
1.28233003616333,-0.42820629477500916,1.2827115058898926,1.3017853498458862,1.3006408214569092,1.3040741682052612
1.2769893407821655,-0.42591744661331177,1.276607871055603,1.2964446544647217,1.2964446544647217,1.2991149425506592
1.270504355430603,-0.4240100681781769,1.2701228857040405,1.2903410196304321,1.2907224893569946,1.2930114269256592
1.2644007205963135,-0.422102689743042,1.264019250869751,1.2842373847961426,1.28385591506958,1.2865263223648071
1.2586785554885864,-0.4198138415813446,1.2586785554885864,1.280041217803955,1.27775239944458,1.2819485664367676
1.2521934509277344,-0.4179064631462097,1.2521934509277344,1.273556113243103,1.272030234336853,1.275081992149353
1.2468528747558594,-0.41599908471107483,1.2468528747558594,1.2674524784088135,1.267833948135376,1.269741415977478
1.2403677701950073,-0.41371023654937744,1.2403677701950073,1.261348843574524,1.2621119022369385,1.263256311416626
1.2338826656341553,-0.41180285811424255,1.2338826656341553,1.2548638582229614,1.2556267976760864,1.256771206855774
1.2285419702529907,-0.40989547967910767,1.2285419702529907,1.2495231628417969,1.2506675720214844,1.2518119812011719
1.2220568656921387,-0.4076066315174103,1.2220568656921387,1.2430380582809448,1.2438009977340698,1.2457083463668823
1.2155718803405762,-0.4053177833557129,1.2151904106140137,1.2369344234466553,1.2373158931732178,1.2392233610153198
1.2102311849594116,-0.4037918746471405,1.2098497152328491,1.2312123775482178,1.2323567867279053,1.2335011959075928
1.203364610671997,-0.4015030264854431,1.203364610671997,1.2251087427139282,1.2251087427139282,1.2273975610733032
1.1972609758377075,-0.39921414852142334,1.196879506111145,1.2182421684265137,1.2190051078796387,1.2209124565124512
1.19153892993927,-0.39768826961517334,1.19153892993927,1.2132829427719116,1.2129014730453491,1.2155718803405762
1.185053825378418,-0.39616236090660095,1.1846723556518555,1.2067978382110596,1.2067978382110596,1.2090867757797241
1.178568720817566,-0.3934920132160187,1.178568720817566,1.2014572620391846,1.1999313831329346,1.202601671218872
1.1732280254364014,-0.3919661343097687,1.1728465557098389,1.1949721574783325,1.1949721574783325,1.1972609758377075
1.1667429208755493,-0.3896772861480713,1.1663614511489868,1.1892499923706055,1.187342643737793,1.1907758712768555
1.1610208749771118,-0.3873884081840515,1.1606394052505493,1.1827648878097534,1.182383418083191,1.1854352951049805
1.1545357704162598,-0.3850995600223541,1.1541543006896973,1.176279902458191,1.1751353740692139,1.178568720817566
1.1480506658554077,-0.38281071186065674,1.1476691961288452,1.1697947978973389,1.1694133281707764,1.1724650859832764
1.1423285007476807,-0.38128480315208435,1.1423285007476807,1.1644541025161743,1.1633096933364868,1.1667429208755493
1.1358433961868286,-0.37937742471694946,1.1358433961868286,1.1579689979553223,1.1583504676818848,1.1606394052505493
1.1289769411087036,-0.3767071068286896,1.1293584108352661,1.1522468328475952,1.1526284217834473,1.1533913612365723
1.123636245727539,-0.3755626678466797,1.1232547760009766,1.1469062566757202,1.1472877264022827,1.1480506658554077
1.117151141166687,-0.3728923499584198,1.117151141166687,1.1404211521148682,1.1392767429351807,1.1419470310211182
1.110666036605835,-0.3706035017967224,1.11142897605896,1.1327916383743286,1.1324101686477661,1.1358433961868286
1.104943871498108,-0.3686961233615875,1.1057069301605225,1.127450942993164,1.1255435943603516,1.1293584108352661
1.0984588861465454,-0.36602577567100525,1.0992218255996704,1.120965838432312,1.1190584897994995,1.1224918365478516
1.0915923118591309,-0.36411839723587036,1.0915923118591309,1.114099383354187,1.113336443901062,1.1167696714401245
1.0862516164779663,-0.3622110188007355,1.0862516164779663,1.10990309715271,1.107614278793335,1.11142897605896
1.0793850421905518,-0.3606851398944855,1.0793850421905518,1.1030365228652954,1.103417992591858,1.104180932044983
1.0728999376296997,-0.3583962619304657,1.0725184679031372,1.0961699485778809,1.0969328880310059,1.0976959466934204
1.0671778917312622,-0.3561074137687683,1.0671778917312622,1.0904479026794434,1.0904479026794434,1.0927367210388184
1.0603113174438477,-0.3538185656070709,1.0603113174438477,1.0835813283920288,1.0828183889389038,1.0858701467514038
1.054970622062683,-0.35191118717193604,1.0545891523361206,1.0778591632843018,1.0767147541046143,1.0801479816436768
1.0481040477752686,-0.34962233901023865,1.0481040477752686,1.0709925889968872,1.0694667100906372,1.0732814073562622
1.0416189432144165,-0.34771496057510376,1.0416189432144165,1.0645074844360352,1.0641260147094727,1.0671778917312622
1.035896897315979,-0.34580758213996887,1.035896897315979,1.0595483779907227,1.0584038496017456,1.0614557266235352
1.029411792755127,-0.3435187339782715,1.029411792755127,1.0538262128829956,1.0515373945236206,1.0545891523361206
1.0233081579208374,-0.3416113555431366,1.0225452184677124,1.0465781688690186,1.046959638595581,1.0481040477752686
1.0175859928131104,-0.3393225073814392,1.0172045230865479,1.0408560037612915,1.040474534034729,1.042763352394104
1.0107194185256958,-0.3370336592197418,1.0107194185256958,1.033989429473877,1.0355154275894165,1.036659836769104
1.0042344331741333,-0.33474478125572205,1.0042344331741333,1.027885913848877,1.0275044441223145,1.029411792755127
0.9977492690086365,-0.33245593309402466,0.9977492690086365,1.021400809288025,1.0194933414459229,1.0225452184677124
0.9920271635055542,-0.33093002438545227,0.9924086332321167,1.0156786441802979,1.0145342350006104,1.0172045230865479
0.9855420589447021,-0.3286411762237549,0.9855420589447021,1.0091935396194458,1.0091935396194458,1.0107194185256958
0.9790570139884949,-0.32673379778862,0.9790570139884949,1.0030899047851562,1.0023269653320312,1.0042344331741333
0.9737163186073303,-0.3248264193534851,0.9733348488807678,0.997367799282074,0.9969863295555115,0.9988937377929688
0.9668498039245605,-0.3225375711917877,0.9668498039245605,0.9905012845993042,0.9897382855415344,0.9924086332321167
0.9603646993637085,-0.32024872303009033,0.9603646993637085,0.9840161800384521,0.9828717708587646,0.9859235286712646
0.9538795948028564,-0.31795987486839294,0.953498125076294,0.9771496057510376,0.9760051965713501,0.9794384837150574
0.9481574892997742,-0.31643396615982056,0.9481574892997742,0.9718089699745178,0.9714275002479553,0.9737163186073303
0.9416723847389221,-0.31414511799812317,0.9416723847389221,0.9653238654136658,0.9641794562339783,0.9664682745933533
0.9351872801780701,-0.3122377395629883,0.9351872801780701,0.9588387608528137,0.9584572911262512,0.9603646993637085
0.9298466444015503,-0.3103303611278534,0.9294651746749878,0.9531166553497314,0.951972246170044,0.9554055333137512
0.9229800701141357,-0.308804452419281,0.9229800701141357,0.9470130205154419,0.9462500810623169,0.9485389590263367
0.9164950251579285,-0.3057526648044586,0.9172579646110535,0.9401465058326721,0.9382390975952148,0.9416723847389221
0.9100099205970764,-0.30346378684043884,0.9096284508705139,0.9336614012718201,0.9321355223655701,0.9351872801780701
0.9042877554893494,-0.30155640840530396,0.9042877554893494,0.9290837049484253,0.9260318875312805,0.9298466444015503
0.8978027105331421,-0.29964902997016907,0.8974212408065796,0.9214541912078857,0.9199283123016357,0.9237430095672607
0.89131760597229,-0.2969787120819092,0.8909361362457275,0.9153505563735962,0.9130617380142212,0.916113555431366
0.8855955004692078,-0.2954528033733368,0.8855955004692078,0.9096284508705139,0.9073395729064941,0.9119172692298889
0.8791103959083557,-0.2935454249382019,0.8791103959083557,0.9031433463096619,0.9027618765830994,0.9050507545471191
0.8722438216209412,-0.2912565767765045,0.8722438216209412,0.8966583013534546,0.8958953022956848,0.8978027105331421
0.8657587766647339,-0.28896772861480713,0.8657587766647339,0.890554666519165,0.88979172706604,0.89131760597229
0.8604180812835693,-0.28744181990623474,0.8611810207366943,0.8848325610160828,0.8821622133255005,0.8859769701957703
0.8535515666007996,-0.28477150201797485,0.8535515666007996,0.8779659867286682,0.8768215179443359,0.8794918656349182
0.84744793176651,-0.28248265385627747,0.8470664620399475,0.8710994124412537,0.8695735335350037,0.8730067610740662
0.841725766658783,-0.2809567451477051,0.8413442969322205,0.8661402463912964,0.8627069592475891,0.8669031858444214
0.8348592519760132,-0.2790493667125702,0.8348592519760132,0.8588922023773193,0.8566033244132996,0.8604180812835693
0.8283741474151611,-0.2767605185508728,0.8283741474151611,0.8524070978164673,0.8504997491836548,0.8543145060539246
0.8218890428543091,-0.2744716703891754,0.8215075731277466,0.8463035225868225,0.8451590538024902,0.8478294014930725
0.8161669373512268,-0.2733272314071655,0.8161669373512268,0.840962827205658,0.839436948299408,0.8421072959899902
0.8096818327903748,-0.27103838324546814,0.8096818327903748,0.8340963125228882,0.8325703740119934,0.8352407217025757
0.8031967878341675,-0.26798656582832336,0.8031967878341675,0.8276112079620361,0.8257037997245789,0.8287556171417236
0.7978560924530029,-0.26684215664863586,0.7974746227264404,0.8218890428543091,0.8192187547683716,0.8234149813652039
0.7909895181655884,-0.264934778213501,0.7906080484390259,0.8150225281715393,0.8127336502075195,0.8169298768043518
0.7845044732093811,-0.2618829607963562,0.7841230034828186,0.8085374236106873,0.804341197013855,0.8096818327903748
0.778019368648529,-0.2603570520877838,0.7776378989219666,0.8020523190498352,0.7970931529998779,0.80357825756073
0.7722972631454468,-0.2588311731815338,0.7719157934188843,0.7970931529998779,0.7936598658561707,0.7990005612373352
0.7658121585845947,-0.25654229521751404,0.7654306888580322,0.7898451089859009,0.7860303521156311,0.7917525172233582
0.7593270540237427,-0.25425344705581665,0.7589455842971802,0.7845044732093811,0.7784008383750916,0.7841230034828186
0.7536049485206604,-0.25272753834724426,0.7536049485206604,0.7784008383750916,0.7745860815048218,0.7791637778282166
0.7467383742332458,-0.2508201599121094,0.7467383742332458,0.7719157934188843,0.7681010365486145,0.7730602025985718
0.7402533292770386,-0.247768372297287,0.7402533292770386,0.7654306888580322,0.7631418108940125,0.7658121585845947
0.734149694442749,-0.2454795092344284,0.7337682247161865,0.7589455842971802,0.7555122971534729,0.7593270540237427
0.728427529335022,-0.24357213079929352,0.7280460596084595,0.7532234787940979,0.7494087219238281,0.7543678879737854
0.7215610146522522,-0.24128328263759613,0.7215610146522522,0.7459754347801208,0.7444495558738708,0.7478827834129333
0.7150759100914001,-0.23861294984817505,0.7150759100914001,0.7406347990036011,0.7375829815864563,0.7406347990036011
0.7093538045883179,-0.23632410168647766,0.7093538045883179,0.734912633895874,0.7307164072990417,0.734912633895874
0.7024872303009033,-0.23479819297790527,0.7024872303009033,0.726901650428772,0.7257572412490845,0.728427529335022
0.6971465349197388,-0.23250934481620789,0.6971465349197388,0.7215610146522522,0.7200350761413574,0.7230868935585022
0.690280020236969,-0.2298390120267868,0.690280020236969,0.7154573798179626,0.7143129706382751,0.7158388495445251
0.6837949156761169,-0.2286945879459381,0.6834134459495544,0.7089722752571106,0.7089722752571106,0.7097352743148804
0.6780728101730347,-0.22640573978424072,0.6780728101730347,0.7040131092071533,0.7021057605743408,0.7040131092071533
0.6715877056121826,-0.22373540699481964,0.6712062358856201,0.6963835954666138,0.6952391862869263,0.6971465349197388
0.6651026010513306,-0.22259098291397095,0.6647211313247681,0.6898985505104065,0.6891355514526367,0.6906614899635315
0.6586175560951233,-0.22030213475227356,0.6582360863685608,0.6826505064964294,0.6837949156761169,0.6845578551292419
0.6528953909873962,-0.21801327168941498,0.6528953909873962,0.6780728101730347,0.6750209927558899,0.6784542798995972
0.6464102864265442,-0.21648737788200378,0.6460288166999817,0.6708247661590576,0.6689173579216003,0.6715877056121826
0.6395437717437744,-0.2145799994468689,0.6395437717437744,0.6647211313247681,0.6631952524185181,0.6658655405044556
0.6330586671829224,-0.21229113638401031,0.6338216066360474,0.6578545570373535,0.6555657386779785,0.6593804955482483
0.6277180314064026,-0.21038375794887543,0.6273365616798401,0.6532768607139587,0.6490806341171265,0.6528953909873962
0.6212329268455505,-0.20847637951374054,0.620851457118988,0.6456473469734192,0.6433585286140442,0.647173285484314
0.614366352558136,-0.20618753135204315,0.614366352558136,0.6399252414703369,0.6361104846000671,0.6406881809234619
0.6086442470550537,-0.20428015291690826,0.6086442470550537,0.6334401369094849,0.6315327882766724,0.6349660754203796
0.6021591424942017,-0.20199130475521088,0.6017776727676392,0.6265735626220703,0.6246662139892578,0.6277180314064026
0.5956740379333496,-0.1997024416923523,0.5952925682067871,0.6204699873924255,0.619325578212738,0.621614396572113
0.5899519324302673,-0.1977950781583786,0.5899519324302673,0.6147478222846985,0.614366352558136,0.6162737607955933
0.5834668278694153,-0.19550621509552002,0.5830853581428528,0.6082627773284912,0.6067368388175964,0.6090257167816162
0.577744722366333,-0.19283588230609894,0.5773632526397705,0.6036850810050964,0.6010147333145142,0.6029220819473267
0.5708781480789185,-0.19092851877212524,0.5708781480789185,0.5956740379333496,0.5971999764442444,0.5968185067176819
0.5643930435180664,-0.18787670135498047,0.5643930435180664,0.5891889929771423,0.5895704627037048,0.5903334021568298
0.5586709380149841,-0.18673227727413177,0.5586709380149841,0.5842298269271851,0.5842298269271851,0.5842298269271851
0.5518043637275696,-0.1844434291124344,0.5518043637275696,0.5773632526397705,0.5773632526397705,0.5773632526397705
0.5453193187713623,-0.1813916265964508,0.5453193187713623,0.5708781480789185,0.5708781480789185,0.5708781480789185
0.5395971536636353,-0.17948424816131592,0.5407415628433228,0.5655375123023987,0.5636301040649414,0.5651560425758362
0.5327305793762207,-0.17872129380702972,0.5327305793762207,0.5590524077415466,0.5567635893821716,0.5590524077415466
0.5262455344200134,-0.17605096101760864,0.5262455344200134,0.5510414242744446,0.5510414242744446,0.5518043637275696
0.5205233693122864,-0.17414358258247375,0.5205233693122864,0.5457007884979248,0.5476081371307373,0.5464637279510498
0.5140383243560791,-0.17261768877506256,0.5140383243560791,0.5392156839370728,0.5376898050308228,0.5395971536636353
0.508316159248352,-0.17071031033992767,0.508316159248352,0.5334935784339905,0.5334935784339905,0.534637987613678
0.5014495849609375,-0.1680399775505066,0.5014495849609375,0.5270084738731384,0.5258640646934509,0.5289158225059509
0.49496451020240784,-0.1661325991153717,0.49458304047584534,0.5201418995857239,0.5186160206794739,0.5205233693122864
0.48962387442588806,-0.16384375095367432,0.4892423748970032,0.5144197940826416,0.5128938555717468,0.5151827335357666
0.4827573001384735,-0.16155488789081573,0.482375830411911,0.5071717500686646,0.5071717500686646,0.509079098701477
0.47589075565338135,-0.15926603972911835,0.47589075565338135,0.501068115234375,0.499542236328125,0.5018310546875
0.4705500900745392,-0.15735866129398346,0.4705500900745392,0.4957274794578552,0.49496451020240784,0.4953460097312927
0.46368351578712463,-0.15545128285884857,0.4640650153160095,0.4888609051704407,0.4877164959907532,0.48962387442588806
0.45719844102859497,-0.1527809500694275,0.45719844102859497,0.4839017391204834,0.482375830411911,0.483138769865036
0.4514763057231903,-0.1504921019077301,0.4514763057231903,0.47741663455963135,0.47817960381507874,0.47703516483306885
0.44499123096466064,-0.1489662081003189,0.44575417041778564,0.4709315598011017,0.4709315598011017,0.4701686203479767
0.439269095659256,-0.14667734503746033,0.4404135048389435,0.465209424495697,0.4640650153160095,0.4648279547691345
0.43240252137184143,-0.14400701224803925,0.43240252137184143,0.45796138048171997,0.45834288001060486,0.45834288001060486
0.42553597688674927,-0.14248111844062805,0.42553597688674927,0.4514763057231903,0.4518577754497528,0.4510948359966278
0.4201953113079071,-0.14057374000549316,0.4201953113079071,0.44537270069122314,0.44613564014434814,0.44537270069122314
0.41371023654937744,-0.13866636157035828,0.41332876682281494,0.439269095659256,0.438506156206131,0.439269095659256
0.4068436622619629,-0.1359960287809372,0.4064621925354004,0.43240252137184143,0.43202105164527893,0.4327840209007263
0.4011215269565582,-0.134470134973526,0.4011215269565582,0.42706188559532166,0.42706188559532166,0.42668038606643677
0.39463645219802856,-0.13218127191066742,0.39463645219802856,0.4198138415813446,0.4190509021282196,0.4201953113079071
0.3877699077129364,-0.12989242374897003,0.3877699077129364,0.41447317600250244,0.41180285811424255,0.41371023654937744
0.38242924213409424,-0.12836651504039764,0.38319218158721924,0.4076066315174103,0.4060807228088379,0.4083695709705353
0.3755626678466797,-0.12569619715213776,0.3755626678466797,0.4007400572299957,0.4007400572299957,0.4015030264854431
0.369840532541275,-0.12378881871700287,0.369840532541275,0.39539939165115356,0.39539939165115356,0.39539939165115356
0.36335545778274536,-0.12149996310472488,0.36335545778274536,0.3892957866191864,0.3896772861480713,0.3889143168926239
0.3564889132976532,-0.1192111074924469,0.3576333224773407,0.38281071186065674,0.38128480315208435,0.38204777240753174
0.35076677799224854,-0.11730372905731201,0.35114824771881104,0.3770885765552521,0.3778515160083771,0.3767071068286896
0.3442816734313965,-0.11501488089561462,0.3442816734313965,0.3702220320701599,0.3706035017967224,0.369840532541275
0.3377965986728668,-0.11272602528333664,0.3377965986728668,0.36335545778274536,0.36373692750930786,0.36297398805618286
0.33207446336746216,-0.11120012402534485,0.33207446336746216,0.3576333224773407,0.3580147922039032,0.3576333224773407
0.3255893886089325,-0.10852979123592377,0.32520791888237,0.35114824771881104,0.35191118717193604,0.35114824771881104
0.31872281432151794,-0.10700388997793198,0.31872281432151794,0.344663143157959,0.34580758213996887,0.3442816734313965
0.3133821487426758,-0.10509651154279709,0.3133821487426758,0.3385595381259918,0.3385595381259918,0.3385595381259918
0.3068970739841461,-0.1028076633810997,0.3068970739841461,0.33207446336746216,0.33245593309402466,0.33207446336746216
0.30041199922561646,-0.10051880776882172,0.30041199922561646,0.3255893886089325,0.325970858335495,0.325970858335495
0.2946898639202118,-0.09899290651082993,0.2946898639202118,0.32024872303009033,0.32101166248321533,0.31986725330352783
0.28820478916168213,-0.09670405089855194,0.28820478916168213,0.31376364827156067,0.31376364827156067,0.3130006790161133
0.28286412358283997,-0.09441519528627396,0.28286412358283997,0.3084229826927185,0.3061341345310211,0.308041512966156
0.2767605185508728,-0.09250781685113907,0.2763790488243103,0.30231937766075134,0.30193790793418884,0.30193790793418884
0.27027541399002075,-0.09098191559314728,0.27027541399002075,0.2958342730998993,0.2954528033733368,0.2954528033733368
0.264934778213501,-0.08869306743144989,0.264934778213501,0.290112167596817,0.290112167596817,0.28934919834136963
0.2588311731815338,-0.0864042118191719,0.2592126429080963,0.28439003229141235,0.28362706303596497,0.28324559330940247
0.25272753834724426,-0.08487831056118011,0.25272753834724426,0.2775234580039978,0.2775234580039978,0.2775234580039978
0.2473868876695633,-0.08297093212604523,0.2473868876695633,0.2725642919540405,0.2733272314071655,0.27218279242515564
0.24166475236415863,-0.08068207651376724,0.24128328263759613,0.2660791873931885,0.26722362637519836,0.2653162479400635
0.23556114733219147,-0.07877469807863235,0.23556114733219147,0.2599755823612213,0.2607385218143463,0.2595941126346588
0.230601966381073,-0.07724879682064056,0.230601966381073,0.25501641631126404,0.25539788603782654,0.25463491678237915
0.22487983107566833,-0.07534141838550568,0.22487983107566833,0.24967575073242188,0.2508201599121094,0.248531311750412
0.21992065012454987,-0.07419699430465698,0.21992065012454987,0.2439536154270172,0.2454795092344284,0.24319066107273102
0.2141985148191452,-0.071908138692379,0.2141985148191452,0.23823148012161255,0.24013885855674744,0.23708705604076385
0.20847637951374054,-0.07000076025724411,0.20847637951374054,0.23289081454277039,0.23403525352478027,0.2317463904619217
0.20351719856262207,-0.06809338182210922,0.20389868319034576,0.22755016386508942,0.22716869413852692,0.22678720951080322
0.1981765478849411,-0.06618601083755493,0.1977950781583786,0.22182802855968475,0.22220951318740845,0.22220951318740845
0.19245441257953644,-0.06427863240242004,0.19245441257953644,0.2161058932542801,0.21686884760856628,0.2153429538011551
0.18787670135498047,-0.06313420087099075,0.18787670135498047,0.21114671230316162,0.21114671230316162,0.21038375794887543
0.182917520403862,-0.06160829961299896,0.1825360506772995,0.20618753135204315,0.20466163754463196,0.20504310727119446
0.17757686972618103,-0.05970092490315437,0.17757686972618103,0.20084688067436218,0.20084688067436218,0.1997024416923523
0.17299915850162506,-0.058175019919872284,0.17299915850162506,0.1958876997232437,0.1958876997232437,0.19550621509552002
0.1680399775505066,-0.056267641484737396,0.1676585078239441,0.19054703414440155,0.19169145822525024,0.18978407979011536
0.16308079659938812,-0.054741740226745605,0.16269932687282562,0.18520638346672058,0.18558785319328308,0.1840619444847107
0.15888457000255585,-0.053215838968753815,0.15888457000255585,0.1806286722421646,0.1806286722421646,0.17986571788787842
0.15392538905143738,-0.05130846053361893,0.15392538905143738,0.17566949129104614,0.17605096101760864,0.17490653693675995
0.1497291475534439,-0.049782559275627136,0.1504921019077301,0.17147326469421387,0.17261768877506256,0.17109178006649017
0.14515145123004913,-0.048638131469488144,0.14476996660232544,0.1668955534696579,0.16956588625907898,0.1657511293888092
0.14019227027893066,-0.04749370738863945,0.14133669435977936,0.16193637251853943,0.16346226632595062,0.16041046380996704
0.1363775134086609,-0.04596780240535736,0.1367589831352234,0.15812161564826965,0.15926603972911835,0.15583276748657227
0.13218127191066742,-0.04406042397022247,0.13218127191066742,0.15316243469715118,0.15430685877799988,0.1516365259885788
0.12760357558727264,-0.04291599988937378,0.12760357558727264,0.14858472347259521,0.1493476778268814,0.14705882966518402
0.12302586436271667,-0.04139009863138199,0.12302586436271667,0.14362554252147675,0.14476996660232544,0.14286258816719055
0.11959258466959,-0.040627144277095795,0.1192111074924469,0.14019227027893066,0.13981078565120697,0.13866636157035828
0.11539635062217712,-0.038719769567251205,0.11539635062217712,0.1348516047000885,0.1340886503458023,0.1337071806192398
0.11120012402534485,-0.03757534176111221,0.11120012402534485,0.13065537810325623,0.12951095402240753,0.12912946939468384
0.10776684433221817,-0.03604944050312042,0.10776684433221817,0.12722209095954895,0.12645913660526276,0.12684062123298645
0.1035706102848053,-0.03452353551983833,0.1035706102848053,0.12378881871700287,0.12264438718557358,0.12188144028186798
0.09975585341453552,-0.03337911143898964,0.09975585341453552,0.1199740618467331,0.1188296303153038,0.11768520623445511
0.09632257372140884,-0.032616160809993744,0.09708552807569504,0.11654078215360641,0.11463340371847153,0.11387044936418533
0.09250781685113907,-0.031090257689356804,0.09288929402828217,0.11196307092905045,0.11158160120248795,0.10967422276735306
0.08907453715801239,-0.03032730519771576,0.08907453715801239,0.10814831405878067,0.10891126841306686,0.10585946589708328
0.08602273464202881,-0.02880140393972397,0.0864042118191719,0.10471503436565399,0.10433356463909149,0.1024261862039566
0.08258945494890213,-0.027656977996230125,0.08258945494890213,0.10090028494596481,0.10128175467252731,0.09899290651082993
0.07953765243291855,-0.02689402550458908,0.07953765243291855,0.09822995215654373,0.09822995215654373,0.09555962681770325
0.07610437273979187,-0.026131074875593185,0.07572289556264877,0.09441519528627396,0.09479667246341705,0.09212634712457657
0.07267109304666519,-0.024605173617601395,0.07267109304666519,0.09021896868944168,0.09288929402828217,0.08869306743144989
0.07000076025724411,-0.02384222112596035,0.07038223743438721,0.086785688996315,0.08907453715801239,0.08525978773832321
0.06694895774126053,-0.022697795182466507,0.06771191209554672,0.08297093212604523,0.08487831056118011,0.08220797777175903
0.06389715522527695,-0.021171892061829567,0.06389715522527695,0.07991912961006165,0.08182650804519653,0.07839322835206985
0.06160829961299896,-0.02040894143283367,0.06160829961299896,0.07724879682064056,0.07763027399778366,0.07572289556264877
0.05855649709701538,-0.01926451548933983,0.05855649709701538,0.07534141838550568,0.07457847148180008,0.07267109304666519
0.0551232174038887,-0.018501564860343933,0.0555046908557415,0.07343403995037079,0.0711451917886734,0.06961929053068161
0.05283436179161072,-0.01735713705420494,0.053215838968753815,0.07000076025724411,0.06961929053068161,0.06694895774126053
0.05054550990462303,-0.01735713705420494,0.05092698708176613,0.06694895774126053,0.06618601083755493,0.06427863240242004
0.048256658017635345,-0.016594186425209045,0.048256658017635345,0.06389715522527695,0.06313420087099075,0.06084534898400307
0.04558632895350456,-0.015449759550392628,0.04596780240535736,0.06008239835500717,0.05970092490315437,0.058175019919872284
0.04329747334122658,-0.014686808921396732,0.04329747334122658,0.05741206929087639,0.057793546468019485,0.0558861680328846
0.040627144277095795,-0.01430533267557621,0.040627144277095795,0.054741740226745605,0.0551232174038887,0.05283436179161072
0.038719769567251205,-0.013160906732082367,0.03833829239010811,0.05207141116261482,0.05207141116261482,0.05054550990462303
0.03681239113211632,-0.012779430486261845,0.03681239113211632,0.050164032727479935,0.050164032727479935,0.04901960864663124
0.03490501269698143,-0.012397955171763897,0.03490501269698143,0.048638131469488144,0.04787518084049225,0.04634927958250046
0.032616160809993744,-0.011635004542768002,0.03299763426184654,0.04711223021149635,0.04558632895350456,0.04444190114736557
0.030708782374858856,-0.010872052982449532,0.031090257689356804,0.04406042397022247,0.04444190114736557,0.042153049260377884
0.02880140393972397,-0.010490577667951584,0.029564354568719864,0.04177157208323479,0.04291599988937378,0.040245670825242996
0.02727550081908703,-0.009346150793135166,0.027656977996230125,0.0394827201962471,0.04100862145423889,0.03795681521296501
0.025749599561095238,-0.00858320016413927,0.026131074875593185,0.037193864583969116,0.038719769567251205,0.03528648987412453
0.024223696440458298,-0.008201723918318748,0.024223696440458298,0.03490501269698143,0.03681239113211632,0.03376058489084244
0.022697795182466507,-0.007057297509163618,0.02231631986796856,0.032616160809993744,0.03490501269698143,0.03147173300385475
0.021553369238972664,-0.006294346414506435,0.021171892061829567,0.03185320645570755,0.03337911143898964,0.03032730519771576
0.020027466118335724,-0.00667582219466567,0.020027466118335724,0.03032730519771576,0.03223468363285065,0.027656977996230125
0.018501564860343933,-0.006294346414506435,0.018501564860343933,0.029182879254221916,0.02880140393972397,0.02727550081908703
0.01735713705420494,-0.005912871100008488,0.01773861236870289,0.02727550081908703,0.027656977996230125,0.02536812424659729
0.016212711110711098,-0.005531395319849253,0.016594186425209045,0.025749599561095238,0.025749599561095238,0.024605173617601395
0.015449759550392628,-0.005531395319849253,0.01506828423589468,0.024605173617601395,0.024605173617601395,0.023460745811462402
0.01430533267557621,-0.00476844422519207,0.01430533267557621,0.02384222112596035,0.023079270496964455,0.02193484455347061
0.013542382046580315,-0.004386968910694122,0.013542382046580315,0.022697795182466507,0.021553369238972664,0.02079041674733162
0.012397955171763897,-0.004386968910694122,0.012397955171763897,0.021171892061829567,0.021171892061829567,0.020027466118335724
0.01125352829694748,-0.004386968910694122,0.011635004542768002,0.020027466118335724,0.01888304017484188,0.018120087683200836
0.01125352829694748,-0.004386968910694122,0.01125352829694748,0.01773861236870289,0.018501564860343933,0.01735713705420494
0.010490577667951584,-0.004005493130534887,0.010490577667951584,0.016975661739706993,0.018120087683200836,0.016594186425209045
0.010109102353453636,-0.0032425422687083483,0.010109102353453636,0.01583123579621315,0.016212711110711098,0.01583123579621315
0.009727626107633114,-0.0032425422687083483,0.009346150793135166,0.014686808921396732,0.015449759550392628,0.01506828423589468
0.009346150793135166,-0.0032425422687083483,0.00858320016413927,0.014686808921396732,0.01506828423589468,0.013923857361078262
0.008964675478637218,-0.002861066721379757,0.00858320016413927,0.01430533267557621,0.01506828423589468,0.013160906732082367
0.0078202486038208,-0.0024795911740511656,0.008201723918318748,0.013542382046580315,0.01506828423589468,0.012779430486261845
0.008201723918318748,-0.0024795911740511656,0.008201723918318748,0.013542382046580315,0.01506828423589468,0.012779430486261845
0.0078202486038208,-0.0024795911740511656,0.008201723918318748,0.012779430486261845,0.014686808921396732,0.012397955171763897
0.0078202486038208,-0.0024795911740511656,0.008201723918318748,0.012397955171763897,0.01430533267557621,0.011635004542768002
0.008201723918318748,-0.0024795911740511656,0.008201723918318748,0.011635004542768002,0.013923857361078262,0.010490577667951584
0.008201723918318748,-0.0024795911740511656,0.008201723918318748,0.010872052982449532,0.013542382046580315,0.010109102353453636
0.008201723918318748,-0.0024795911740511656,0.008201723918318748,0.010490577667951584,0.013160906732082367,0.010109102353453636
0.008201723918318748,-0.0024795911740511656,0.008201723918318748,0.010490577667951584,0.012779430486261845,0.010109102353453636
0.008201723918318748,-0.0024795911740511656,0.00858320016413927,0.010872052982449532,0.012779430486261845,0.010109102353453636
0.008201723918318748,-0.0024795911740511656,0.00858320016413927,0.010872052982449532,0.012779430486261845,0.010109102353453636
0.008201723918318748,-0.0024795911740511656,0.009346150793135166,0.010872052982449532,0.012779430486261845,0.010109102353453636
0.00858320016413927,-0.0024795911740511656,0.009727626107633114,0.010872052982449532,0.012779430486261845,0.010109102353453636
0.008964675478637218,-0.0024795911740511656,0.010490577667951584,0.010872052982449532,0.012397955171763897,0.010490577667951584
0.010109102353453636,-0.0024795911740511656,0.011635004542768002,0.010872052982449532,0.012397955171763897,0.010490577667951584
0.010872052982449532,-0.002861066721379757,0.012397955171763897,0.010872052982449532,0.012397955171763897,0.010490577667951584
0.01201647985726595,-0.002861066721379757,0.012779430486261845,0.01125352829694748,0.01201647985726595,0.010490577667951584
0.012779430486261845,-0.0032425422687083483,0.01430533267557621,0.011635004542768002,0.01201647985726595,0.010872052982449532
0.013923857361078262,-0.0036240178160369396,0.01506828423589468,0.011635004542768002,0.012397955171763897,0.01125352829694748
0.01506828423589468,-0.004005493130534887,0.01583123579621315,0.01201647985726595,0.01201647985726595,0.01201647985726595
0.016594186425209045,-0.00476844422519207,0.01735713705420494,0.013160906732082367,0.012779430486261845,0.013542382046580315
0.01773861236870289,-0.005149920005351305,0.018501564860343933,0.01430533267557621,0.013542382046580315,0.014686808921396732
0.01926451548933983,-0.005912871100008488,0.01926451548933983,0.01583123579621315,0.01430533267557621,0.01506828423589468
0.02040894143283367,-0.005912871100008488,0.02079041674733162,0.016594186425209045,0.01583123579621315,0.01735713705420494
0.021553369238972664,-0.00667582219466567,0.02231631986796856,0.01735713705420494,0.01773861236870289,0.01926451548933983
0.023460745811462402,-0.007057297509163618,0.024223696440458298,0.01926451548933983,0.01888304017484188,0.020027466118335724
0.02536812424659729,-0.0078202486038208,0.025749599561095238,0.02040894143283367,0.019645990803837776,0.02193484455347061
0.02689402550458908,-0.0078202486038208,0.027656977996230125,0.02231631986796856,0.02040894143283367,0.022697795182466507
0.029182879254221916,-0.00858320016413927,0.029564354568719864,0.024223696440458298,0.023079270496964455,0.02384222112596035
0.030708782374858856,-0.009346150793135166,0.03147173300385475,0.026131074875593185,0.024605173617601395,0.026512550190091133
0.032616160809993744,-0.010109102353453636,0.03299763426184654,0.02727550081908703,0.025749599561095238,0.02689402550458908
0.03452353551983833,-0.010872052982449532,0.03490501269698143,0.029182879254221916,0.027656977996230125,0.029182879254221916
0.03681239113211632,-0.01201647985726595,0.037193864583969116,0.03147173300385475,0.02841992862522602,0.03032730519771576
0.038719769567251205,-0.012397955171763897,0.038719769567251205,0.032616160809993744,0.031090257689356804,0.03185320645570755
0.04139009863138199,-0.013160906732082367,0.04139009863138199,0.034142062067985535,0.03337911143898964,0.03452353551983833
0.04291599988937378,-0.01430533267557621,0.04329747334122658,0.035667963325977325,0.03490501269698143,0.03643091395497322
0.04558632895350456,-0.01506828423589468,0.04596780240535736,0.03833829239010811,0.03757534176111221,0.038719769567251205
0.048256658017635345,-0.016212711110711098,0.048638131469488144,0.0398641936480999,0.040245670825242996,0.04177157208323479
0.05054550990462303,-0.016975661739706993,0.05054550990462303,0.04253452271223068,0.04177157208323479,0.043678950518369675
0.053215838968753815,-0.01773861236870289,0.053215838968753815,0.04482337832450867,0.045204851776361465,0.04634927958250046
0.056267641484737396,-0.018501564860343933,0.05664911866188049,0.04749370738863945,0.04711223021149635,0.048638131469488144
0.05893797054886818,-0.019645990803837776,0.05970092490315437,0.05054550990462303,0.050164032727479935,0.05092698708176613
0.06160829961299896,-0.02040894143283367,0.06198977679014206,0.053215838968753815,0.051689937710762024,0.053215838968753815
0.06427863240242004,-0.021171892061829567,0.06504157930612564,0.0551232174038887,0.0551232174038887,0.0555046908557415
0.06771191209554672,-0.02231631986796856,0.06733043491840363,0.058175019919872284,0.057793546468019485,0.058175019919872284
0.07038223743438721,-0.023079270496964455,0.07038223743438721,0.06084534898400307,0.05970092490315437,0.06084534898400307
0.07381551712751389,-0.024223696440458298,0.07381551712751389,0.06313420087099075,0.06313420087099075,0.06389715522527695
0.07686731964349747,-0.02536812424659729,0.07724879682064056,0.06618601083755493,0.06542305648326874,0.06733043491840363
0.08030059933662415,-0.02689402550458908,0.08068207651376724,0.06961929053068161,0.06885633617639542,0.0707637146115303
0.08335240930318832,-0.027656977996230125,0.08335240930318832,0.0722896158695221,0.0715266615152359,0.07343403995037079
0.086785688996315,-0.029182879254221916,0.086785688996315,0.07648584991693497,0.07457847148180008,0.07648584991693497
0.09060044586658478,-0.02994582988321781,0.09060044586658478,0.07953765243291855,0.07801175117492676,0.07991912961006165
0.09441519528627396,-0.03147173300385475,0.09403372555971146,0.08258945494890213,0.08106355369091034,0.08335240930318832
0.09746700525283813,-0.032616160809993744,0.09746700525283813,0.08564125746488571,0.08373387902975082,0.08602273464202881
0.10128175467252731,-0.034142062067985535,0.10128175467252731,0.08907453715801239,0.0883115902543068,0.08945601433515549
0.10547798871994019,-0.03528648987412453,0.10547798871994019,0.09250781685113907,0.09288929402828217,0.09327077120542526
0.10852979123592377,-0.03643091395497322,0.10891126841306686,0.09517814964056015,0.09632257372140884,0.09594109654426575
0.11310750246047974,-0.03795681521296501,0.11310750246047974,0.09937438368797302,0.09975585341453552,0.10013733059167862
0.11730372905731201,-0.039101243019104004,0.11692225188016891,0.1035706102848053,0.1028076633810997,0.10471503436565399
0.12149996310472488,-0.040627144277095795,0.12111848592758179,0.10700388997793198,0.10662241280078888,0.10814831405878067
0.12493324279785156,-0.04177157208323479,0.12531471252441406,0.11005569249391556,0.11120012402534485,0.11158160120248795
0.12951095402240753,-0.04329747334122658,0.12951095402240753,0.11463340371847153,0.11387044936418533,0.11539635062217712
0.1340886503458023,-0.04482337832450867,0.1337071806192398,0.1192111074924469,0.1184481605887413,0.11959258466959
0.13790340721607208,-0.04596780240535736,0.13828489184379578,0.12302586436271667,0.12188144028186798,0.12302586436271667
0.14248111844062805,-0.04787518084049225,0.14209964871406555,0.12722209095954895,0.12684062123298645,0.12798504531383514
0.14744029939174652,-0.04940108209848404,0.14744029939174652,0.13218127191066742,0.12912946939468384,0.1329442262649536
0.1520180106163025,-0.05092698708176613,0.152399480342865,0.1367589831352234,0.134470134973526,0.1371404528617859
0.15621423721313477,-0.05245288833975792,0.15621423721313477,0.14057374000549316,0.13942931592464447,0.14095520973205566
0.16117341816425323,-0.05436026677489281,0.16155488789081573,0.14476996660232544,0.14438849687576294,0.14476996660232544
0.1661325991153717,-0.0558861680328846,0.1661325991153717,0.1493476778268814,0.1497291475534439,0.1497291475534439
0.17071031033992767,-0.05664911866188049,0.17071031033992767,0.15316243469715118,0.15354390442371368,0.15430685877799988
0.17605096101760864,-0.05893797054886818,0.17605096101760864,0.15850308537483215,0.15850308537483215,0.15964750945568085
0.1813916265964508,-0.06084534898400307,0.1810101419687271,0.16346226632595062,0.16308079659938812,0.16422522068023682
0.18673227727413177,-0.06275273114442825,0.18673227727413177,0.1684214472770691,0.16880293190479279,0.16880293190479279
0.19130998849868774,-0.06389715522527695,0.19130998849868774,0.17261768877506256,0.17338064312934875,0.17338064312934875
0.1966506391763687,-0.06580453366041183,0.1970321238040924,0.17757686972618103,0.17643244564533234,0.17872129380702972
0.20237277448177338,-0.06771191209554672,0.20275425910949707,0.1836804747581482,0.182154580950737,0.1844434291124344
0.20695048570632935,-0.06923781335353851,0.20733195543289185,0.18825818598270416,0.18520638346672058,0.18902114033699036
0.2130540907382965,-0.0711451917886734,0.21190966665744781,0.19398032128810883,0.19245441257953644,0.19436179101467133
0.21839475631713867,-0.07305257022380829,0.21877622604370117,0.1989395022392273,0.1981765478849411,0.1997024416923523
0.22411687672138214,-0.07495994865894318,0.22449836134910583,0.20428015291690826,0.20275425910949707,0.20542457699775696
0.2294575423002243,-0.07686731964349747,0.2294575423002243,0.20962081849575043,0.20695048570632935,0.21038375794887543
0.23517967760562897,-0.07877469807863235,0.23556114733219147,0.2149614691734314,0.2134355753660202,0.2157244235277176
0.24128328263759613,-0.08068207651376724,0.24128328263759613,0.21953918039798737,0.22068360447883606,0.22144655883312225
0.2462424635887146,-0.08258945494890213,0.2462424635887146,0.22373540699481964,0.22640573978424072,0.22640573978424072
0.25234606862068176,-0.08449683338403702,0.25272753834724426,0.2309834510087967,0.2313649207353592,0.23212787508964539
0.2588311731815338,-0.0864042118191719,0.2588311731815338,0.23708705604076385,0.23670557141304016,0.23861294984817505
0.2637903392314911,-0.0883115902543068,0.2637903392314911,0.24242770671844482,0.24166475236415863,0.24319066107273102
0.26989394426345825,-0.09021896868944168,0.27027541399002075,0.2481498420238495,0.2481498420238495,0.24891279637813568
0.2759975492954254,-0.09250781685113907,0.2752346098423004,0.25349050760269165,0.25501641631126404,0.25501641631126404
0.2813382148742676,-0.09403372555971146,0.2813382148742676,0.2592126429080963,0.2592126429080963,0.2595941126346588
0.28782328963279724,-0.09594109654426575,0.28782328963279724,0.2653162479400635,0.2645532786846161,0.2660791873931885
0.2939268946647644,-0.09822995215654373,0.2939268946647644,0.27180132269859314,0.26951247453689575,0.27218279242515564
0.30003052949905396,-0.10051880776882172,0.30003052949905396,0.2779049277305603,0.2771419882774353,0.2782863974571228
0.30537116527557373,-0.10204470902681351,0.30537116527557373,0.28248265385627747,0.2821011543273926,0.28324559330940247
0.3118562698364258,-0.10433356463909149,0.3118562698364258,0.28858625888824463,0.28667888045310974,0.290112167596817
0.31795987486839294,-0.10624094307422638,0.31795987486839294,0.2950713336467743,0.2931639552116394,0.2958342730998993
0.3233005404472351,-0.10814831405878067,0.3233005404472351,0.29926756024360657,0.29964902997016907,0.30117493867874146
0.32978561520576477,-0.11005569249391556,0.32978561520576477,0.3061341345310211,0.3061341345310211,0.3072785437107086
0.33627068996429443,-0.11234454810619354,0.33627068996429443,0.3126192092895508,0.3122377395629883,0.31376364827156067
0.3416113555431366,-0.11425192654132843,0.3416113555431366,0.31795987486839294,0.31719690561294556,0.31948578357696533
0.34809643030166626,-0.11615930497646332,0.34733349084854126,0.3248264193534851,0.3248264193534851,0.3248264193534851
0.3545815348625183,-0.1184481605887413,0.3534370958805084,0.33016708493232727,0.33207446336746216,0.33131152391433716
0.3599221706390381,-0.1203555315732956,0.3599221706390381,0.33512628078460693,0.33665215969085693,0.3370336592197418
0.36640727519989014,-0.12226291000843048,0.36678874492645264,0.3423742949962616,0.3423742949962616,0.3423742949962616
0.3728923499584198,-0.12455176562070847,0.3717479109764099,0.34847790002822876,0.34885939955711365,0.34962233901023865
0.37861448526382446,-0.12645913660526276,0.37861448526382446,0.3542000353336334,0.3542000353336334,0.3549630045890808
0.3847180902957916,-0.12874799966812134,0.3850995600223541,0.3599221706390381,0.3599221706390381,0.361829549074173
0.3915846347808838,-0.13065537810325623,0.3912031650543213,0.36678874492645264,0.36602577567100525,0.368314653635025
0.39768826961517334,-0.1329442262649536,0.39768826961517334,0.3740367889404297,0.3709849715232849,0.3740367889404297
0.4030289053916931,-0.1348516047000885,0.4030289053916931,0.37861448526382446,0.3755626678466797,0.37975889444351196
0.40951400995254517,-0.1367589831352234,0.40989547967910767,0.3850995600223541,0.3843366205692291,0.386243999004364
0.41638055443763733,-0.13866636157035828,0.41638055443763733,0.3915846347808838,0.3889143168926239,0.3923476040363312
0.4217212200164795,-0.14095520973205566,0.4217212200164795,0.39692530035972595,0.39501792192459106,0.39806973934173584
0.42820629477500916,-0.14286258816719055,0.42858776450157166,0.403410404920578,0.4030289053916931,0.404173344373703
0.4346913993358612,-0.14515145123004913,0.4350728690624237,0.40951400995254517,0.41027694940567017,0.41103988885879517
0.44117647409439087,-0.14744029939174652,0.44117647409439087,0.41638055443763733,0.41676202416419983,0.4171435236930847
0.44689860939979553,-0.1493476778268814,0.44689860939979553,0.422102689743042,0.4217212200164795,0.4228656589984894
0.4533836841583252,-0.1512550562620163,0.4533836841583252,0.42782482504844666,0.42935073375701904,0.42973220348358154
0.45986875891685486,-0.15354390442371368,0.45986875891685486,0.4339284300804138,0.4358358085155487,0.4358358085155487
0.465209424495697,-0.15545128285884857,0.4655908942222595,0.440032035112381,0.4404135048389435,0.44079500436782837
0.4720759987831116,-0.15774014592170715,0.4720759987831116,0.44651713967323303,0.44728007912635803,0.4484245181083679
0.47856107354164124,-0.15964750945568085,0.47894254326820374,0.4537651538848877,0.4530022144317627,0.4541466534137726
0.4839017391204834,-0.16193637251853943,0.4842832088470459,0.45834288001060486,0.45948728919029236,0.45948728919029236
0.49076828360557556,-0.16384375095367432,0.49076828360557556,0.4655908942222595,0.465209424495697,0.4663538634777069
0.4972533881664276,-0.1661325991153717,0.4976348578929901,0.4720759987831116,0.4713130295276642,0.4732204079627991
0.5029755234718323,-0.1676585078239441,0.5029755234718323,0.47741663455963135,0.47627222537994385,0.47894254326820374
0.5098420977592468,-0.16956588625907898,0.5094605684280396,0.4846646785736084,0.483138769865036,0.4850461483001709
0.5159456729888916,-0.17223620414733887,0.5163271427154541,0.49076828360557556,0.4892423748970032,0.49153125286102295
0.5216678380966187,-0.17414358258247375,0.5216678380966187,0.4961089491844177,0.4961089491844177,0.4976348578929901
0.5281528830528259,-0.17643244564533234,0.5281528830528259,0.5029755234718323,0.5025940537452698,0.5033569931983948
0.5350194573402405,-0.17872129380702972,0.5350194573402405,0.509079098701477,0.509079098701477,0.5098420977592468
0.5415045619010925,-0.1806286722421646,0.54112309217453,0.5140383243560791,0.5178530812263489,0.5163271427154541
0.5468451976776123,-0.1825360506772995,0.5468451976776123,0.5205233693122864,0.5224307775497437,0.5220493078231812
0.5533303022384644,-0.1848248988389969,0.5533303022384644,0.5273899435997009,0.5273899435997009,0.5285343527793884
0.5598153471946716,-0.18673227727413177,0.5598153471946716,0.533875048160553,0.5342565178871155,0.5350194573402405
0.5655375123023987,-0.18863965570926666,0.5655375123023987,0.5399786233901978,0.5403600931167603,0.5407415628433228
0.572022557258606,-0.19092851877212524,0.571259617805481,0.5468451976776123,0.5468451976776123,0.5472266674041748
0.578507661819458,-0.19321736693382263,0.5788891315460205,0.5537117719650269,0.5525673031806946,0.5540932416915894
0.5842298269271851,-0.19512474536895752,0.5846112966537476,0.5594338774681091,0.5582894682884216,0.5594338774681091
0.5907148718833923,-0.1970321238040924,0.5910963416099548,0.5647745728492737,0.5651560425758362,0.5659189820289612
0.5975814461708069,-0.1993209719657898,0.5975814461708069,0.571259617805481,0.5731670260429382,0.5724040865898132
0.6033035516738892,-0.20122835040092468,0.6033035516738892,0.577744722366333,0.5773632526397705,0.5781261920928955
0.6097886562347412,-0.20313572883605957,0.6097886562347412,0.5838482975959778,0.5838482975959778,0.5853742361068726
0.6162737607955933,-0.20580606162548065,0.6162737607955933,0.5899519324302673,0.5918593406677246,0.5914778113365173
0.6219958662986755,-0.20771344006061554,0.621614396572113,0.5952925682067871,0.5975814461708069,0.5968185067176819
0.6284809708595276,-0.21000228822231293,0.6284809708595276,0.6013962030410767,0.6048294901847839,0.6040665507316589
0.6353475451469421,-0.21190966665744781,0.6342030763626099,0.6090257167816162,0.6105515956878662,0.6101701259613037
0.6414511203765869,-0.2141985148191452,0.6414511203765869,0.6155108213424683,0.6162737607955933,0.6166552305221558
0.647173285484314,-0.2161058932542801,0.647173285484314,0.621614396572113,0.622377336025238,0.621614396572113
0.6536583304405212,-0.21801327168941498,0.6536583304405212,0.6269550919532776,0.6300068497657776,0.6288624405860901
0.6605249047279358,-0.22030213475227356,0.6605249047279358,0.6345845460891724,0.6338216066360474,0.6357290148735046
0.6662470698356628,-0.22220951318740845,0.6658655405044556,0.6406881809234619,0.6399252414703369,0.6406881809234619
0.6727321147918701,-0.22449836134910583,0.6727321147918701,0.647173285484314,0.647173285484314,0.6475547552108765
0.6792172193527222,-0.22640573978424072,0.6792172193527222,0.6540398001670837,0.6536583304405212,0.654421329498291
0.6849393248558044,-0.2283131182193756,0.6849393248558044,0.6589990258216858,0.6593804955482483,0.6597619652748108
0.6914244294166565,-0.230601966381073,0.6914244294166565,0.6666285395622253,0.6654840707778931,0.6658655405044556
0.698291003704071,-0.23289081454277039,0.6979095339775085,0.6727321147918701,0.6731135845184326,0.6719691753387451
0.7043945789337158,-0.23517967760562897,0.7043945789337158,0.6792172193527222,0.6795986890792847,0.6792172193527222
0.7101167440414429,-0.23708705604076385,0.7101167440414429,0.6845578551292419,0.6849393248558044,0.6849393248558044
0.7166017889976501,-0.23899443447589874,0.7166017889976501,0.6906614899635315,0.691805899143219,0.6914244294166565
0.7234683632850647,-0.24128328263759613,0.7234683632850647,0.697528064250946,0.697528064250946,0.6979095339775085
0.7291905283927917,-0.24319066107273102,0.7288090586662292,0.7028687000274658,0.7040131092071533,0.7032501697540283
0.7352941036224365,-0.2454795092344284,0.7352941036224365,0.7097352743148804,0.7093538045883179,0.7104982137680054
0.7421606779098511,-0.2473868876695633,0.7421606779098511,0.7154573798179626,0.7181277275085449,0.7166017889976501
0.7475013136863708,-0.24929426610469818,0.7478827834129333,0.7223239541053772,0.7227054238319397,0.7223239541053772
0.7539864182472229,-0.25158312916755676,0.7543678879737854,0.7295719981193542,0.7291905283927917,0.728427529335022
0.7608529925346375,-0.25387197732925415,0.7608529925346375,0.735675573348999,0.7337682247161865,0.735675573348999
0.7665750980377197,-0.25577935576438904,0.7665750980377197,0.7417792081832886,0.7410162687301636,0.7413977384567261
0.7730602025985718,-0.2576867341995239,0.7730602025985718,0.7482643127441406,0.7471198439598083,0.7475013136863708
0.7795453071594238,-0.2599755823612213,0.7799267768859863,0.7536049485206604,0.7558938264846802,0.7539864182472229
0.7852674126625061,-0.2618829607963562,0.7852674126625061,0.7600900530815125,0.760471522808075,0.7597085237503052
