liuyurong129/figaroh_kinova/examples/airbot_play/data/identification/trapezoidal_motion/trapezoidal_q_simulation.csv
q1,q2,q3,q4,q5,q6
0.000000000000000000e+00,0.000000000000000000e+00,0.000000000000000000e+00,0.000000000000000000e+00,0.000000000000000000e+00,0.000000000000000000e+00
3.777462331508436952e-05,-1.259154110502812148e-05,3.777462331508436952e-05,3.777462331508436952e-05,3.777462331508436952e-05,3.777462331508436952e-05
1.510984932603374781e-04,-5.036616442011248592e-05,1.510984932603374781e-04,1.510984932603374781e-04,1.510984932603374781e-04,1.510984932603374781e-04
3.399716098357593121e-04,-1.133238699452531086e-04,3.399716098357593121e-04,3.399716098357593121e-04,3.399716098357593121e-04,3.399716098357593121e-04
6.043939730413499124e-04,-2.014646576804499437e-04,6.043939730413499124e-04,6.043939730413499124e-04,6.043939730413499124e-04,6.043939730413499124e-04
9.443655828771090619e-04,-3.147885276257029845e-04,9.443655828771090619e-04,9.443655828771090619e-04,9.443655828771090619e-04,9.443655828771090619e-04
1.359886439343037249e-03,-4.532954797810124343e-04,1.359886439343037249e-03,1.359886439343037249e-03,1.359886439343037249e-03,1.359886439343037249e-03
1.850956542439134147e-03,-6.169855141463779407e-04,1.850956542439134147e-03,1.850956542439134147e-03,1.850956542439134147e-03,1.850956542439134147e-03
2.417575892165399649e-03,-8.058586307217997747e-04,2.417575892165399649e-03,2.417575892165399649e-03,2.417575892165399649e-03,2.417575892165399649e-03
3.059744488521833321e-03,-1.019914829507277774e-03,3.059744488521833321e-03,3.059744488521833321e-03,3.059744488521833321e-03,3.059744488521833321e-03
3.777462331508436248e-03,-1.259154110502811938e-03,3.777462331508436248e-03,3.777462331508436248e-03,3.777462331508436248e-03,3.777462331508436248e-03
4.570729421125208428e-03,-1.523576473708402809e-03,4.570729421125208428e-03,4.570729421125208428e-03,4.570729421125208428e-03,4.570729421125208428e-03
5.439545757372148994e-03,-1.813181919124049737e-03,5.439545757372148994e-03,5.439545757372148994e-03,5.439545757372148994e-03,5.439545757372148994e-03
6.383911340249259249e-03,-2.127970446749752938e-03,6.383911340249259249e-03,6.383911340249259249e-03,6.383911340249259249e-03,6.383911340249259249e-03
7.403826169756536589e-03,-2.467942056585511763e-03,7.403826169756536589e-03,7.403826169756536589e-03,7.403826169756536589e-03,7.403826169756536589e-03
8.499290245893981882e-03,-2.833096748631327294e-03,8.499290245893981882e-03,8.499290245893981882e-03,8.499290245893981882e-03,8.499290245893981882e-03
9.670303568661598598e-03,-3.223434522887199099e-03,9.670303568661598598e-03,9.670303568661598598e-03,9.670303568661598598e-03,9.670303568661598598e-03
1.091686613805938240e-02,-3.638955379353127177e-03,1.091686613805938240e-02,1.091686613805938240e-02,1.091686613805938240e-02,1.091686613805938240e-02
1.223897795408733329e-02,-4.079659318029111095e-03,1.223897795408733329e-02,1.223897795408733329e-02,1.223897795408733329e-02,1.223897795408733329e-02
1.363663901674545646e-02,-4.545546338915151287e-03,1.363663901674545646e-02,1.363663901674545646e-02,1.363663901674545646e-02,1.363663901674545646e-02
1.510984932603374499e-02,-5.036616442011247752e-03,1.510984932603374499e-02,1.510984932603374499e-02,1.510984932603374499e-02,1.510984932603374499e-02
1.665860888195220754e-02,-5.552869627317402225e-03,1.665860888195220754e-02,1.665860888195220754e-02,1.665860888195220754e-02,1.665860888195220754e-02
1.828291768450083371e-02,-6.094305894833611237e-03,1.828291768450083371e-02,1.828291768450083371e-02,1.828291768450083371e-02,1.828291768450083371e-02
1.998277573367963217e-02,-6.660925244559876522e-03,1.998277573367963217e-02,1.998277573367963217e-02,1.998277573367963217e-02,1.998277573367963217e-02
2.175818302948859598e-02,-7.252727676496198948e-03,2.175818302948859598e-02,2.175818302948859598e-02,2.175818302948859598e-02,2.175818302948859598e-02
2.360913957192773208e-02,-7.869713190642576781e-03,2.360913957192773208e-02,2.360913957192773208e-02,2.360913957192773208e-02,2.360913957192773208e-02
2.553564536099703700e-02,-8.511881786999011754e-03,2.553564536099703700e-02,2.553564536099703700e-02,2.553564536099703700e-02,2.553564536099703700e-02
2.753770039669650727e-02,-9.179233465565501265e-03,2.753770039669650727e-02,2.753770039669650727e-02,2.753770039669650727e-02,2.753770039669650727e-02
2.961530467902614636e-02,-9.871768226342047051e-03,2.961530467902614636e-02,2.961530467902614636e-02,2.961530467902614636e-02,2.961530467902614636e-02
3.176845820798595427e-02,-1.058948606932865084e-02,3.176845820798595427e-02,3.176845820798595427e-02,3.176845820798595427e-02,3.176845820798595427e-02
3.399716098357592753e-02,-1.133238699452530918e-02,3.399716098357592753e-02,3.399716098357592753e-02,3.399716098357592753e-02,3.399716098357592753e-02
3.630141300579607655e-02,-1.210047100193202552e-02,3.630141300579607655e-02,3.630141300579607655e-02,3.630141300579607655e-02,3.630141300579607655e-02
3.868121427464639439e-02,-1.289373809154879640e-02,3.868121427464639439e-02,3.868121427464639439e-02,3.868121427464639439e-02,3.868121427464639439e-02
4.113656479012687411e-02,-1.371218826337562355e-02,4.113656479012687411e-02,4.113656479012687411e-02,4.113656479012687411e-02,4.113656479012687411e-02
4.366746455223752960e-02,-1.455582151741250871e-02,4.366746455223752960e-02,4.366746455223752960e-02,4.366746455223752960e-02,4.366746455223752960e-02
4.627391356097834696e-02,-1.542463785365944841e-02,4.627391356097834696e-02,4.627391356097834696e-02,4.627391356097834696e-02,4.627391356097834696e-02
4.895591181634933314e-02,-1.631863727211644438e-02,4.895591181634933314e-02,4.895591181634933314e-02,4.895591181634933314e-02,4.895591181634933314e-02
5.171345931835049509e-02,-1.723781977278349489e-02,5.171345931835049509e-02,5.171345931835049509e-02,5.171345931835049509e-02,5.171345931835049509e-02
5.454655606698182585e-02,-1.818218535566060515e-02,5.454655606698182585e-02,5.454655606698182585e-02,5.454655606698182585e-02,5.454655606698182585e-02
5.745520206224331156e-02,-1.915173402074776821e-02,5.745520206224331156e-02,5.745520206224331156e-02,5.745520206224331156e-02,5.745520206224331156e-02
6.043939730413497996e-02,-2.014646576804499101e-02,6.043939730413497996e-02,6.043939730413497996e-02,6.043939730413497996e-02,6.043939730413497996e-02
6.349914179265683800e-02,-2.116638059755227702e-02,6.349914179265683800e-02,6.349914179265683800e-02,6.349914179265683800e-02,6.349914179265683800e-02
6.663443552780883017e-02,-2.221147850926960890e-02,6.663443552780883017e-02,6.663443552780883017e-02,6.663443552780883017e-02,6.663443552780883017e-02
6.984527850959100503e-02,-2.328175950319699705e-02,6.984527850959100503e-02,6.984527850959100503e-02,6.984527850959100503e-02,6.984527850959100503e-02
7.313167073800333484e-02,-2.437722357933444495e-02,7.313167073800333484e-02,7.313167073800333484e-02,7.313167073800333484e-02,7.313167073800333484e-02
7.649361221304584735e-02,-2.549787073768194912e-02,7.649361221304584735e-02,7.649361221304584735e-02,7.649361221304584735e-02,7.649361221304584735e-02
7.993110293471852867e-02,-2.664370097823950609e-02,7.993110293471852867e-02,7.993110293471852867e-02,7.993110293471852867e-02,7.993110293471852867e-02
8.344414290302136494e-02,-2.781471430100712280e-02,8.344414290302136494e-02,8.344414290302136494e-02,8.344414290302136494e-02,8.344414290302136494e-02
8.703273211795438391e-02,-2.901091070598479579e-02,8.703273211795438391e-02,8.703273211795438391e-02,8.703273211795438391e-02,8.703273211795438391e-02
9.069687057951757170e-02,-3.023229019317252159e-02,9.069687057951757170e-02,9.069687057951757170e-02,9.069687057951757170e-02,9.069687057951757170e-02
9.443655828771092831e-02,-3.147885276257030712e-02,9.443655828771092831e-02,9.443655828771092831e-02,9.443655828771092831e-02,9.443655828771092831e-02
9.825179524253445373e-02,-3.275059841417814893e-02,9.825179524253445373e-02,9.825179524253445373e-02,9.825179524253445373e-02,9.825179524253445373e-02
1.021425814439881480e-01,-3.404752714799604701e-02,1.021425814439881480e-01,1.021425814439881480e-01,1.021425814439881480e-01,1.021425814439881480e-01
1.061089168920720111e-01,-3.536963896402400137e-02,1.061089168920720111e-01,1.061089168920720111e-01,1.061089168920720111e-01,1.061089168920720111e-01
1.101508015867860291e-01,-3.671693386226200506e-02,1.101508015867860291e-01,1.101508015867860291e-01,1.101508015867860291e-01,1.101508015867860291e-01
1.142682355281302159e-01,-3.808941184271007196e-02,1.142682355281302159e-01,1.142682355281302159e-01,1.142682355281302159e-01,1.142682355281302159e-01
1.184612187161045854e-01,-3.948707290536818820e-02,1.184612187161045854e-01,1.184612187161045854e-01,1.184612187161045854e-01,1.184612187161045854e-01
1.227297511507091099e-01,-4.090991705023636765e-02,1.227297511507091099e-01,1.227297511507091099e-01,1.227297511507091099e-01,1.227297511507091099e-01
1.270738328319438171e-01,-4.235794427731460338e-02,1.270738328319438171e-01,1.270738328319438171e-01,1.270738328319438171e-01,1.270738328319438171e-01
1.314934637598086931e-01,-4.383115458660289537e-02,1.314934637598086931e-01,1.314934637598086931e-01,1.314934637598086931e-01,1.314934637598086931e-01
1.359886439343037101e-01,-4.532954797810123670e-02,1.359886439343037101e-01,1.359886439343037101e-01,1.359886439343037101e-01,1.359886439343037101e-01
1.405593733554289515e-01,-4.685312445180964125e-02,1.405593733554289515e-01,1.405593733554289515e-01,1.405593733554289515e-01,1.405593733554289515e-01
1.452056520231843062e-01,-4.840188400772810207e-02,1.452056520231843062e-01,1.452056520231843062e-01,1.452056520231843062e-01,1.452056520231843062e-01
1.499274799375698575e-01,-4.997582664585661222e-02,1.499274799375698575e-01,1.499274799375698575e-01,1.499274799375698575e-01,1.499274799375698575e-01
1.547248570985855776e-01,-5.157495236619518558e-02,1.547248570985855776e-01,1.547248570985855776e-01,1.547248570985855776e-01,1.547248570985855776e-01
1.595977835062314665e-01,-5.319926116874381522e-02,1.595977835062314665e-01,1.595977835062314665e-01,1.595977835062314665e-01,1.595977835062314665e-01
1.645462591605074965e-01,-5.484875305350249419e-02,1.645462591605074965e-01,1.645462591605074965e-01,1.645462591605074965e-01,1.645462591605074965e-01
1.695702840614137230e-01,-5.652342802047123638e-02,1.695702840614137230e-01,1.695702840614137230e-01,1.695702840614137230e-01,1.695702840614137230e-01
1.746698582089501184e-01,-5.822328606965003484e-02,1.746698582089501184e-01,1.746698582089501184e-01,1.746698582089501184e-01,1.746698582089501184e-01
1.798449816031166548e-01,-5.994832720103888263e-02,1.798449816031166548e-01,1.798449816031166548e-01,1.798449816031166548e-01,1.798449816031166548e-01
1.850956542439133878e-01,-6.169855141463779363e-02,1.850956542439133878e-01,1.850956542439133878e-01,1.850956542439133878e-01,1.850956542439133878e-01
1.904218761313402897e-01,-6.347395871044675397e-02,1.904218761313402897e-01,1.904218761313402897e-01,1.904218761313402897e-01,1.904218761313402897e-01
1.958236472653973326e-01,-6.527454908846577752e-02,1.958236472653973326e-01,1.958236472653973326e-01,1.958236472653973326e-01,1.958236472653973326e-01
2.013009676460845720e-01,-6.710032254869485735e-02,2.013009676460845720e-01,2.013009676460845720e-01,2.013009676460845720e-01,2.013009676460845720e-01
2.068538372734019803e-01,-6.895127909113397957e-02,2.068538372734019803e-01,2.068538372734019803e-01,2.068538372734019803e-01,2.068538372734019803e-01
2.124822561473495575e-01,-7.082741871578318582e-02,2.124822561473495575e-01,2.124822561473495575e-01,2.124822561473495575e-01,2.124822561473495575e-01
2.181862242679273034e-01,-7.272874142264242059e-02,2.181862242679273034e-01,2.181862242679273034e-01,2.181862242679273034e-01,2.181862242679273034e-01
2.239657416351351626e-01,-7.465524721171172551e-02,2.239657416351351626e-01,2.239657416351351626e-01,2.239657416351351626e-01,2.239657416351351626e-01
2.298208082489732462e-01,-7.660693608299107282e-02,2.298208082489732462e-01,2.298208082489732462e-01,2.298208082489732462e-01,2.298208082489732462e-01
2.357514241094415264e-01,-7.858380803648050417e-02,2.357514241094415264e-01,2.357514241094415264e-01,2.357514241094415264e-01,2.357514241094415264e-01
2.417575892165399198e-01,-8.058586307217996403e-02,2.417575892165399198e-01,2.417575892165399198e-01,2.417575892165399198e-01,2.417575892165399198e-01
2.478393035702685654e-01,-8.261310119008952180e-02,2.478393035702685654e-01,2.478393035702685654e-01,2.478393035702685654e-01,2.478393035702685654e-01
2.539965671706273520e-01,-8.466552239020910808e-02,2.539965671706273520e-01,2.539965671706273520e-01,2.539965671706273520e-01,2.539965671706273520e-01
2.602293800176162519e-01,-8.674312667253875064e-02,2.602293800176162519e-01,2.602293800176162519e-01,2.602293800176162519e-01,2.602293800176162519e-01
2.665164938856205978e-01,-8.883883129520686595e-02,2.665164938856205978e-01,2.665164938856205978e-01,2.665164938856205978e-01,2.665164938856205978e-01
2.728059686675821660e-01,-9.093532288919403683e-02,2.728059686675821660e-01,2.728059686675821660e-01,2.728059686675821660e-01,2.728059686675821660e-01
2.790954434495437342e-01,-9.303181448318122160e-02,2.790954434495437342e-01,2.790954434495437342e-01,2.790954434495437342e-01,2.790954434495437342e-01
2.853849182315052468e-01,-9.512830607716840636e-02,2.853849182315052468e-01,2.853849182315052468e-01,2.853849182315052468e-01,2.853849182315052468e-01
2.916743930134668150e-01,-9.722479767115559113e-02,2.916743930134668150e-01,2.916743930134668150e-01,2.916743930134668150e-01,2.916743930134668150e-01
2.979638677954283277e-01,-9.932128926514277589e-02,2.979638677954283277e-01,2.979638677954283277e-01,2.979638677954283277e-01,2.979638677954283277e-01
3.042533425773898959e-01,-1.014177808591299468e-01,3.042533425773898959e-01,3.042533425773898959e-01,3.042533425773898959e-01,3.042533425773898959e-01
3.105428173593514640e-01,-1.035142724531171315e-01,3.105428173593514640e-01,3.105428173593514640e-01,3.105428173593514640e-01,3.105428173593514640e-01
3.168322921413129767e-01,-1.056107640471043163e-01,3.168322921413129767e-01,3.168322921413129767e-01,3.168322921413129767e-01,3.168322921413129767e-01
3.231217669232745449e-01,-1.077072556410915011e-01,3.231217669232745449e-01,3.231217669232745449e-01,3.231217669232745449e-01,3.231217669232745449e-01
3.294112417052360575e-01,-1.098037472350786858e-01,3.294112417052360575e-01,3.294112417052360575e-01,3.294112417052360575e-01,3.294112417052360575e-01
3.357007164871976257e-01,-1.119002388290658567e-01,3.357007164871976257e-01,3.357007164871976257e-01,3.357007164871976257e-01,3.357007164871976257e-01
3.419901912691591939e-01,-1.139967304230530415e-01,3.419901912691591939e-01,3.419901912691591939e-01,3.419901912691591939e-01,3.419901912691591939e-01
3.482796660511207065e-01,-1.160932220170402263e-01,3.482796660511207065e-01,3.482796660511207065e-01,3.482796660511207065e-01,3.482796660511207065e-01
3.545691408330822747e-01,-1.181897136110273971e-01,3.545691408330822747e-01,3.545691408330822747e-01,3.545691408330822747e-01,3.545691408330822747e-01
3.608586156150437874e-01,-1.202862052050145958e-01,3.608586156150437874e-01,3.608586156150437874e-01,3.608586156150437874e-01,3.608586156150437874e-01
3.671480903970054110e-01,-1.223826967990017944e-01,3.671480903970054110e-01,3.671480903970054110e-01,3.671480903970054110e-01,3.671480903970054110e-01
3.734375651789669792e-01,-1.244791883929889653e-01,3.734375651789669792e-01,3.734375651789669792e-01,3.734375651789669792e-01,3.734375651789669792e-01
3.797270399609284919e-01,-1.265756799869761640e-01,3.797270399609284919e-01,3.797270399609284919e-01,3.797270399609284919e-01,3.797270399609284919e-01
3.860165147428900601e-01,-1.286721715809633348e-01,3.860165147428900601e-01,3.860165147428900601e-01,3.860165147428900601e-01,3.860165147428900601e-01
3.923059895248516282e-01,-1.307686631749505057e-01,3.923059895248516282e-01,3.923059895248516282e-01,3.923059895248516282e-01,3.923059895248516282e-01
3.985954643068131409e-01,-1.328651547689377044e-01,3.985954643068131409e-01,3.985954643068131409e-01,3.985954643068131409e-01,3.985954643068131409e-01
4.048849390887746535e-01,-1.349616463629248753e-01,4.048849390887746535e-01,4.048849390887746535e-01,4.048849390887746535e-01,4.048849390887746535e-01
4.111744138707362772e-01,-1.370581379569120739e-01,4.111744138707362772e-01,4.111744138707362772e-01,4.111744138707362772e-01,4.111744138707362772e-01
4.174638886526977899e-01,-1.391546295508992448e-01,4.174638886526977899e-01,4.174638886526977899e-01,4.174638886526977899e-01,4.174638886526977899e-01
4.237533634346593026e-01,-1.412511211448864157e-01,4.237533634346593026e-01,4.237533634346593026e-01,4.237533634346593026e-01,4.237533634346593026e-01
4.300428382166208707e-01,-1.433476127388736143e-01,4.300428382166208707e-01,4.300428382166208707e-01,4.300428382166208707e-01,4.300428382166208707e-01
4.363323129985824389e-01,-1.454441043328607852e-01,4.363323129985824389e-01,4.363323129985824389e-01,4.363323129985824389e-01,4.363323129985824389e-01
4.426217877805439516e-01,-1.475405959268479839e-01,4.426217877805439516e-01,4.426217877805439516e-01,4.426217877805439516e-01,4.426217877805439516e-01
4.489112625625055197e-01,-1.496370875208351547e-01,4.489112625625055197e-01,4.489112625625055197e-01,4.489112625625055197e-01,4.489112625625055197e-01
4.552007373444670879e-01,-1.517335791148223256e-01,4.552007373444670879e-01,4.552007373444670879e-01,4.552007373444670879e-01,4.552007373444670879e-01
4.614902121264286006e-01,-1.538300707088095243e-01,4.614902121264286006e-01,4.614902121264286006e-01,4.614902121264286006e-01,4.614902121264286006e-01
4.677796869083901132e-01,-1.559265623027966952e-01,4.677796869083901132e-01,4.677796869083901132e-01,4.677796869083901132e-01,4.677796869083901132e-01
4.740691616903516814e-01,-1.580230538967838938e-01,4.740691616903516814e-01,4.740691616903516814e-01,4.740691616903516814e-01,4.740691616903516814e-01
4.803586364723132496e-01,-1.601195454907710647e-01,4.803586364723132496e-01,4.803586364723132496e-01,4.803586364723132496e-01,4.803586364723132496e-01
4.866481112542747622e-01,-1.622160370847582356e-01,4.866481112542747622e-01,4.866481112542747622e-01,4.866481112542747622e-01,4.866481112542747622e-01
4.929375860362363304e-01,-1.643125286787454065e-01,4.929375860362363304e-01,4.929375860362363304e-01,4.929375860362363304e-01,4.929375860362363304e-01
4.992270608181978986e-01,-1.664090202727326051e-01,4.992270608181978986e-01,4.992270608181978986e-01,4.992270608181978986e-01,4.992270608181978986e-01
5.055165356001594112e-01,-1.685055118667198037e-01,5.055165356001594112e-01,5.055165356001594112e-01,5.055165356001594112e-01,5.055165356001594112e-01
5.118060103821209239e-01,-1.706020034607069746e-01,5.118060103821209239e-01,5.118060103821209239e-01,5.118060103821209239e-01,5.118060103821209239e-01
5.180954851640824366e-01,-1.726984950546941455e-01,5.180954851640824366e-01,5.180954851640824366e-01,5.180954851640824366e-01,5.180954851640824366e-01
5.243849599460440603e-01,-1.747949866486813164e-01,5.243849599460440603e-01,5.243849599460440603e-01,5.243849599460440603e-01,5.243849599460440603e-01
5.306744347280056839e-01,-1.768914782426685151e-01,5.306744347280056839e-01,5.306744347280056839e-01,5.306744347280056839e-01,5.306744347280056839e-01
5.369639095099671966e-01,-1.789879698366557137e-01,5.369639095099671966e-01,5.369639095099671966e-01,5.369639095099671966e-01,5.369639095099671966e-01
5.432533842919287093e-01,-1.810844614306428846e-01,5.432533842919287093e-01,5.432533842919287093e-01,5.432533842919287093e-01,5.432533842919287093e-01
5.495428590738902219e-01,-1.831809530246300555e-01,5.495428590738902219e-01,5.495428590738902219e-01,5.495428590738902219e-01,5.495428590738902219e-01
5.558323338558517346e-01,-1.852774446186172264e-01,5.558323338558517346e-01,5.558323338558517346e-01,5.558323338558517346e-01,5.558323338558517346e-01
5.621218086378133583e-01,-1.873739362126044250e-01,5.621218086378133583e-01,5.621218086378133583e-01,5.621218086378133583e-01,5.621218086378133583e-01
5.684112834197748709e-01,-1.894704278065916236e-01,5.684112834197748709e-01,5.684112834197748709e-01,5.684112834197748709e-01,5.684112834197748709e-01
5.747007582017364946e-01,-1.915669194005787945e-01,5.747007582017364946e-01,5.747007582017364946e-01,5.747007582017364946e-01,5.747007582017364946e-01
5.809902329836980073e-01,-1.936634109945659654e-01,5.809902329836980073e-01,5.809902329836980073e-01,5.809902329836980073e-01,5.809902329836980073e-01
5.872797077656595199e-01,-1.957599025885531363e-01,5.872797077656595199e-01,5.872797077656595199e-01,5.872797077656595199e-01,5.872797077656595199e-01
5.935691825476210326e-01,-1.978563941825403349e-01,5.935691825476210326e-01,5.935691825476210326e-01,5.935691825476210326e-01,5.935691825476210326e-01
5.998586573295825453e-01,-1.999528857765275336e-01,5.998586573295825453e-01,5.998586573295825453e-01,5.998586573295825453e-01,5.998586573295825453e-01
6.061481321115441689e-01,-2.020493773705147045e-01,6.061481321115441689e-01,6.061481321115441689e-01,6.061481321115441689e-01,6.061481321115441689e-01
6.124376068935056816e-01,-2.041458689645018754e-01,6.124376068935056816e-01,6.124376068935056816e-01,6.124376068935056816e-01,6.124376068935056816e-01
6.187270816754673053e-01,-2.062423605584890463e-01,6.187270816754673053e-01,6.187270816754673053e-01,6.187270816754673053e-01,6.187270816754673053e-01
6.250165564574288180e-01,-2.083388521524762449e-01,6.250165564574288180e-01,6.250165564574288180e-01,6.250165564574288180e-01,6.250165564574288180e-01
6.313060312393903306e-01,-2.104353437464634435e-01,6.313060312393903306e-01,6.313060312393903306e-01,6.313060312393903306e-01,6.313060312393903306e-01
6.375955060213518433e-01,-2.125318353404506144e-01,6.375955060213518433e-01,6.375955060213518433e-01,6.375955060213518433e-01,6.375955060213518433e-01
6.438849808033133559e-01,-2.146283269344377853e-01,6.438849808033133559e-01,6.438849808033133559e-01,6.438849808033133559e-01,6.438849808033133559e-01
6.501744555852749796e-01,-2.167248185284249562e-01,6.501744555852749796e-01,6.501744555852749796e-01,6.501744555852749796e-01,6.501744555852749796e-01
6.564639303672364923e-01,-2.188213101224121271e-01,6.564639303672364923e-01,6.564639303672364923e-01,6.564639303672364923e-01,6.564639303672364923e-01
6.627534051491981160e-01,-2.209178017163993535e-01,6.627534051491981160e-01,6.627534051491981160e-01,6.627534051491981160e-01,6.627534051491981160e-01
6.690428799311596286e-01,-2.230142933103865244e-01,6.690428799311596286e-01,6.690428799311596286e-01,6.690428799311596286e-01,6.690428799311596286e-01
6.753323547131211413e-01,-2.251107849043736953e-01,6.753323547131211413e-01,6.753323547131211413e-01,6.753323547131211413e-01,6.753323547131211413e-01
6.816218294950826539e-01,-2.272072764983608661e-01,6.816218294950826539e-01,6.816218294950826539e-01,6.816218294950826539e-01,6.816218294950826539e-01
6.879113042770441666e-01,-2.293037680923480370e-01,6.879113042770441666e-01,6.879113042770441666e-01,6.879113042770441666e-01,6.879113042770441666e-01
6.942007790590057903e-01,-2.314002596863352634e-01,6.942007790590057903e-01,6.942007790590057903e-01,6.942007790590057903e-01,6.942007790590057903e-01
7.004902538409674140e-01,-2.334967512803224343e-01,7.004902538409674140e-01,7.004902538409674140e-01,7.004902538409674140e-01,7.004902538409674140e-01
7.067797286229289266e-01,-2.355932428743096052e-01,7.067797286229289266e-01,7.067797286229289266e-01,7.067797286229289266e-01,7.067797286229289266e-01
7.130692034048904393e-01,-2.376897344682967761e-01,7.130692034048904393e-01,7.130692034048904393e-01,7.130692034048904393e-01,7.130692034048904393e-01
7.193586781868519520e-01,-2.397862260622839470e-01,7.193586781868519520e-01,7.193586781868519520e-01,7.193586781868519520e-01,7.193586781868519520e-01
7.256481529688134646e-01,-2.418827176562711734e-01,7.256481529688134646e-01,7.256481529688134646e-01,7.256481529688134646e-01,7.256481529688134646e-01
7.319376277507750883e-01,-2.439792092502583443e-01,7.319376277507750883e-01,7.319376277507750883e-01,7.319376277507750883e-01,7.319376277507750883e-01
7.382271025327366010e-01,-2.460757008442455152e-01,7.382271025327366010e-01,7.382271025327366010e-01,7.382271025327366010e-01,7.382271025327366010e-01
7.445165773146982247e-01,-2.481721924382326860e-01,7.445165773146982247e-01,7.445165773146982247e-01,7.445165773146982247e-01,7.445165773146982247e-01
7.508060520966598483e-01,-2.502686840322199124e-01,7.508060520966598483e-01,7.508060520966598483e-01,7.508060520966598483e-01,7.508060520966598483e-01
7.570955268786213610e-01,-2.523651756262070833e-01,7.570955268786213610e-01,7.570955268786213610e-01,7.570955268786213610e-01,7.570955268786213610e-01
7.633850016605829847e-01,-2.544616672201943097e-01,7.633850016605829847e-01,7.633850016605829847e-01,7.633850016605829847e-01,7.633850016605829847e-01
7.696744764425444973e-01,-2.565581588141814806e-01,7.696744764425444973e-01,7.696744764425444973e-01,7.696744764425444973e-01,7.696744764425444973e-01
7.759639512245060100e-01,-2.586546504081686515e-01,7.759639512245060100e-01,7.759639512245060100e-01,7.759639512245060100e-01,7.759639512245060100e-01
7.822534260064675227e-01,-2.607511420021558224e-01,7.822534260064675227e-01,7.822534260064675227e-01,7.822534260064675227e-01,7.822534260064675227e-01
7.885429007884291464e-01,-2.628476335961429933e-01,7.885429007884291464e-01,7.885429007884291464e-01,7.885429007884291464e-01,7.885429007884291464e-01
7.948323755703906590e-01,-2.649441251901302197e-01,7.948323755703906590e-01,7.948323755703906590e-01,7.948323755703906590e-01,7.948323755703906590e-01
8.011218503523521717e-01,-2.670406167841173906e-01,8.011218503523521717e-01,8.011218503523521717e-01,8.011218503523521717e-01,8.011218503523521717e-01
8.074113251343137954e-01,-2.691371083781045614e-01,8.074113251343137954e-01,8.074113251343137954e-01,8.074113251343137954e-01,8.074113251343137954e-01
8.137007999162753080e-01,-2.712335999720917323e-01,8.137007999162753080e-01,8.137007999162753080e-01,8.137007999162753080e-01,8.137007999162753080e-01
8.199902746982368207e-01,-2.733300915660789032e-01,8.199902746982368207e-01,8.199902746982368207e-01,8.199902746982368207e-01,8.199902746982368207e-01
8.262797494801983333e-01,-2.754265831600661296e-01,8.262797494801983333e-01,8.262797494801983333e-01,8.262797494801983333e-01,8.262797494801983333e-01
8.325692242621599570e-01,-2.775230747540533005e-01,8.325692242621599570e-01,8.325692242621599570e-01,8.325692242621599570e-01,8.325692242621599570e-01
8.388586990441214697e-01,-2.796195663480404714e-01,8.388586990441214697e-01,8.388586990441214697e-01,8.388586990441214697e-01,8.388586990441214697e-01
8.451481738260829824e-01,-2.817160579420276423e-01,8.451481738260829824e-01,8.451481738260829824e-01,8.451481738260829824e-01,8.451481738260829824e-01
8.514376486080446060e-01,-2.838125495360148132e-01,8.514376486080446060e-01,8.514376486080446060e-01,8.514376486080446060e-01,8.514376486080446060e-01
8.577271233900061187e-01,-2.859090411300020396e-01,8.577271233900061187e-01,8.577271233900061187e-01,8.577271233900061187e-01,8.577271233900061187e-01
8.640165981719676314e-01,-2.880055327239892105e-01,8.640165981719676314e-01,8.640165981719676314e-01,8.640165981719676314e-01,8.640165981719676314e-01
8.703060729539292550e-01,-2.901020243179763813e-01,8.703060729539292550e-01,8.703060729539292550e-01,8.703060729539292550e-01,8.703060729539292550e-01
8.765955477358907677e-01,-2.921985159119635522e-01,8.765955477358907677e-01,8.765955477358907677e-01,8.765955477358907677e-01,8.765955477358907677e-01
8.828850225178522804e-01,-2.942950075059507231e-01,8.828850225178522804e-01,8.828850225178522804e-01,8.828850225178522804e-01,8.828850225178522804e-01
8.891744972998137930e-01,-2.963914990999379495e-01,8.891744972998137930e-01,8.891744972998137930e-01,8.891744972998137930e-01,8.891744972998137930e-01
8.954639720817754167e-01,-2.984879906939251204e-01,8.954639720817754167e-01,8.954639720817754167e-01,8.954639720817754167e-01,8.954639720817754167e-01
9.017534468637370404e-01,-3.005844822879122913e-01,9.017534468637370404e-01,9.017534468637370404e-01,9.017534468637370404e-01,9.017534468637370404e-01
9.080429216456985531e-01,-3.026809738818995177e-01,9.080429216456985531e-01,9.080429216456985531e-01,9.080429216456985531e-01,9.080429216456985531e-01
9.143323964276600657e-01,-3.047774654758866886e-01,9.143323964276600657e-01,9.143323964276600657e-01,9.143323964276600657e-01,9.143323964276600657e-01
9.206218712096216894e-01,-3.068739570698738595e-01,9.206218712096216894e-01,9.206218712096216894e-01,9.206218712096216894e-01,9.206218712096216894e-01
9.269113459915832021e-01,-3.089704486638610303e-01,9.269113459915832021e-01,9.269113459915832021e-01,9.269113459915832021e-01,9.269113459915832021e-01
9.332008207735447147e-01,-3.110669402578482012e-01,9.332008207735447147e-01,9.332008207735447147e-01,9.332008207735447147e-01,9.332008207735447147e-01
9.394902955555062274e-01,-3.131634318518354276e-01,9.394902955555062274e-01,9.394902955555062274e-01,9.394902955555062274e-01,9.394902955555062274e-01
9.457797703374678511e-01,-3.152599234458225985e-01,9.457797703374678511e-01,9.457797703374678511e-01,9.457797703374678511e-01,9.457797703374678511e-01
9.520692451194293637e-01,-3.173564150398097694e-01,9.520692451194293637e-01,9.520692451194293637e-01,9.520692451194293637e-01,9.520692451194293637e-01
9.583587199013908764e-01,-3.194529066337969403e-01,9.583587199013908764e-01,9.583587199013908764e-01,9.583587199013908764e-01,9.583587199013908764e-01
9.646481946833525001e-01,-3.215493982277841112e-01,9.646481946833525001e-01,9.646481946833525001e-01,9.646481946833525001e-01,9.646481946833525001e-01
9.709376694653140127e-01,-3.236458898217713376e-01,9.709376694653140127e-01,9.709376694653140127e-01,9.709376694653140127e-01,9.709376694653140127e-01
9.772271442472755254e-01,-3.257423814157585085e-01,9.772271442472755254e-01,9.772271442472755254e-01,9.772271442472755254e-01,9.772271442472755254e-01
9.835166190292371491e-01,-3.278388730097456794e-01,9.835166190292371491e-01,9.835166190292371491e-01,9.835166190292371491e-01,9.835166190292371491e-01
9.898060938111986617e-01,-3.299353646037328502e-01,9.898060938111986617e-01,9.898060938111986617e-01,9.898060938111986617e-01,9.898060938111986617e-01
9.960955685931601744e-01,-3.320318561977200211e-01,9.960955685931601744e-01,9.960955685931601744e-01,9.960955685931601744e-01,9.960955685931601744e-01
1.002385043375121576e+00,-3.341283477917071920e-01,1.002385043375121576e+00,1.002385043375121576e+00,1.002385043375121576e+00,1.002385043375121576e+00
1.008674518157083311e+00,-3.362248393856944184e-01,1.008674518157083311e+00,1.008674518157083311e+00,1.008674518157083311e+00,1.008674518157083311e+00
1.014963992939044823e+00,-3.383213309796815893e-01,1.014963992939044823e+00,1.014963992939044823e+00,1.014963992939044823e+00,1.014963992939044823e+00
1.021253467721006336e+00,-3.404178225736687602e-01,1.021253467721006336e+00,1.021253467721006336e+00,1.021253467721006336e+00,1.021253467721006336e+00
1.027542942502968071e+00,-3.425143141676559866e-01,1.027542942502968071e+00,1.027542942502968071e+00,1.027542942502968071e+00,1.027542942502968071e+00
1.033832417284929583e+00,-3.446108057616431575e-01,1.033832417284929583e+00,1.033832417284929583e+00,1.033832417284929583e+00,1.033832417284929583e+00
1.040121892066891096e+00,-3.467072973556303284e-01,1.040121892066891096e+00,1.040121892066891096e+00,1.040121892066891096e+00,1.040121892066891096e+00
1.046411366848852609e+00,-3.488037889496174992e-01,1.046411366848852609e+00,1.046411366848852609e+00,1.046411366848852609e+00,1.046411366848852609e+00
1.052700841630814121e+00,-3.509002805436046701e-01,1.052700841630814121e+00,1.052700841630814121e+00,1.052700841630814121e+00,1.052700841630814121e+00
1.058990316412775634e+00,-3.529967721375918410e-01,1.058990316412775634e+00,1.058990316412775634e+00,1.058990316412775634e+00,1.058990316412775634e+00
1.065279791194737147e+00,-3.550932637315790674e-01,1.065279791194737147e+00,1.065279791194737147e+00,1.065279791194737147e+00,1.065279791194737147e+00
1.071569265976698659e+00,-3.571897553255662383e-01,1.071569265976698659e+00,1.071569265976698659e+00,1.071569265976698659e+00,1.071569265976698659e+00
1.077858740758660172e+00,-3.592862469195534092e-01,1.077858740758660172e+00,1.077858740758660172e+00,1.077858740758660172e+00,1.077858740758660172e+00
1.084148215540621685e+00,-3.613827385135405801e-01,1.084148215540621685e+00,1.084148215540621685e+00,1.084148215540621685e+00,1.084148215540621685e+00
1.090437690322583419e+00,-3.634792301075277510e-01,1.090437690322583419e+00,1.090437690322583419e+00,1.090437690322583419e+00,1.090437690322583419e+00
1.096727165104544932e+00,-3.655757217015149774e-01,1.096727165104544932e+00,1.096727165104544932e+00,1.096727165104544932e+00,1.096727165104544932e+00
1.103016639886506445e+00,-3.676722132955021483e-01,1.103016639886506445e+00,1.103016639886506445e+00,1.103016639886506445e+00,1.103016639886506445e+00
1.109306114668467957e+00,-3.697687048894893191e-01,1.109306114668467957e+00,1.109306114668467957e+00,1.109306114668467957e+00,1.109306114668467957e+00
1.115595589450429692e+00,-3.718651964834764900e-01,1.115595589450429692e+00,1.115595589450429692e+00,1.115595589450429692e+00,1.115595589450429692e+00
1.121885064232391205e+00,-3.739616880774636609e-01,1.121885064232391205e+00,1.121885064232391205e+00,1.121885064232391205e+00,1.121885064232391205e+00
1.128174539014352717e+00,-3.760581796714508873e-01,1.128174539014352717e+00,1.128174539014352717e+00,1.128174539014352717e+00,1.128174539014352717e+00
1.134464013796314230e+00,-3.781546712654380582e-01,1.134464013796314230e+00,1.134464013796314230e+00,1.134464013796314230e+00,1.134464013796314230e+00
1.140753488578275743e+00,-3.802511628594252291e-01,1.140753488578275743e+00,1.140753488578275743e+00,1.140753488578275743e+00,1.140753488578275743e+00
1.147042963360237255e+00,-3.823476544534124000e-01,1.147042963360237255e+00,1.147042963360237255e+00,1.147042963360237255e+00,1.147042963360237255e+00
1.153332438142198768e+00,-3.844441460473995709e-01,1.153332438142198768e+00,1.153332438142198768e+00,1.153332438142198768e+00,1.153332438142198768e+00
1.159621912924160281e+00,-3.865406376413867973e-01,1.159621912924160281e+00,1.159621912924160281e+00,1.159621912924160281e+00,1.159621912924160281e+00
1.165911387706121793e+00,-3.886371292353739682e-01,1.165911387706121793e+00,1.165911387706121793e+00,1.165911387706121793e+00,1.165911387706121793e+00
1.172200862488083306e+00,-3.907336208293611390e-01,1.172200862488083306e+00,1.172200862488083306e+00,1.172200862488083306e+00,1.172200862488083306e+00
1.178490337270045041e+00,-3.928301124233483099e-01,1.178490337270045041e+00,1.178490337270045041e+00,1.178490337270045041e+00,1.178490337270045041e+00
1.184779812052006553e+00,-3.949266040173354808e-01,1.184779812052006553e+00,1.184779812052006553e+00,1.184779812052006553e+00,1.184779812052006553e+00
1.191069286833968066e+00,-3.970230956113227072e-01,1.191069286833968066e+00,1.191069286833968066e+00,1.191069286833968066e+00,1.191069286833968066e+00
1.197358761615929801e+00,-3.991195872053098781e-01,1.197358761615929801e+00,1.197358761615929801e+00,1.197358761615929801e+00,1.197358761615929801e+00
1.203648236397891313e+00,-4.012160787992970490e-01,1.203648236397891313e+00,1.203648236397891313e+00,1.203648236397891313e+00,1.203648236397891313e+00
1.209937711179852826e+00,-4.033125703932842199e-01,1.209937711179852826e+00,1.209937711179852826e+00,1.209937711179852826e+00,1.209937711179852826e+00
1.216227185961814339e+00,-4.054090619872713908e-01,1.216227185961814339e+00,1.216227185961814339e+00,1.216227185961814339e+00,1.216227185961814339e+00
1.222516660743775851e+00,-4.075055535812586172e-01,1.222516660743775851e+00,1.222516660743775851e+00,1.222516660743775851e+00,1.222516660743775851e+00
1.228806135525737364e+00,-4.096020451752457880e-01,1.228806135525737364e+00,1.228806135525737364e+00,1.228806135525737364e+00,1.228806135525737364e+00
1.235095610307698877e+00,-4.116985367692329589e-01,1.235095610307698877e+00,1.235095610307698877e+00,1.235095610307698877e+00,1.235095610307698877e+00
1.241385085089660389e+00,-4.137950283632201298e-01,1.241385085089660389e+00,1.241385085089660389e+00,1.241385085089660389e+00,1.241385085089660389e+00
1.247674559871621902e+00,-4.158915199572073007e-01,1.247674559871621902e+00,1.247674559871621902e+00,1.247674559871621902e+00,1.247674559871621902e+00
1.253964034653583415e+00,-4.179880115511945271e-01,1.253964034653583415e+00,1.253964034653583415e+00,1.253964034653583415e+00,1.253964034653583415e+00
1.260253509435545149e+00,-4.200845031451816980e-01,1.260253509435545149e+00,1.260253509435545149e+00,1.260253509435545149e+00,1.260253509435545149e+00
1.266542984217506440e+00,-4.221809947391688689e-01,1.266542984217506440e+00,1.266542984217506440e+00,1.266542984217506440e+00,1.266542984217506440e+00
1.272832458999468397e+00,-4.242774863331560398e-01,1.272832458999468397e+00,1.272832458999468397e+00,1.272832458999468397e+00,1.272832458999468397e+00
1.279121933781429910e+00,-4.263739779271432107e-01,1.279121933781429910e+00,1.279121933781429910e+00,1.279121933781429910e+00,1.279121933781429910e+00
1.285411408563391422e+00,-4.284704695211304371e-01,1.285411408563391422e+00,1.285411408563391422e+00,1.285411408563391422e+00,1.285411408563391422e+00
1.291700883345352935e+00,-4.305669611151176079e-01,1.291700883345352935e+00,1.291700883345352935e+00,1.291700883345352935e+00,1.291700883345352935e+00
1.297990358127314448e+00,-4.326634527091047788e-01,1.297990358127314448e+00,1.297990358127314448e+00,1.297990358127314448e+00,1.297990358127314448e+00
1.304279832909275960e+00,-4.347599443030919497e-01,1.304279832909275960e+00,1.304279832909275960e+00,1.304279832909275960e+00,1.304279832909275960e+00
1.310566946777280695e+00,-4.368556489257601205e-01,1.310566946777280695e+00,1.310566946777280695e+00,1.310566946777280695e+00,1.310566946777280695e+00
1.316799759624269539e+00,-4.389332532080897353e-01,1.316799759624269539e+00,1.316799759624269539e+00,1.316799759624269539e+00,1.316799759624269539e+00
1.322957023224628381e+00,-4.409856744082092939e-01,1.322957023224628381e+00,1.322957023224628381e+00,1.322957023224628381e+00,1.322957023224628381e+00
1.329038737578356777e+00,-4.430129125261189071e-01,1.329038737578356777e+00,1.329038737578356777e+00,1.329038737578356777e+00,1.329038737578356777e+00
1.335044902685455170e+00,-4.450149675618183531e-01,1.335044902685455170e+00,1.335044902685455170e+00,1.335044902685455170e+00,1.335044902685455170e+00
1.340975518545923562e+00,-4.469918395153077428e-01,1.340975518545923562e+00,1.340975518545923562e+00,1.340975518545923562e+00,1.340975518545923562e+00
1.346830585159761506e+00,-4.489435283865870763e-01,1.346830585159761506e+00,1.346830585159761506e+00,1.346830585159761506e+00,1.346830585159761506e+00
1.352610102526969671e+00,-4.508700341756564089e-01,1.352610102526969671e+00,1.352610102526969671e+00,1.352610102526969671e+00,1.352610102526969671e+00
1.358314070647547389e+00,-4.527713568825156853e-01,1.358314070647547389e+00,1.358314070647547389e+00,1.358314070647547389e+00,1.358314070647547389e+00
1.363942489521494883e+00,-4.546474965071648500e-01,1.363942489521494883e+00,1.363942489521494883e+00,1.363942489521494883e+00,1.363942489521494883e+00
1.369495359148812152e+00,-4.564984530496039583e-01,1.369495359148812152e+00,1.369495359148812152e+00,1.369495359148812152e+00,1.369495359148812152e+00
1.374972679529499420e+00,-4.583242265098330659e-01,1.374972679529499420e+00,1.374972679529499420e+00,1.374972679529499420e+00,1.374972679529499420e+00
1.380374450663556463e+00,-4.601248168878520617e-01,1.380374450663556463e+00,1.380374450663556463e+00,1.380374450663556463e+00,1.380374450663556463e+00
1.385700672550983281e+00,-4.619002241836610567e-01,1.385700672550983281e+00,1.385700672550983281e+00,1.385700672550983281e+00,1.385700672550983281e+00
1.390951345191780320e+00,-4.636504483972599400e-01,1.390951345191780320e+00,1.390951345191780320e+00,1.390951345191780320e+00,1.390951345191780320e+00
1.396126468585946689e+00,-4.653754895286488225e-01,1.396126468585946689e+00,1.396126468585946689e+00,1.396126468585946689e+00,1.396126468585946689e+00
1.401226042733483057e+00,-4.670753475778275932e-01,1.401226042733483057e+00,1.401226042733483057e+00,1.401226042733483057e+00,1.401226042733483057e+00
1.406250067634389200e+00,-4.687500225447963076e-01,1.406250067634389200e+00,1.406250067634389200e+00,1.406250067634389200e+00,1.406250067634389200e+00
1.411198543288665341e+00,-4.703995144295550213e-01,1.411198543288665341e+00,1.411198543288665341e+00,1.411198543288665341e+00,1.411198543288665341e+00
1.416071469696311258e+00,-4.720238232321036786e-01,1.416071469696311258e+00,1.416071469696311258e+00,1.416071469696311258e+00,1.416071469696311258e+00
1.420868846857326950e+00,-4.736229489524422243e-01,1.420868846857326950e+00,1.420868846857326950e+00,1.420868846857326950e+00,1.420868846857326950e+00
1.425590674771712640e+00,-4.751968915905707136e-01,1.425590674771712640e+00,1.425590674771712640e+00,1.425590674771712640e+00,1.425590674771712640e+00
1.430236953439467884e+00,-4.767456511464892022e-01,1.430236953439467884e+00,1.430236953439467884e+00,1.430236953439467884e+00,1.430236953439467884e+00
1.434807682860593125e+00,-4.782692276201976345e-01,1.434807682860593125e+00,1.434807682860593125e+00,1.434807682860593125e+00,1.434807682860593125e+00
1.439302863035088142e+00,-4.797676210116959550e-01,1.439302863035088142e+00,1.439302863035088142e+00,1.439302863035088142e+00,1.439302863035088142e+00
1.443722493962952935e+00,-4.812408313209842192e-01,1.443722493962952935e+00,1.443722493962952935e+00,1.443722493962952935e+00,1.443722493962952935e+00
1.448066575644187504e+00,-4.826888585480624827e-01,1.448066575644187504e+00,1.448066575644187504e+00,1.448066575644187504e+00,1.448066575644187504e+00
1.452335108078792292e+00,-4.841117026929306344e-01,1.452335108078792292e+00,1.452335108078792292e+00,1.452335108078792292e+00,1.452335108078792292e+00
1.456528091266766634e+00,-4.855093637555887298e-01,1.456528091266766634e+00,1.456528091266766634e+00,1.456528091266766634e+00,1.456528091266766634e+00
1.460645525208110751e+00,-4.868818417360368245e-01,1.460645525208110751e+00,1.460645525208110751e+00,1.460645525208110751e+00,1.460645525208110751e+00
1.464687409902824866e+00,-4.882291366342748629e-01,1.464687409902824866e+00,1.464687409902824866e+00,1.464687409902824866e+00,1.464687409902824866e+00
1.468653745350908757e+00,-4.895512484503027339e-01,1.468653745350908757e+00,1.468653745350908757e+00,1.468653745350908757e+00,1.468653745350908757e+00
1.472544531552362201e+00,-4.908481771841207153e-01,1.472544531552362201e+00,1.472544531552362201e+00,1.472544531552362201e+00,1.472544531552362201e+00
1.476359768507185866e+00,-4.921199228357285849e-01,1.476359768507185866e+00,1.476359768507185866e+00,1.476359768507185866e+00,1.476359768507185866e+00
1.480099456215379305e+00,-4.933664854051263426e-01,1.480099456215379305e+00,1.480099456215379305e+00,1.480099456215379305e+00,1.480099456215379305e+00
1.483763594676942521e+00,-4.945878648923140442e-01,1.483763594676942521e+00,1.483763594676942521e+00,1.483763594676942521e+00,1.483763594676942521e+00
1.487352183891875512e+00,-4.957840612972916894e-01,1.487352183891875512e+00,1.487352183891875512e+00,1.487352183891875512e+00,1.487352183891875512e+00
1.490865223860178279e+00,-4.969550746200593339e-01,1.490865223860178279e+00,1.490865223860178279e+00,1.490865223860178279e+00,1.490865223860178279e+00
1.494302714581850822e+00,-4.981009048606168665e-01,1.494302714581850822e+00,1.494302714581850822e+00,1.494302714581850822e+00,1.494302714581850822e+00
1.497664656056893362e+00,-4.992215520189643430e-01,1.497664656056893362e+00,1.497664656056893362e+00,1.497664656056893362e+00,1.497664656056893362e+00
1.500951048285305900e+00,-5.003170160951019296e-01,1.500951048285305900e+00,1.500951048285305900e+00,1.500951048285305900e+00,1.500951048285305900e+00
1.504161891267087992e+00,-5.013872970890292935e-01,1.504161891267087992e+00,1.504161891267087992e+00,1.504161891267087992e+00,1.504161891267087992e+00
1.507297185002240081e+00,-5.024323950007466566e-01,1.507297185002240081e+00,1.507297185002240081e+00,1.507297185002240081e+00,1.507297185002240081e+00
1.510356929490761946e+00,-5.034523098302539079e-01,1.510356929490761946e+00,1.510356929490761946e+00,1.510356929490761946e+00,1.510356929490761946e+00
1.513341124732653364e+00,-5.044470415775510475e-01,1.513341124732653364e+00,1.513341124732653364e+00,1.513341124732653364e+00,1.513341124732653364e+00
1.516249770727915003e+00,-5.054165902426381862e-01,1.516249770727915003e+00,1.516249770727915003e+00,1.516249770727915003e+00,1.516249770727915003e+00
1.519082867476546195e+00,-5.063609558255153242e-01,1.519082867476546195e+00,1.519082867476546195e+00,1.519082867476546195e+00,1.519082867476546195e+00
1.521840414978547384e+00,-5.072801383261823505e-01,1.521840414978547384e+00,1.521840414978547384e+00,1.521840414978547384e+00,1.521840414978547384e+00
1.524522413233918572e+00,-5.081741377446393759e-01,1.524522413233918572e+00,1.524522413233918572e+00,1.524522413233918572e+00,1.524522413233918572e+00
1.527128862242659313e+00,-5.090429540808862896e-01,1.527128862242659313e+00,1.527128862242659313e+00,1.527128862242659313e+00,1.527128862242659313e+00
1.529659762004770052e+00,-5.098865873349232025e-01,1.529659762004770052e+00,1.529659762004770052e+00,1.529659762004770052e+00,1.529659762004770052e+00
1.532115112520250344e+00,-5.107050375067500037e-01,1.532115112520250344e+00,1.532115112520250344e+00,1.532115112520250344e+00,1.532115112520250344e+00
1.534494913789100634e+00,-5.114983045963669150e-01,1.534494913789100634e+00,1.534494913789100634e+00,1.534494913789100634e+00,1.534494913789100634e+00
1.536799165811320922e+00,-5.122663886037736036e-01,1.536799165811320922e+00,1.536799165811320922e+00,1.536799165811320922e+00,1.536799165811320922e+00
1.539027868586910985e+00,-5.130092895289701804e-01,1.539027868586910985e+00,1.539027868586910985e+00,1.539027868586910985e+00,1.539027868586910985e+00
1.541181022115870825e+00,-5.137270073719567565e-01,1.541181022115870825e+00,1.541181022115870825e+00,1.541181022115870825e+00,1.541181022115870825e+00
1.543258626398200439e+00,-5.144195421327333317e-01,1.543258626398200439e+00,1.543258626398200439e+00,1.543258626398200439e+00,1.543258626398200439e+00
1.545260681433899830e+00,-5.150868938112997952e-01,1.545260681433899830e+00,1.545260681433899830e+00,1.545260681433899830e+00,1.545260681433899830e+00
1.547187187222968996e+00,-5.157290624076562580e-01,1.547187187222968996e+00,1.547187187222968996e+00,1.547187187222968996e+00,1.547187187222968996e+00
1.549038143765408160e+00,-5.163460479218026089e-01,1.549038143765408160e+00,1.549038143765408160e+00,1.549038143765408160e+00,1.549038143765408160e+00
1.550813551061217099e+00,-5.169378503537390701e-01,1.550813551061217099e+00,1.550813551061217099e+00,1.550813551061217099e+00,1.550813551061217099e+00
1.552513409110395814e+00,-5.175044697034653085e-01,1.552513409110395814e+00,1.552513409110395814e+00,1.552513409110395814e+00,1.552513409110395814e+00
1.554137717912944749e+00,-5.180459059709814351e-01,1.554137717912944749e+00,1.554137717912944749e+00,1.554137717912944749e+00,1.554137717912944749e+00
1.555686477468863016e+00,-5.185621591562876720e-01,1.555686477468863016e+00,1.555686477468863016e+00,1.555686477468863016e+00,1.555686477468863016e+00
1.557159687778151280e+00,-5.190532292593836861e-01,1.557159687778151280e+00,1.557159687778151280e+00,1.557159687778151280e+00,1.557159687778151280e+00
1.558557348840809542e+00,-5.195191162802696994e-01,1.558557348840809542e+00,1.558557348840809542e+00,1.558557348840809542e+00,1.558557348840809542e+00
1.559879460656837358e+00,-5.199598202189457119e-01,1.559879460656837358e+00,1.559879460656837358e+00,1.559879460656837358e+00,1.559879460656837358e+00
1.561126023226235393e+00,-5.203753410754116127e-01,1.561126023226235393e+00,1.561126023226235393e+00,1.561126023226235393e+00,1.561126023226235393e+00
1.562297036549002982e+00,-5.207656788496675127e-01,1.562297036549002982e+00,1.562297036549002982e+00,1.562297036549002982e+00,1.562297036549002982e+00
1.563392500625140347e+00,-5.211308335417133009e-01,1.563392500625140347e+00,1.563392500625140347e+00,1.563392500625140347e+00,1.563392500625140347e+00
1.564412415454647487e+00,-5.214708051515490883e-01,1.564412415454647487e+00,1.564412415454647487e+00,1.564412415454647487e+00,1.564412415454647487e+00
1.565356781037524625e+00,-5.217855936791747640e-01,1.565356781037524625e+00,1.565356781037524625e+00,1.565356781037524625e+00,1.565356781037524625e+00
1.566225597373771761e+00,-5.220751991245905499e-01,1.566225597373771761e+00,1.566225597373771761e+00,1.566225597373771761e+00,1.566225597373771761e+00
1.567018864463388450e+00,-5.223396214877961130e-01,1.567018864463388450e+00,1.567018864463388450e+00,1.567018864463388450e+00,1.567018864463388450e+00
1.567736582306375137e+00,-5.225788607687916754e-01,1.567736582306375137e+00,1.567736582306375137e+00,1.567736582306375137e+00,1.567736582306375137e+00
1.568378750902731600e+00,-5.227929169675771259e-01,1.568378750902731600e+00,1.568378750902731600e+00,1.568378750902731600e+00,1.568378750902731600e+00
1.568945370252457838e+00,-5.229817900841524647e-01,1.568945370252457838e+00,1.568945370252457838e+00,1.568945370252457838e+00,1.568945370252457838e+00
1.569436440355553852e+00,-5.231454801185178027e-01,1.569436440355553852e+00,1.569436440355553852e+00,1.569436440355553852e+00,1.569436440355553852e+00
1.569851961212019642e+00,-5.232839870706731400e-01,1.569851961212019642e+00,1.569851961212019642e+00,1.569851961212019642e+00,1.569851961212019642e+00
1.570191932821855429e+00,-5.233973109406183655e-01,1.570191932821855429e+00,1.570191932821855429e+00,1.570191932821855429e+00,1.570191932821855429e+00
1.570456355185060993e+00,-5.234854517283535902e-01,1.570456355185060993e+00,1.570456355185060993e+00,1.570456355185060993e+00,1.570456355185060993e+00
1.570645228301636553e+00,-5.235484094338787031e-01,1.570645228301636553e+00,1.570645228301636553e+00,1.570645228301636553e+00,1.570645228301636553e+00
1.570758552171581890e+00,-5.235861840571938153e-01,1.570758552171581890e+00,1.570758552171581890e+00,1.570758552171581890e+00,1.570758552171581890e+00
1.570796326794897002e+00,-5.235987755982988157e-01,1.570796326794897002e+00,1.570796326794897002e+00,1.570796326794897002e+00,1.570796326794897002e+00
1.570796326794897002e+00,-5.235987755982988157e-01,1.570796326794897002e+00,1.570796326794897002e+00,1.570796326794897002e+00,1.570796326794897002e+00
1.570758552171581890e+00,-5.235861840571938153e-01,1.570758552171581890e+00,1.570758552171581890e+00,1.570758552171581890e+00,1.570758552171581890e+00
1.570645228301636775e+00,-5.235484094338787031e-01,1.570645228301636775e+00,1.570645228301636775e+00,1.570645228301636775e+00,1.570645228301636775e+00
1.570456355185061215e+00,-5.234854517283535902e-01,1.570456355185061215e+00,1.570456355185061215e+00,1.570456355185061215e+00,1.570456355185061215e+00
1.570191932821855652e+00,-5.233973109406183655e-01,1.570191932821855652e+00,1.570191932821855652e+00,1.570191932821855652e+00,1.570191932821855652e+00
1.569851961212019864e+00,-5.232839870706731400e-01,1.569851961212019864e+00,1.569851961212019864e+00,1.569851961212019864e+00,1.569851961212019864e+00
1.569436440355554074e+00,-5.231454801185178027e-01,1.569436440355554074e+00,1.569436440355554074e+00,1.569436440355554074e+00,1.569436440355554074e+00
1.568945370252457838e+00,-5.229817900841524647e-01,1.568945370252457838e+00,1.568945370252457838e+00,1.568945370252457838e+00,1.568945370252457838e+00
1.568378750902731600e+00,-5.227929169675770149e-01,1.568378750902731600e+00,1.568378750902731600e+00,1.568378750902731600e+00,1.568378750902731600e+00
1.567736582306375137e+00,-5.225788607687915643e-01,1.567736582306375137e+00,1.567736582306375137e+00,1.567736582306375137e+00,1.567736582306375137e+00
1.567018864463388672e+00,-5.223396214877960020e-01,1.567018864463388672e+00,1.567018864463388672e+00,1.567018864463388672e+00,1.567018864463388672e+00
1.566225597373771761e+00,-5.220751991245904389e-01,1.566225597373771761e+00,1.566225597373771761e+00,1.566225597373771761e+00,1.566225597373771761e+00
1.565356781037524847e+00,-5.217855936791747640e-01,1.565356781037524847e+00,1.565356781037524847e+00,1.565356781037524847e+00,1.565356781037524847e+00
1.564412415454647709e+00,-5.214708051515490883e-01,1.564412415454647709e+00,1.564412415454647709e+00,1.564412415454647709e+00,1.564412415454647709e+00
1.563392500625140569e+00,-5.211308335417133009e-01,1.563392500625140569e+00,1.563392500625140569e+00,1.563392500625140569e+00,1.563392500625140569e+00
1.562297036549002982e+00,-5.207656788496675127e-01,1.562297036549002982e+00,1.562297036549002982e+00,1.562297036549002982e+00,1.562297036549002982e+00
1.561126023226235393e+00,-5.203753410754116127e-01,1.561126023226235393e+00,1.561126023226235393e+00,1.561126023226235393e+00,1.561126023226235393e+00
1.559879460656837580e+00,-5.199598202189457119e-01,1.559879460656837580e+00,1.559879460656837580e+00,1.559879460656837580e+00,1.559879460656837580e+00
1.558557348840809764e+00,-5.195191162802696994e-01,1.558557348840809764e+00,1.558557348840809764e+00,1.558557348840809764e+00,1.558557348840809764e+00
1.557159687778151502e+00,-5.190532292593836861e-01,1.557159687778151502e+00,1.557159687778151502e+00,1.557159687778151502e+00,1.557159687778151502e+00
1.555686477468863238e+00,-5.185621591562875610e-01,1.555686477468863238e+00,1.555686477468863238e+00,1.555686477468863238e+00,1.555686477468863238e+00
1.554137717912944749e+00,-5.180459059709814351e-01,1.554137717912944749e+00,1.554137717912944749e+00,1.554137717912944749e+00,1.554137717912944749e+00
1.552513409110396259e+00,-5.175044697034651975e-01,1.552513409110396259e+00,1.552513409110396259e+00,1.552513409110396259e+00,1.552513409110396259e+00
1.550813551061217321e+00,-5.169378503537389591e-01,1.550813551061217321e+00,1.550813551061217321e+00,1.550813551061217321e+00,1.550813551061217321e+00
1.549038143765408382e+00,-5.163460479218026089e-01,1.549038143765408382e+00,1.549038143765408382e+00,1.549038143765408382e+00,1.549038143765408382e+00
1.547187187222969218e+00,-5.157290624076562580e-01,1.547187187222969218e+00,1.547187187222969218e+00,1.547187187222969218e+00,1.547187187222969218e+00
1.545260681433900052e+00,-5.150868938112997952e-01,1.545260681433900052e+00,1.545260681433900052e+00,1.545260681433900052e+00,1.545260681433900052e+00
1.543258626398200439e+00,-5.144195421327333317e-01,1.543258626398200439e+00,1.543258626398200439e+00,1.543258626398200439e+00,1.543258626398200439e+00
1.541181022115870825e+00,-5.137270073719567565e-01,1.541181022115870825e+00,1.541181022115870825e+00,1.541181022115870825e+00,1.541181022115870825e+00
1.539027868586910985e+00,-5.130092895289701804e-01,1.539027868586910985e+00,1.539027868586910985e+00,1.539027868586910985e+00,1.539027868586910985e+00
1.536799165811321144e+00,-5.122663886037734926e-01,1.536799165811321144e+00,1.536799165811321144e+00,1.536799165811321144e+00,1.536799165811321144e+00
1.534494913789100856e+00,-5.114983045963668040e-01,1.534494913789100856e+00,1.534494913789100856e+00,1.534494913789100856e+00,1.534494913789100856e+00
1.532115112520250566e+00,-5.107050375067500037e-01,1.532115112520250566e+00,1.532115112520250566e+00,1.532115112520250566e+00,1.532115112520250566e+00
1.529659762004770052e+00,-5.098865873349232025e-01,1.529659762004770052e+00,1.529659762004770052e+00,1.529659762004770052e+00,1.529659762004770052e+00
1.527128862242659535e+00,-5.090429540808862896e-01,1.527128862242659535e+00,1.527128862242659535e+00,1.527128862242659535e+00,1.527128862242659535e+00
1.524522413233918572e+00,-5.081741377446393759e-01,1.524522413233918572e+00,1.524522413233918572e+00,1.524522413233918572e+00,1.524522413233918572e+00
1.521840414978547606e+00,-5.072801383261823505e-01,1.521840414978547606e+00,1.521840414978547606e+00,1.521840414978547606e+00,1.521840414978547606e+00
1.519082867476546417e+00,-5.063609558255153242e-01,1.519082867476546417e+00,1.519082867476546417e+00,1.519082867476546417e+00,1.519082867476546417e+00
1.516249770727915225e+00,-5.054165902426381862e-01,1.516249770727915225e+00,1.516249770727915225e+00,1.516249770727915225e+00,1.516249770727915225e+00
1.513341124732653586e+00,-5.044470415775510475e-01,1.513341124732653586e+00,1.513341124732653586e+00,1.513341124732653586e+00,1.513341124732653586e+00
1.510356929490761946e+00,-5.034523098302537969e-01,1.510356929490761946e+00,1.510356929490761946e+00,1.510356929490761946e+00,1.510356929490761946e+00
1.507297185002240081e+00,-5.024323950007465456e-01,1.507297185002240081e+00,1.507297185002240081e+00,1.507297185002240081e+00,1.507297185002240081e+00
1.504161891267088214e+00,-5.013872970890291825e-01,1.504161891267088214e+00,1.504161891267088214e+00,1.504161891267088214e+00,1.504161891267088214e+00
1.500951048285305900e+00,-5.003170160951018186e-01,1.500951048285305900e+00,1.500951048285305900e+00,1.500951048285305900e+00,1.500951048285305900e+00
1.497664656056893584e+00,-4.992215520189643430e-01,1.497664656056893584e+00,1.497664656056893584e+00,1.497664656056893584e+00,1.497664656056893584e+00
1.494302714581851044e+00,-4.981009048606168665e-01,1.494302714581851044e+00,1.494302714581851044e+00,1.494302714581851044e+00,1.494302714581851044e+00
1.490865223860178501e+00,-4.969550746200593339e-01,1.490865223860178501e+00,1.490865223860178501e+00,1.490865223860178501e+00,1.490865223860178501e+00
1.487352183891875512e+00,-4.957840612972916894e-01,1.487352183891875512e+00,1.487352183891875512e+00,1.487352183891875512e+00,1.487352183891875512e+00
1.483763594676942521e+00,-4.945878648923140442e-01,1.483763594676942521e+00,1.483763594676942521e+00,1.483763594676942521e+00,1.483763594676942521e+00
1.480099456215379305e+00,-4.933664854051262871e-01,1.480099456215379305e+00,1.480099456215379305e+00,1.480099456215379305e+00,1.480099456215379305e+00
1.476359768507186088e+00,-4.921199228357285294e-01,1.476359768507186088e+00,1.476359768507186088e+00,1.476359768507186088e+00,1.476359768507186088e+00
1.472544531552362645e+00,-4.908481771841206598e-01,1.472544531552362645e+00,1.472544531552362645e+00,1.472544531552362645e+00,1.472544531552362645e+00
1.468653745350908757e+00,-4.895512484503027895e-01,1.468653745350908757e+00,1.468653745350908757e+00,1.468653745350908757e+00,1.468653745350908757e+00
1.464687409902825088e+00,-4.882291366342748073e-01,1.464687409902825088e+00,1.464687409902825088e+00,1.464687409902825088e+00,1.464687409902825088e+00
1.460645525208110973e+00,-4.868818417360368245e-01,1.460645525208110973e+00,1.460645525208110973e+00,1.460645525208110973e+00,1.460645525208110973e+00
1.456528091266766856e+00,-4.855093637555887298e-01,1.456528091266766856e+00,1.456528091266766856e+00,1.456528091266766856e+00,1.456528091266766856e+00
1.452335108078792292e+00,-4.841117026929306344e-01,1.452335108078792292e+00,1.452335108078792292e+00,1.452335108078792292e+00,1.452335108078792292e+00
1.448066575644187726e+00,-4.826888585480624272e-01,1.448066575644187726e+00,1.448066575644187726e+00,1.448066575644187726e+00,1.448066575644187726e+00
1.443722493962953157e+00,-4.812408313209842192e-01,1.443722493962953157e+00,1.443722493962953157e+00,1.443722493962953157e+00,1.443722493962953157e+00
1.439302863035088365e+00,-4.797676210116958995e-01,1.439302863035088365e+00,1.439302863035088365e+00,1.439302863035088365e+00,1.439302863035088365e+00
1.434807682860593125e+00,-4.782692276201975790e-01,1.434807682860593125e+00,1.434807682860593125e+00,1.434807682860593125e+00,1.434807682860593125e+00
1.430236953439468106e+00,-4.767456511464891467e-01,1.430236953439468106e+00,1.430236953439468106e+00,1.430236953439468106e+00,1.430236953439468106e+00
1.425590674771712640e+00,-4.751968915905707136e-01,1.425590674771712640e+00,1.425590674771712640e+00,1.425590674771712640e+00,1.425590674771712640e+00
1.420868846857327172e+00,-4.736229489524422243e-01,1.420868846857327172e+00,1.420868846857327172e+00,1.420868846857327172e+00,1.420868846857327172e+00
1.416071469696311258e+00,-4.720238232321036231e-01,1.416071469696311258e+00,1.416071469696311258e+00,1.416071469696311258e+00,1.416071469696311258e+00
1.411198543288665563e+00,-4.703995144295550213e-01,1.411198543288665563e+00,1.411198543288665563e+00,1.411198543288665563e+00,1.411198543288665563e+00
1.406250067634389422e+00,-4.687500225447963076e-01,1.406250067634389422e+00,1.406250067634389422e+00,1.406250067634389422e+00,1.406250067634389422e+00
1.401226042733483279e+00,-4.670753475778275932e-01,1.401226042733483279e+00,1.401226042733483279e+00,1.401226042733483279e+00,1.401226042733483279e+00
1.396126468585946911e+00,-4.653754895286487669e-01,1.396126468585946911e+00,1.396126468585946911e+00,1.396126468585946911e+00,1.396126468585946911e+00
1.390951345191780320e+00,-4.636504483972599400e-01,1.390951345191780320e+00,1.390951345191780320e+00,1.390951345191780320e+00,1.390951345191780320e+00
1.385700672550983503e+00,-4.619002241836610012e-01,1.385700672550983503e+00,1.385700672550983503e+00,1.385700672550983503e+00,1.385700672550983503e+00
1.380374450663556685e+00,-4.601248168878520617e-01,1.380374450663556685e+00,1.380374450663556685e+00,1.380374450663556685e+00,1.380374450663556685e+00
1.374972679529499642e+00,-4.583242265098330659e-01,1.374972679529499642e+00,1.374972679529499642e+00,1.374972679529499642e+00,1.374972679529499642e+00
1.369495359148812375e+00,-4.564984530496039583e-01,1.369495359148812375e+00,1.369495359148812375e+00,1.369495359148812375e+00,1.369495359148812375e+00
1.363942489521494883e+00,-4.546474965071648500e-01,1.363942489521494883e+00,1.363942489521494883e+00,1.363942489521494883e+00,1.363942489521494883e+00
1.358314070647547389e+00,-4.527713568825156298e-01,1.358314070647547389e+00,1.358314070647547389e+00,1.358314070647547389e+00,1.358314070647547389e+00
1.352610102526969671e+00,-4.508700341756564089e-01,1.352610102526969671e+00,1.352610102526969671e+00,1.352610102526969671e+00,1.352610102526969671e+00
1.346830585159761728e+00,-4.489435283865870763e-01,1.346830585159761728e+00,1.346830585159761728e+00,1.346830585159761728e+00,1.346830585159761728e+00
1.340975518545923562e+00,-4.469918395153077428e-01,1.340975518545923562e+00,1.340975518545923562e+00,1.340975518545923562e+00,1.340975518545923562e+00
1.335044902685455392e+00,-4.450149675618182976e-01,1.335044902685455392e+00,1.335044902685455392e+00,1.335044902685455392e+00,1.335044902685455392e+00
1.329038737578356999e+00,-4.430129125261188516e-01,1.329038737578356999e+00,1.329038737578356999e+00,1.329038737578356999e+00,1.329038737578356999e+00
1.322957023224628381e+00,-4.409856744082092939e-01,1.322957023224628381e+00,1.322957023224628381e+00,1.322957023224628381e+00,1.322957023224628381e+00
1.316799759624269539e+00,-4.389332532080897353e-01,1.316799759624269539e+00,1.316799759624269539e+00,1.316799759624269539e+00,1.316799759624269539e+00
1.310566946777280695e+00,-4.368556489257600650e-01,1.310566946777280695e+00,1.310566946777280695e+00,1.310566946777280695e+00,1.310566946777280695e+00
1.304279832909276182e+00,-4.347599443030919497e-01,1.304279832909276182e+00,1.304279832909276182e+00,1.304279832909276182e+00,1.304279832909276182e+00
1.297990358127314670e+00,-4.326634527091047788e-01,1.297990358127314670e+00,1.297990358127314670e+00,1.297990358127314670e+00,1.297990358127314670e+00
1.291700883345353157e+00,-4.305669611151175524e-01,1.291700883345353157e+00,1.291700883345353157e+00,1.291700883345353157e+00,1.291700883345353157e+00
1.285411408563391644e+00,-4.284704695211303815e-01,1.285411408563391644e+00,1.285411408563391644e+00,1.285411408563391644e+00,1.285411408563391644e+00
1.279121933781429910e+00,-4.263739779271432107e-01,1.279121933781429910e+00,1.279121933781429910e+00,1.279121933781429910e+00,1.279121933781429910e+00
1.272832458999468397e+00,-4.242774863331560398e-01,1.272832458999468397e+00,1.272832458999468397e+00,1.272832458999468397e+00,1.272832458999468397e+00
1.266542984217506884e+00,-4.221809947391688689e-01,1.266542984217506884e+00,1.266542984217506884e+00,1.266542984217506884e+00,1.266542984217506884e+00
1.260253509435545372e+00,-4.200845031451816425e-01,1.260253509435545372e+00,1.260253509435545372e+00,1.260253509435545372e+00,1.260253509435545372e+00
1.253964034653583859e+00,-4.179880115511944716e-01,1.253964034653583859e+00,1.253964034653583859e+00,1.253964034653583859e+00,1.253964034653583859e+00
1.247674559871622346e+00,-4.158915199572073007e-01,1.247674559871622346e+00,1.247674559871622346e+00,1.247674559871622346e+00,1.247674559871622346e+00
1.241385085089660834e+00,-4.137950283632201298e-01,1.241385085089660834e+00,1.241385085089660834e+00,1.241385085089660834e+00,1.241385085089660834e+00
1.235095610307699099e+00,-4.116985367692329589e-01,1.235095610307699099e+00,1.235095610307699099e+00,1.235095610307699099e+00,1.235095610307699099e+00
1.228806135525737586e+00,-4.096020451752457880e-01,1.228806135525737586e+00,1.228806135525737586e+00,1.228806135525737586e+00,1.228806135525737586e+00
1.222516660743776074e+00,-4.075055535812585616e-01,1.222516660743776074e+00,1.222516660743776074e+00,1.222516660743776074e+00,1.222516660743776074e+00
1.216227185961814561e+00,-4.054090619872713908e-01,1.216227185961814561e+00,1.216227185961814561e+00,1.216227185961814561e+00,1.216227185961814561e+00
1.209937711179853048e+00,-4.033125703932842199e-01,1.209937711179853048e+00,1.209937711179853048e+00,1.209937711179853048e+00,1.209937711179853048e+00
1.203648236397891536e+00,-4.012160787992969935e-01,1.203648236397891536e+00,1.203648236397891536e+00,1.203648236397891536e+00,1.203648236397891536e+00
1.197358761615930023e+00,-3.991195872053098226e-01,1.197358761615930023e+00,1.197358761615930023e+00,1.197358761615930023e+00,1.197358761615930023e+00
1.191069286833968288e+00,-3.970230956113226517e-01,1.191069286833968288e+00,1.191069286833968288e+00,1.191069286833968288e+00,1.191069286833968288e+00
1.184779812052006776e+00,-3.949266040173354808e-01,1.184779812052006776e+00,1.184779812052006776e+00,1.184779812052006776e+00,1.184779812052006776e+00
1.178490337270045263e+00,-3.928301124233483099e-01,1.178490337270045263e+00,1.178490337270045263e+00,1.178490337270045263e+00,1.178490337270045263e+00
1.172200862488083750e+00,-3.907336208293610835e-01,1.172200862488083750e+00,1.172200862488083750e+00,1.172200862488083750e+00,1.172200862488083750e+00
1.165911387706122238e+00,-3.886371292353739126e-01,1.165911387706122238e+00,1.165911387706122238e+00,1.165911387706122238e+00,1.165911387706122238e+00
1.159621912924160725e+00,-3.865406376413867418e-01,1.159621912924160725e+00,1.159621912924160725e+00,1.159621912924160725e+00,1.159621912924160725e+00
1.153332438142199212e+00,-3.844441460473995709e-01,1.153332438142199212e+00,1.153332438142199212e+00,1.153332438142199212e+00,1.153332438142199212e+00
1.147042963360237477e+00,-3.823476544534123445e-01,1.147042963360237477e+00,1.147042963360237477e+00,1.147042963360237477e+00,1.147042963360237477e+00
1.140753488578275965e+00,-3.802511628594251736e-01,1.140753488578275965e+00,1.140753488578275965e+00,1.140753488578275965e+00,1.140753488578275965e+00
1.134464013796314452e+00,-3.781546712654380027e-01,1.134464013796314452e+00,1.134464013796314452e+00,1.134464013796314452e+00,1.134464013796314452e+00
1.128174539014352717e+00,-3.760581796714508318e-01,1.128174539014352717e+00,1.128174539014352717e+00,1.128174539014352717e+00,1.128174539014352717e+00
1.121885064232391205e+00,-3.739616880774636609e-01,1.121885064232391205e+00,1.121885064232391205e+00,1.121885064232391205e+00,1.121885064232391205e+00
1.115595589450429692e+00,-3.718651964834764900e-01,1.115595589450429692e+00,1.115595589450429692e+00,1.115595589450429692e+00,1.115595589450429692e+00
1.109306114668468179e+00,-3.697687048894892636e-01,1.109306114668468179e+00,1.109306114668468179e+00,1.109306114668468179e+00,1.109306114668468179e+00
1.103016639886506667e+00,-3.676722132955020927e-01,1.103016639886506667e+00,1.103016639886506667e+00,1.103016639886506667e+00,1.103016639886506667e+00
1.096727165104545154e+00,-3.655757217015149219e-01,1.096727165104545154e+00,1.096727165104545154e+00,1.096727165104545154e+00,1.096727165104545154e+00
1.090437690322583419e+00,-3.634792301075277510e-01,1.090437690322583419e+00,1.090437690322583419e+00,1.090437690322583419e+00,1.090437690322583419e+00
1.084148215540621907e+00,-3.613827385135405246e-01,1.084148215540621907e+00,1.084148215540621907e+00,1.084148215540621907e+00,1.084148215540621907e+00
1.077858740758660394e+00,-3.592862469195533537e-01,1.077858740758660394e+00,1.077858740758660394e+00,1.077858740758660394e+00,1.077858740758660394e+00
1.071569265976698881e+00,-3.571897553255661828e-01,1.071569265976698881e+00,1.071569265976698881e+00,1.071569265976698881e+00,1.071569265976698881e+00
1.065279791194737369e+00,-3.550932637315790119e-01,1.065279791194737369e+00,1.065279791194737369e+00,1.065279791194737369e+00,1.065279791194737369e+00
1.058990316412775856e+00,-3.529967721375918410e-01,1.058990316412775856e+00,1.058990316412775856e+00,1.058990316412775856e+00,1.058990316412775856e+00
1.052700841630814121e+00,-3.509002805436046701e-01,1.052700841630814121e+00,1.052700841630814121e+00,1.052700841630814121e+00,1.052700841630814121e+00
1.046411366848852609e+00,-3.488037889496174992e-01,1.046411366848852609e+00,1.046411366848852609e+00,1.046411366848852609e+00,1.046411366848852609e+00
1.040121892066891096e+00,-3.467072973556302729e-01,1.040121892066891096e+00,1.040121892066891096e+00,1.040121892066891096e+00,1.040121892066891096e+00
1.033832417284929583e+00,-3.446108057616431020e-01,1.033832417284929583e+00,1.033832417284929583e+00,1.033832417284929583e+00,1.033832417284929583e+00
1.027542942502968071e+00,-3.425143141676559311e-01,1.027542942502968071e+00,1.027542942502968071e+00,1.027542942502968071e+00,1.027542942502968071e+00
1.021253467721006558e+00,-3.404178225736687047e-01,1.021253467721006558e+00,1.021253467721006558e+00,1.021253467721006558e+00,1.021253467721006558e+00
1.014963992939045045e+00,-3.383213309796815338e-01,1.014963992939045045e+00,1.014963992939045045e+00,1.014963992939045045e+00,1.014963992939045045e+00
1.008674518157083533e+00,-3.362248393856943629e-01,1.008674518157083533e+00,1.008674518157083533e+00,1.008674518157083533e+00,1.008674518157083533e+00
1.002385043375121798e+00,-3.341283477917071920e-01,1.002385043375121798e+00,1.002385043375121798e+00,1.002385043375121798e+00,1.002385043375121798e+00
9.960955685931602854e-01,-3.320318561977200211e-01,9.960955685931602854e-01,9.960955685931602854e-01,9.960955685931602854e-01,9.960955685931602854e-01
9.898060938111987728e-01,-3.299353646037328502e-01,9.898060938111987728e-01,9.898060938111987728e-01,9.898060938111987728e-01,9.898060938111987728e-01
9.835166190292372601e-01,-3.278388730097456794e-01,9.835166190292372601e-01,9.835166190292372601e-01,9.835166190292372601e-01,9.835166190292372601e-01
9.772271442472757474e-01,-3.257423814157584530e-01,9.772271442472757474e-01,9.772271442472757474e-01,9.772271442472757474e-01,9.772271442472757474e-01
9.709376694653141238e-01,-3.236458898217712821e-01,9.709376694653141238e-01,9.709376694653141238e-01,9.709376694653141238e-01,9.709376694653141238e-01
9.646481946833526111e-01,-3.215493982277841112e-01,9.646481946833526111e-01,9.646481946833526111e-01,9.646481946833526111e-01,9.646481946833526111e-01
9.583587199013909874e-01,-3.194529066337969403e-01,9.583587199013909874e-01,9.583587199013909874e-01,9.583587199013909874e-01,9.583587199013909874e-01
9.520692451194294748e-01,-3.173564150398097139e-01,9.520692451194294748e-01,9.520692451194294748e-01,9.520692451194294748e-01,9.520692451194294748e-01
9.457797703374679621e-01,-3.152599234458225430e-01,9.457797703374679621e-01,9.457797703374679621e-01,9.457797703374679621e-01,9.457797703374679621e-01
9.394902955555064494e-01,-3.131634318518353721e-01,9.394902955555064494e-01,9.394902955555064494e-01,9.394902955555064494e-01,9.394902955555064494e-01
9.332008207735449368e-01,-3.110669402578482012e-01,9.332008207735449368e-01,9.332008207735449368e-01,9.332008207735449368e-01,9.332008207735449368e-01
9.269113459915833131e-01,-3.089704486638610303e-01,9.269113459915833131e-01,9.269113459915833131e-01,9.269113459915833131e-01,9.269113459915833131e-01
9.206218712096216894e-01,-3.068739570698738595e-01,9.206218712096216894e-01,9.206218712096216894e-01,9.206218712096216894e-01,9.206218712096216894e-01
9.143323964276601767e-01,-3.047774654758866886e-01,9.143323964276601767e-01,9.143323964276601767e-01,9.143323964276601767e-01,9.143323964276601767e-01
9.080429216456985531e-01,-3.026809738818994622e-01,9.080429216456985531e-01,9.080429216456985531e-01,9.080429216456985531e-01,9.080429216456985531e-01
9.017534468637369294e-01,-3.005844822879122913e-01,9.017534468637369294e-01,9.017534468637369294e-01,9.017534468637369294e-01,9.017534468637369294e-01
8.954639720817754167e-01,-2.984879906939250649e-01,8.954639720817754167e-01,8.954639720817754167e-01,8.954639720817754167e-01,8.954639720817754167e-01
8.891744972998139040e-01,-2.963914990999378940e-01,8.891744972998139040e-01,8.891744972998139040e-01,8.891744972998139040e-01,8.891744972998139040e-01
8.828850225178523914e-01,-2.942950075059507231e-01,8.828850225178523914e-01,8.828850225178523914e-01,8.828850225178523914e-01,8.828850225178523914e-01
8.765955477358908787e-01,-2.921985159119635522e-01,8.765955477358908787e-01,8.765955477358908787e-01,8.765955477358908787e-01,8.765955477358908787e-01
8.703060729539292550e-01,-2.901020243179763813e-01,8.703060729539292550e-01,8.703060729539292550e-01,8.703060729539292550e-01,8.703060729539292550e-01
8.640165981719677424e-01,-2.880055327239892105e-01,8.640165981719677424e-01,8.640165981719677424e-01,8.640165981719677424e-01,8.640165981719677424e-01
8.577271233900061187e-01,-2.859090411300020396e-01,8.577271233900061187e-01,8.577271233900061187e-01,8.577271233900061187e-01,8.577271233900061187e-01
8.514376486080446060e-01,-2.838125495360148687e-01,8.514376486080446060e-01,8.514376486080446060e-01,8.514376486080446060e-01,8.514376486080446060e-01
8.451481738260830934e-01,-2.817160579420276423e-01,8.451481738260830934e-01,8.451481738260830934e-01,8.451481738260830934e-01,8.451481738260830934e-01
8.388586990441215807e-01,-2.796195663480404714e-01,8.388586990441215807e-01,8.388586990441215807e-01,8.388586990441215807e-01,8.388586990441215807e-01
8.325692242621600681e-01,-2.775230747540532450e-01,8.325692242621600681e-01,8.325692242621600681e-01,8.325692242621600681e-01,8.325692242621600681e-01
8.262797494801984444e-01,-2.754265831600660741e-01,8.262797494801984444e-01,8.262797494801984444e-01,8.262797494801984444e-01,8.262797494801984444e-01
8.199902746982369317e-01,-2.733300915660789032e-01,8.199902746982369317e-01,8.199902746982369317e-01,8.199902746982369317e-01,8.199902746982369317e-01
8.137007999162753080e-01,-2.712335999720917323e-01,8.137007999162753080e-01,8.137007999162753080e-01,8.137007999162753080e-01,8.137007999162753080e-01
8.074113251343137954e-01,-2.691371083781045059e-01,8.074113251343137954e-01,8.074113251343137954e-01,8.074113251343137954e-01,8.074113251343137954e-01
8.011218503523522827e-01,-2.670406167841173350e-01,8.011218503523522827e-01,8.011218503523522827e-01,8.011218503523522827e-01,8.011218503523522827e-01
7.948323755703907700e-01,-2.649441251901301086e-01,7.948323755703907700e-01,7.948323755703907700e-01,7.948323755703907700e-01,7.948323755703907700e-01
7.885429007884291464e-01,-2.628476335961429378e-01,7.885429007884291464e-01,7.885429007884291464e-01,7.885429007884291464e-01,7.885429007884291464e-01
7.822534260064676337e-01,-2.607511420021557669e-01,7.822534260064676337e-01,7.822534260064676337e-01,7.822534260064676337e-01,7.822534260064676337e-01
7.759639512245061210e-01,-2.586546504081685960e-01,7.759639512245061210e-01,7.759639512245061210e-01,7.759639512245061210e-01,7.759639512245061210e-01
7.696744764425444973e-01,-2.565581588141814251e-01,7.696744764425444973e-01,7.696744764425444973e-01,7.696744764425444973e-01,7.696744764425444973e-01
7.633850016605829847e-01,-2.544616672201942542e-01,7.633850016605829847e-01,7.633850016605829847e-01,7.633850016605829847e-01,7.633850016605829847e-01
7.570955268786214720e-01,-2.523651756262070833e-01,7.570955268786214720e-01,7.570955268786214720e-01,7.570955268786214720e-01,7.570955268786214720e-01
7.508060520966599594e-01,-2.502686840322199124e-01,7.508060520966599594e-01,7.508060520966599594e-01,7.508060520966599594e-01,7.508060520966599594e-01
7.445165773146983357e-01,-2.481721924382326860e-01,7.445165773146983357e-01,7.445165773146983357e-01,7.445165773146983357e-01,7.445165773146983357e-01
7.382271025327368230e-01,-2.460757008442455152e-01,7.382271025327368230e-01,7.382271025327368230e-01,7.382271025327368230e-01,7.382271025327368230e-01
7.319376277507753104e-01,-2.439792092502583443e-01,7.319376277507753104e-01,7.319376277507753104e-01,7.319376277507753104e-01,7.319376277507753104e-01
7.256481529688135756e-01,-2.418827176562711456e-01,7.256481529688135756e-01,7.256481529688135756e-01,7.256481529688135756e-01,7.256481529688135756e-01
7.193586781868520630e-01,-2.397862260622839747e-01,7.193586781868520630e-01,7.193586781868520630e-01,7.193586781868520630e-01,7.193586781868520630e-01
7.130692034048905503e-01,-2.376897344682967761e-01,7.130692034048905503e-01,7.130692034048905503e-01,7.130692034048905503e-01,7.130692034048905503e-01
7.067797286229289266e-01,-2.355932428743096052e-01,7.067797286229289266e-01,7.067797286229289266e-01,7.067797286229289266e-01,7.067797286229289266e-01
7.004902538409674140e-01,-2.334967512803224343e-01,7.004902538409674140e-01,7.004902538409674140e-01,7.004902538409674140e-01,7.004902538409674140e-01
6.942007790590059013e-01,-2.314002596863352357e-01,6.942007790590059013e-01,6.942007790590059013e-01,6.942007790590059013e-01,6.942007790590059013e-01
6.879113042770442776e-01,-2.293037680923480648e-01,6.879113042770442776e-01,6.879113042770442776e-01,6.879113042770442776e-01,6.879113042770442776e-01
6.816218294950827650e-01,-2.272072764983608661e-01,6.816218294950827650e-01,6.816218294950827650e-01,6.816218294950827650e-01,6.816218294950827650e-01
6.753323547131211413e-01,-2.251107849043736675e-01,6.753323547131211413e-01,6.753323547131211413e-01,6.753323547131211413e-01,6.753323547131211413e-01
6.690428799311596286e-01,-2.230142933103864966e-01,6.690428799311596286e-01,6.690428799311596286e-01,6.690428799311596286e-01,6.690428799311596286e-01
6.627534051491981160e-01,-2.209178017163992980e-01,6.627534051491981160e-01,6.627534051491981160e-01,6.627534051491981160e-01,6.627534051491981160e-01
6.564639303672364923e-01,-2.188213101224121271e-01,6.564639303672364923e-01,6.564639303672364923e-01,6.564639303672364923e-01,6.564639303672364923e-01
6.501744555852749796e-01,-2.167248185284249562e-01,6.501744555852749796e-01,6.501744555852749796e-01,6.501744555852749796e-01,6.501744555852749796e-01
6.438849808033134670e-01,-2.146283269344377576e-01,6.438849808033134670e-01,6.438849808033134670e-01,6.438849808033134670e-01,6.438849808033134670e-01
6.375955060213518433e-01,-2.125318353404505867e-01,6.375955060213518433e-01,6.375955060213518433e-01,6.375955060213518433e-01,6.375955060213518433e-01
6.313060312393903306e-01,-2.104353437464633880e-01,6.313060312393903306e-01,6.313060312393903306e-01,6.313060312393903306e-01,6.313060312393903306e-01
6.250165564574288180e-01,-2.083388521524762171e-01,6.250165564574288180e-01,6.250165564574288180e-01,6.250165564574288180e-01,6.250165564574288180e-01
6.187270816754671943e-01,-2.062423605584890463e-01,6.187270816754671943e-01,6.187270816754671943e-01,6.187270816754671943e-01,6.187270816754671943e-01
6.124376068935056816e-01,-2.041458689645018476e-01,6.124376068935056816e-01,6.124376068935056816e-01,6.124376068935056816e-01,6.124376068935056816e-01
6.061481321115441689e-01,-2.020493773705146767e-01,6.061481321115441689e-01,6.061481321115441689e-01,6.061481321115441689e-01,6.061481321115441689e-01
5.998586573295826563e-01,-1.999528857765274781e-01,5.998586573295826563e-01,5.998586573295826563e-01,5.998586573295826563e-01,5.998586573295826563e-01
5.935691825476210326e-01,-1.978563941825403072e-01,5.935691825476210326e-01,5.935691825476210326e-01,5.935691825476210326e-01,5.935691825476210326e-01
5.872797077656595199e-01,-1.957599025885531363e-01,5.872797077656595199e-01,5.872797077656595199e-01,5.872797077656595199e-01,5.872797077656595199e-01
5.809902329836980073e-01,-1.936634109945659377e-01,5.809902329836980073e-01,5.809902329836980073e-01,5.809902329836980073e-01,5.809902329836980073e-01
5.747007582017363836e-01,-1.915669194005787668e-01,5.747007582017363836e-01,5.747007582017363836e-01,5.747007582017363836e-01,5.747007582017363836e-01
5.684112834197748709e-01,-1.894704278065915959e-01,5.684112834197748709e-01,5.684112834197748709e-01,5.684112834197748709e-01,5.684112834197748709e-01
5.621218086378133583e-01,-1.873739362126043972e-01,5.621218086378133583e-01,5.621218086378133583e-01,5.621218086378133583e-01,5.621218086378133583e-01
5.558323338558518456e-01,-1.852774446186172264e-01,5.558323338558518456e-01,5.558323338558518456e-01,5.558323338558518456e-01,5.558323338558518456e-01
5.495428590738902219e-01,-1.831809530246300555e-01,5.495428590738902219e-01,5.495428590738902219e-01,5.495428590738902219e-01,5.495428590738902219e-01
5.432533842919287093e-01,-1.810844614306428291e-01,5.432533842919287093e-01,5.432533842919287093e-01,5.432533842919287093e-01,5.432533842919287093e-01
5.369639095099671966e-01,-1.789879698366556582e-01,5.369639095099671966e-01,5.369639095099671966e-01,5.369639095099671966e-01,5.369639095099671966e-01
5.306744347280055729e-01,-1.768914782426684873e-01,5.306744347280055729e-01,5.306744347280055729e-01,5.306744347280055729e-01,5.306744347280055729e-01
5.243849599460440603e-01,-1.747949866486813164e-01,5.243849599460440603e-01,5.243849599460440603e-01,5.243849599460440603e-01,5.243849599460440603e-01
5.180954851640825476e-01,-1.726984950546941455e-01,5.180954851640825476e-01,5.180954851640825476e-01,5.180954851640825476e-01,5.180954851640825476e-01
5.118060103821209239e-01,-1.706020034607069746e-01,5.118060103821209239e-01,5.118060103821209239e-01,5.118060103821209239e-01,5.118060103821209239e-01
5.055165356001594112e-01,-1.685055118667197482e-01,5.055165356001594112e-01,5.055165356001594112e-01,5.055165356001594112e-01,5.055165356001594112e-01
4.992270608181978986e-01,-1.664090202727325774e-01,4.992270608181978986e-01,4.992270608181978986e-01,4.992270608181978986e-01,4.992270608181978986e-01
4.929375860362363859e-01,-1.643125286787454065e-01,4.929375860362363859e-01,4.929375860362363859e-01,4.929375860362363859e-01,4.929375860362363859e-01
4.866481112542747622e-01,-1.622160370847582356e-01,4.866481112542747622e-01,4.866481112542747622e-01,4.866481112542747622e-01,4.866481112542747622e-01
4.803586364723132496e-01,-1.601195454907710647e-01,4.803586364723132496e-01,4.803586364723132496e-01,4.803586364723132496e-01,4.803586364723132496e-01
4.740691616903517369e-01,-1.580230538967838383e-01,4.740691616903517369e-01,4.740691616903517369e-01,4.740691616903517369e-01,4.740691616903517369e-01
4.677796869083901132e-01,-1.559265623027966674e-01,4.677796869083901132e-01,4.677796869083901132e-01,4.677796869083901132e-01,4.677796869083901132e-01
4.614902121264286006e-01,-1.538300707088094965e-01,4.614902121264286006e-01,4.614902121264286006e-01,4.614902121264286006e-01,4.614902121264286006e-01
4.552007373444670879e-01,-1.517335791148223256e-01,4.552007373444670879e-01,4.552007373444670879e-01,4.552007373444670879e-01,4.552007373444670879e-01
4.489112625625054642e-01,-1.496370875208351547e-01,4.489112625625054642e-01,4.489112625625054642e-01,4.489112625625054642e-01,4.489112625625054642e-01
4.426217877805439516e-01,-1.475405959268479283e-01,4.426217877805439516e-01,4.426217877805439516e-01,4.426217877805439516e-01,4.426217877805439516e-01
4.363323129985824389e-01,-1.454441043328607575e-01,4.363323129985824389e-01,4.363323129985824389e-01,4.363323129985824389e-01,4.363323129985824389e-01
4.300428382166209262e-01,-1.433476127388735866e-01,4.300428382166209262e-01,4.300428382166209262e-01,4.300428382166209262e-01,4.300428382166209262e-01
4.237533634346590805e-01,-1.412511211448864157e-01,4.237533634346590805e-01,4.237533634346590805e-01,4.237533634346590805e-01,4.237533634346590805e-01
4.174638886526974568e-01,-1.391546295508992448e-01,4.174638886526974568e-01,4.174638886526974568e-01,4.174638886526974568e-01,4.174638886526974568e-01
4.111744138707359442e-01,-1.370581379569120184e-01,4.111744138707359442e-01,4.111744138707359442e-01,4.111744138707359442e-01,4.111744138707359442e-01
4.048849390887744315e-01,-1.349616463629248475e-01,4.048849390887744315e-01,4.048849390887744315e-01,4.048849390887744315e-01,4.048849390887744315e-01
3.985954643068129188e-01,-1.328651547689376766e-01,3.985954643068129188e-01,3.985954643068129188e-01,3.985954643068129188e-01,3.985954643068129188e-01
3.923059895248512952e-01,-1.307686631749505057e-01,3.923059895248512952e-01,3.923059895248512952e-01,3.923059895248512952e-01,3.923059895248512952e-01
3.860165147428897825e-01,-1.286721715809633348e-01,3.860165147428897825e-01,3.860165147428897825e-01,3.860165147428897825e-01,3.860165147428897825e-01
3.797270399609282698e-01,-1.265756799869761084e-01,3.797270399609282698e-01,3.797270399609282698e-01,3.797270399609282698e-01,3.797270399609282698e-01
3.734375651789666462e-01,-1.244791883929889376e-01,3.734375651789666462e-01,3.734375651789666462e-01,3.734375651789666462e-01,3.734375651789666462e-01
3.671480903970051335e-01,-1.223826967990017667e-01,3.671480903970051335e-01,3.671480903970051335e-01,3.671480903970051335e-01,3.671480903970051335e-01
3.608586156150436208e-01,-1.202862052050145958e-01,3.608586156150436208e-01,3.608586156150436208e-01,3.608586156150436208e-01,3.608586156150436208e-01
3.545691408330821082e-01,-1.181897136110274249e-01,3.545691408330821082e-01,3.545691408330821082e-01,3.545691408330821082e-01,3.545691408330821082e-01
3.482796660511204845e-01,-1.160932220170401985e-01,3.482796660511204845e-01,3.482796660511204845e-01,3.482796660511204845e-01,3.482796660511204845e-01
3.419901912691589718e-01,-1.139967304230530276e-01,3.419901912691589718e-01,3.419901912691589718e-01,3.419901912691589718e-01,3.419901912691589718e-01
3.357007164871974592e-01,-1.119002388290658567e-01,3.357007164871974592e-01,3.357007164871974592e-01,3.357007164871974592e-01,3.357007164871974592e-01
3.294112417052358355e-01,-1.098037472350786858e-01,3.294112417052358355e-01,3.294112417052358355e-01,3.294112417052358355e-01,3.294112417052358355e-01
3.231217669232743228e-01,-1.077072556410915150e-01,3.231217669232743228e-01,3.231217669232743228e-01,3.231217669232743228e-01,3.231217669232743228e-01
3.168322921413128102e-01,-1.056107640471042886e-01,3.168322921413128102e-01,3.168322921413128102e-01,3.168322921413128102e-01,3.168322921413128102e-01
3.105428173593511865e-01,-1.035142724531171177e-01,3.105428173593511865e-01,3.105428173593511865e-01,3.105428173593511865e-01,3.105428173593511865e-01
3.042533425773896738e-01,-1.014177808591299468e-01,3.042533425773896738e-01,3.042533425773896738e-01,3.042533425773896738e-01,3.042533425773896738e-01
2.979638677954281611e-01,-9.932128926514277589e-02,2.979638677954281611e-01,2.979638677954281611e-01,2.979638677954281611e-01,2.979638677954281611e-01
2.916743930134666485e-01,-9.722479767115560501e-02,2.916743930134666485e-01,2.916743930134666485e-01,2.916743930134666485e-01,2.916743930134666485e-01
2.853849182315051358e-01,-9.512830607716837861e-02,2.853849182315051358e-01,2.853849182315051358e-01,2.853849182315051358e-01,2.853849182315051358e-01
2.790954434495434011e-01,-9.303181448318120772e-02,2.790954434495434011e-01,2.790954434495434011e-01,2.790954434495434011e-01,2.790954434495434011e-01
2.728059686675818885e-01,-9.093532288919403683e-02,2.728059686675818885e-01,2.728059686675818885e-01,2.728059686675818885e-01,2.728059686675818885e-01
2.665164938856203758e-01,-8.883883129520686595e-02,2.665164938856203758e-01,2.665164938856203758e-01,2.665164938856203758e-01,2.665164938856203758e-01
2.602293800176161409e-01,-8.674312667253870901e-02,2.602293800176161409e-01,2.602293800176161409e-01,2.602293800176161409e-01,2.602293800176161409e-01
2.539965671706272410e-01,-8.466552239020906645e-02,2.539965671706272410e-01,2.539965671706272410e-01,2.539965671706272410e-01,2.539965671706272410e-01
2.478393035702684821e-01,-8.261310119008948016e-02,2.478393035702684821e-01,2.478393035702684821e-01,2.478393035702684821e-01,2.478393035702684821e-01
2.417575892165398921e-01,-8.058586307217995015e-02,2.417575892165398921e-01,2.417575892165398921e-01,2.417575892165398921e-01,2.417575892165398921e-01
2.357514241094414986e-01,-7.858380803648049029e-02,2.357514241094414986e-01,2.357514241094414986e-01,2.357514241094414986e-01,2.357514241094414986e-01
2.298208082489732462e-01,-7.660693608299107282e-02,2.298208082489732462e-01,2.298208082489732462e-01,2.298208082489732462e-01,2.298208082489732462e-01
2.239657416351351626e-01,-7.465524721171171163e-02,2.239657416351351626e-01,2.239657416351351626e-01,2.239657416351351626e-01,2.239657416351351626e-01
2.181862242679272756e-01,-7.272874142264240671e-02,2.181862242679272756e-01,2.181862242679272756e-01,2.181862242679272756e-01,2.181862242679272756e-01
2.124822561473495297e-01,-7.082741871578317194e-02,2.124822561473495297e-01,2.124822561473495297e-01,2.124822561473495297e-01,2.124822561473495297e-01
2.068538372734019526e-01,-6.895127909113396569e-02,2.068538372734019526e-01,2.068538372734019526e-01,2.068538372734019526e-01,2.068538372734019526e-01
2.013009676460845720e-01,-6.710032254869482959e-02,2.013009676460845720e-01,2.013009676460845720e-01,2.013009676460845720e-01,2.013009676460845720e-01
1.958236472653973048e-01,-6.527454908846574977e-02,1.958236472653973048e-01,1.958236472653973048e-01,1.958236472653973048e-01,1.958236472653973048e-01
1.904218761313402619e-01,-6.347395871044674009e-02,1.904218761313402619e-01,1.904218761313402619e-01,1.904218761313402619e-01,1.904218761313402619e-01
1.850956542439133601e-01,-6.169855141463777282e-02,1.850956542439133601e-01,1.850956542439133601e-01,1.850956542439133601e-01,1.850956542439133601e-01
1.798449816031166271e-01,-5.994832720103886875e-02,1.798449816031166271e-01,1.798449816031166271e-01,1.798449816031166271e-01,1.798449816031166271e-01
1.746698582089500906e-01,-5.822328606965000708e-02,1.746698582089500906e-01,1.746698582089500906e-01,1.746698582089500906e-01,1.746698582089500906e-01
1.695702840614136675e-01,-5.652342802047121556e-02,1.695702840614136675e-01,1.695702840614136675e-01,1.695702840614136675e-01,1.695702840614136675e-01
1.645462591605074965e-01,-5.484875305350247338e-02,1.645462591605074965e-01,1.645462591605074965e-01,1.645462591605074965e-01,1.645462591605074965e-01
1.595977835062314110e-01,-5.319926116874378746e-02,1.595977835062314110e-01,1.595977835062314110e-01,1.595977835062314110e-01,1.595977835062314110e-01
1.547248570985855221e-01,-5.157495236619516477e-02,1.547248570985855221e-01,1.547248570985855221e-01,1.547248570985855221e-01,1.547248570985855221e-01
1.499274799375698297e-01,-4.997582664585659140e-02,1.499274799375698297e-01,1.499274799375698297e-01,1.499274799375698297e-01,1.499274799375698297e-01
1.452056520231842784e-01,-4.840188400772808125e-02,1.452056520231842784e-01,1.452056520231842784e-01,1.452056520231842784e-01,1.452056520231842784e-01
1.405593733554288960e-01,-4.685312445180961349e-02,1.405593733554288960e-01,1.405593733554288960e-01,1.405593733554288960e-01,1.405593733554288960e-01
1.359886439343036824e-01,-4.532954797810122283e-02,1.359886439343036824e-01,1.359886439343036824e-01,1.359886439343036824e-01,1.359886439343036824e-01
1.314934637598086375e-01,-4.383115458660286762e-02,1.314934637598086375e-01,1.314934637598086375e-01,1.314934637598086375e-01,1.314934637598086375e-01
1.270738328319437893e-01,-4.235794427731457562e-02,1.270738328319437893e-01,1.270738328319437893e-01,1.270738328319437893e-01,1.270738328319437893e-01
1.227297511507090821e-01,-4.090991705023634684e-02,1.227297511507090821e-01,1.227297511507090821e-01,1.227297511507090821e-01,1.227297511507090821e-01
1.184612187161045577e-01,-3.948707290536816739e-02,1.184612187161045577e-01,1.184612187161045577e-01,1.184612187161045577e-01,1.184612187161045577e-01
1.142682355281302020e-01,-3.808941184271004421e-02,1.142682355281302020e-01,1.142682355281302020e-01,1.142682355281302020e-01,1.142682355281302020e-01
1.101508015867859736e-01,-3.671693386226197731e-02,1.101508015867859736e-01,1.101508015867859736e-01,1.101508015867859736e-01,1.101508015867859736e-01
1.061089168920719417e-01,-3.536963896402396668e-02,1.061089168920719417e-01,1.061089168920719417e-01,1.061089168920719417e-01,1.061089168920719417e-01
1.021425814439880925e-01,-3.404752714799602620e-02,1.021425814439880925e-01,1.021425814439880925e-01,1.021425814439880925e-01,1.021425814439880925e-01
9.825179524253441210e-02,-3.275059841417812811e-02,9.825179524253441210e-02,9.825179524253441210e-02,9.825179524253441210e-02,9.825179524253441210e-02
9.443655828771088667e-02,-3.147885276257028631e-02,9.443655828771088667e-02,9.443655828771088667e-02,9.443655828771088667e-02,9.443655828771088667e-02
9.069687057951751619e-02,-3.023229019317249383e-02,9.069687057951751619e-02,9.069687057951751619e-02,9.069687057951751619e-02,9.069687057951751619e-02
8.703273211795434228e-02,-2.901091070598476457e-02,8.703273211795434228e-02,8.703273211795434228e-02,8.703273211795434228e-02,8.703273211795434228e-02
8.344414290302132331e-02,-2.781471430100710546e-02,8.344414290302132331e-02,8.344414290302132331e-02,8.344414290302132331e-02,8.344414290302132331e-02
7.993110293471848704e-02,-2.664370097823948527e-02,7.993110293471848704e-02,7.993110293471848704e-02,7.993110293471848704e-02,7.993110293471848704e-02
7.649361221304581959e-02,-2.549787073768192136e-02,7.649361221304581959e-02,7.649361221304581959e-02,7.649361221304581959e-02,7.649361221304581959e-02
7.313167073800314055e-02,-2.437722357933441719e-02,7.313167073800314055e-02,7.313167073800314055e-02,7.313167073800314055e-02,7.313167073800314055e-02
6.984527850959079687e-02,-2.328175950319696583e-02,6.984527850959079687e-02,6.984527850959079687e-02,6.984527850959079687e-02,6.984527850959079687e-02
6.663443552780866364e-02,-2.221147850926958808e-02,6.663443552780866364e-02,6.663443552780866364e-02,6.663443552780866364e-02,6.663443552780866364e-02
6.349914179265664371e-02,-2.116638059755224927e-02,6.349914179265664371e-02,6.349914179265664371e-02,6.349914179265664371e-02,6.349914179265664371e-02
6.043939730413477873e-02,-2.014646576804496672e-02,6.043939730413477873e-02,6.043939730413477873e-02,6.043939730413477873e-02,6.043939730413477873e-02
5.745520206224316584e-02,-1.915173402074774739e-02,5.745520206224316584e-02,5.745520206224316584e-02,5.745520206224316584e-02,5.745520206224316584e-02
5.454655606698163850e-02,-1.818218535566058780e-02,5.454655606698163850e-02,5.454655606698163850e-02,5.454655606698163850e-02,5.454655606698163850e-02
5.171345931835034937e-02,-1.723781977278347755e-02,5.171345931835034937e-02,5.171345931835034937e-02,5.171345931835034937e-02,5.171345931835034937e-02
4.895591181634915967e-02,-1.631863727211642009e-02,4.895591181634915967e-02,4.895591181634915967e-02,4.895591181634915967e-02,4.895591181634915967e-02
4.627391356097815267e-02,-1.542463785365941892e-02,4.627391356097815267e-02,4.627391356097815267e-02,4.627391356097815267e-02,4.627391356097815267e-02
4.366746455223737000e-02,-1.455582151741247748e-02,4.366746455223737000e-02,4.366746455223737000e-02,4.366746455223737000e-02,4.366746455223737000e-02
4.113656479012670064e-02,-1.371218826337560620e-02,4.113656479012670064e-02,4.113656479012670064e-02,4.113656479012670064e-02,4.113656479012670064e-02
3.868121427464625561e-02,-1.289373809154877731e-02,3.868121427464625561e-02,3.868121427464625561e-02,3.868121427464625561e-02,3.868121427464625561e-02
3.630141300579591002e-02,-1.210047100193199082e-02,3.630141300579591002e-02,3.630141300579591002e-02,3.630141300579591002e-02,3.630141300579591002e-02
3.399716098357574712e-02,-1.133238699452527448e-02,3.399716098357574712e-02,3.399716098357574712e-02,3.399716098357574712e-02,3.399716098357574712e-02
3.176845820798579467e-02,-1.058948606932862829e-02,3.176845820798579467e-02,3.176845820798579467e-02,3.176845820798579467e-02,3.176845820798579467e-02
2.961530467902596941e-02,-9.871768226342024499e-03,2.961530467902596941e-02,2.961530467902596941e-02,2.961530467902596941e-02,2.961530467902596941e-02
2.753770039669635461e-02,-9.179233465565470040e-03,2.753770039669635461e-02,2.753770039669635461e-02,2.753770039669635461e-02,2.753770039669635461e-02
2.553564536099688087e-02,-8.511881786998978794e-03,2.553564536099688087e-02,2.553564536099688087e-02,2.553564536099688087e-02,2.553564536099688087e-02
2.360913957192753432e-02,-7.869713190642536882e-03,2.360913957192753432e-02,2.360913957192753432e-02,2.360913957192753432e-02,2.360913957192753432e-02
2.175818302948845373e-02,-7.252727676496172060e-03,2.175818302948845373e-02,2.175818302948845373e-02,2.175818302948845373e-02,2.175818302948845373e-02
1.998277573367945870e-02,-6.660925244559835756e-03,1.998277573367945870e-02,1.998277573367945870e-02,1.998277573367945870e-02,1.998277573367945870e-02
1.828291768450068799e-02,-6.094305894833576542e-03,1.828291768450068799e-02,1.828291768450068799e-02,1.828291768450068799e-02,1.828291768450068799e-02
1.665860888195205836e-02,-5.552869627317380541e-03,1.665860888195205836e-02,1.665860888195205836e-02,1.665860888195205836e-02,1.665860888195205836e-02
1.510984932603362529e-02,-5.036616442011213057e-03,1.510984932603362529e-02,1.510984932603362529e-02,1.510984932603362529e-02,1.510984932603362529e-02
1.363663901674530554e-02,-4.545546338915122664e-03,1.363663901674530554e-02,1.363663901674530554e-02,1.363663901674530554e-02,1.363663901674530554e-02
1.223897795408715461e-02,-4.079659318029067727e-03,1.223897795408715461e-02,1.223897795408715461e-02,1.223897795408715461e-02,1.223897795408715461e-02
1.091686613805922801e-02,-3.638955379353096820e-03,1.091686613805922801e-02,1.091686613805922801e-02,1.091686613805922801e-02,1.091686613805922801e-02
9.670303568661442473e-03,-3.223434522887175246e-03,9.670303568661442473e-03,9.670303568661442473e-03,9.670303568661442473e-03,9.670303568661442473e-03
8.499290245893853513e-03,-2.833096748631289130e-03,8.499290245893853513e-03,8.499290245893853513e-03,8.499290245893853513e-03,8.499290245893853513e-03
7.403826169756377862e-03,-2.467942056585480104e-03,7.403826169756377862e-03,7.403826169756377862e-03,7.403826169756377862e-03,7.403826169756377862e-03
6.383911340249071031e-03,-2.127970446749706535e-03,6.383911340249071031e-03,6.383911340249071031e-03,6.383911340249071031e-03,6.383911340249071031e-03
5.439545757372016288e-03,-1.813181919124010055e-03,5.439545757372016288e-03,5.439545757372016288e-03,5.439545757372016288e-03,5.439545757372016288e-03
4.570729421125047098e-03,-1.523576473708335155e-03,4.570729421125047098e-03,4.570729421125047098e-03,4.570729421125047098e-03,4.570729421125047098e-03
3.777462331508302240e-03,-1.259154110502758162e-03,3.777462331508302240e-03,3.777462331508302240e-03,3.777462331508302240e-03,3.777462331508302240e-03
3.059744488521670691e-03,-1.019914829507237441e-03,3.059744488521670691e-03,3.059744488521670691e-03,3.059744488521670691e-03,3.059744488521670691e-03
2.417575892165207962e-03,-8.058586307217452394e-04,2.417575892165207962e-03,2.417575892165207962e-03,2.417575892165207962e-03,2.417575892165207962e-03
1.850956542438969565e-03,-6.169855141463370662e-04,1.850956542438969565e-03,1.850956542438969565e-03,1.850956542438969565e-03,1.850956542438969565e-03
1.359886439342872233e-03,-4.532954797809574110e-04,1.359886439342872233e-03,1.359886439342872233e-03,1.359886439342872233e-03,1.359886439342872233e-03
