liuyurong129/figaroh_kinova/examples/kinova_gen3/data/identification/trapezoidal_motion_7dof/identification_q_simulation.csv
q1,q2,q3,q4,q5,q6
-3.000000000000000000e+00,-2.000000000000000000e+00,-3.000000000000000000e+00,-2.500000000000000000e+00,-3.000000000000000000e+00,-2.000000000000000000e+00,-3.000000000000000000e+00
-2.999996251484177812e+00,-1.999997500989451948e+00,-2.999996251484177812e+00,-2.499996876236814991e+00,-2.999996251484177812e+00,-1.999997500989451948e+00,-2.999996251484177812e+00
-2.999985005936712135e+00,-1.999990003957808016e+00,-2.999985005936712135e+00,-2.499987504947259964e+00,-2.999985005936712135e+00,-1.999990003957808016e+00,-2.999985005936712135e+00
-2.999966263357601637e+00,-1.999977508905067980e+00,-2.999966263357601637e+00,-2.499971886131334919e+00,-2.999966263357601637e+00,-1.999977508905067980e+00,-2.999966263357601637e+00
-2.999940023746847650e+00,-1.999960015831231841e+00,-2.999940023746847650e+00,-2.499950019789039857e+00,-2.999940023746847650e+00,-1.999960015831231841e+00,-2.999940023746847650e+00
-2.999906287104449731e+00,-1.999937524736299821e+00,-2.999906287104449731e+00,-2.499921905920374776e+00,-2.999906287104449731e+00,-1.999937524736299821e+00,-2.999906287104449731e+00
-2.999865053430407436e+00,-1.999910035620271698e+00,-2.999865053430407436e+00,-2.499887544525339678e+00,-2.999865053430407436e+00,-1.999910035620271698e+00,-2.999865053430407436e+00
-2.999816322724721207e+00,-1.999877548483147471e+00,-2.999816322724721207e+00,-2.499846935603934117e+00,-2.999816322724721207e+00,-1.999877548483147471e+00,-2.999816322724721207e+00
-2.999760094987391046e+00,-1.999840063324927364e+00,-2.999760094987391046e+00,-2.499800079156158983e+00,-2.999760094987391046e+00,-1.999840063324927364e+00,-2.999760094987391046e+00
-2.999696370218416508e+00,-1.999797580145611153e+00,-2.999696370218416508e+00,-2.499746975182013831e+00,-2.999696370218416508e+00,-1.999797580145611153e+00,-2.999696370218416508e+00
-2.999625148417798481e+00,-1.999750098945198840e+00,-2.999625148417798481e+00,-2.499687623681498660e+00,-2.999625148417798481e+00,-1.999750098945198840e+00,-2.999625148417798481e+00
-2.999546429585536078e+00,-1.999697619723690645e+00,-2.999546429585536078e+00,-2.499622024654613472e+00,-2.999546429585536078e+00,-1.999697619723690645e+00,-2.999546429585536078e+00
-2.999460213721629742e+00,-1.999640142481086347e+00,-2.999460213721629742e+00,-2.499550178101357822e+00,-2.999460213721629742e+00,-1.999640142481086347e+00,-2.999460213721629742e+00
-2.999366500826079029e+00,-1.999577667217386168e+00,-2.999366500826079029e+00,-2.499472084021732599e+00,-2.999366500826079029e+00,-1.999577667217386168e+00,-2.999366500826079029e+00
-2.999265290898884828e+00,-1.999510193932589885e+00,-2.999265290898884828e+00,-2.499387742415737357e+00,-2.999265290898884828e+00,-1.999510193932589885e+00,-2.999265290898884828e+00
-2.999156583940046250e+00,-1.999437722626697500e+00,-2.999156583940046250e+00,-2.499297153283371653e+00,-2.999156583940046250e+00,-1.999437722626697500e+00,-2.999156583940046250e+00
-2.999040379949563739e+00,-1.999360253299709234e+00,-2.999040379949563739e+00,-2.499200316624636375e+00,-2.999040379949563739e+00,-1.999360253299709234e+00,-2.999040379949563739e+00
-2.998916678927437296e+00,-1.999277785951624864e+00,-2.998916678927437296e+00,-2.499097232439531080e+00,-2.998916678927437296e+00,-1.999277785951624864e+00,-2.998916678927437296e+00
-2.998785480873666476e+00,-1.999190320582444391e+00,-2.998785480873666476e+00,-2.498987900728055322e+00,-2.998785480873666476e+00,-1.999190320582444391e+00,-2.998785480873666476e+00
-2.998646785788252167e+00,-1.999097857192168037e+00,-2.998646785788252167e+00,-2.498872321490209991e+00,-2.998646785788252167e+00,-1.999097857192168037e+00,-2.998646785788252167e+00
-2.998500593671193482e+00,-1.999000395780795580e+00,-2.998500593671193482e+00,-2.498750494725994642e+00,-2.998500593671193482e+00,-1.999000395780795580e+00,-2.998500593671193482e+00
-2.998346904522490419e+00,-1.998897936348327020e+00,-2.998346904522490419e+00,-2.498622420435408831e+00,-2.998346904522490419e+00,-1.998897936348327020e+00,-2.998346904522490419e+00
-2.998185718342143868e+00,-1.998790478894762579e+00,-2.998185718342143868e+00,-2.498488098618453446e+00,-2.998185718342143868e+00,-1.998790478894762579e+00,-2.998185718342143868e+00
-2.998017035130152941e+00,-1.998678023420102035e+00,-2.998017035130152941e+00,-2.498347529275127599e+00,-2.998017035130152941e+00,-1.998678023420102035e+00,-2.998017035130152941e+00
-2.997840854886518525e+00,-1.998560569924345609e+00,-2.997840854886518525e+00,-2.498200712405432178e+00,-2.997840854886518525e+00,-1.998560569924345609e+00,-2.997840854886518525e+00
-2.997657177611239732e+00,-1.998438118407493080e+00,-2.997657177611239732e+00,-2.498047648009366295e+00,-2.997657177611239732e+00,-1.998438118407493080e+00,-2.997657177611239732e+00
-2.997466003304316562e+00,-1.998310668869544449e+00,-2.997466003304316562e+00,-2.497888336086930394e+00,-2.997466003304316562e+00,-1.998310668869544449e+00,-2.997466003304316562e+00
-2.997267331965749904e+00,-1.998178221310499936e+00,-2.997267331965749904e+00,-2.497722776638124920e+00,-2.997267331965749904e+00,-1.998178221310499936e+00,-2.997267331965749904e+00
-2.997061163595538869e+00,-1.998040775730359320e+00,-2.997061163595538869e+00,-2.497550969662948983e+00,-2.997061163595538869e+00,-1.998040775730359320e+00,-2.997061163595538869e+00
-2.996847498193683901e+00,-1.997898332129122601e+00,-2.996847498193683901e+00,-2.497372915161403473e+00,-2.996847498193683901e+00,-1.997898332129122601e+00,-2.996847498193683901e+00
-2.996626335760185000e+00,-1.997750890506790000e+00,-2.996626335760185000e+00,-2.497188613133487500e+00,-2.996626335760185000e+00,-1.997750890506790000e+00,-2.996626335760185000e+00
-2.996397676295041723e+00,-1.997598450863361297e+00,-2.996397676295041723e+00,-2.496998063579201510e+00,-2.996397676295041723e+00,-1.997598450863361297e+00,-2.996397676295041723e+00
-2.996161519798254957e+00,-1.997441013198836490e+00,-2.996161519798254957e+00,-2.496801266498545946e+00,-2.996161519798254957e+00,-1.997441013198836490e+00,-2.996161519798254957e+00
-2.995917866269823815e+00,-1.997278577513215803e+00,-2.995917866269823815e+00,-2.496598221891519920e+00,-2.995917866269823815e+00,-1.997278577513215803e+00,-2.995917866269823815e+00
-2.995666715709748740e+00,-1.997111143806499012e+00,-2.995666715709748740e+00,-2.496388929758123876e+00,-2.995666715709748740e+00,-1.997111143806499012e+00,-2.995666715709748740e+00
-2.995408068118029732e+00,-1.996938712078686340e+00,-2.995408068118029732e+00,-2.496173390098357814e+00,-2.995408068118029732e+00,-1.996938712078686340e+00,-2.995408068118029732e+00
-2.995141923494666347e+00,-1.996761282329777565e+00,-2.995141923494666347e+00,-2.495951602912221734e+00,-2.995141923494666347e+00,-1.996761282329777565e+00,-2.995141923494666347e+00
-2.994868281839659030e+00,-1.996578854559772687e+00,-2.994868281839659030e+00,-2.495723568199716080e+00,-2.994868281839659030e+00,-1.996578854559772687e+00,-2.994868281839659030e+00
-2.994587143153007780e+00,-1.996391428768671927e+00,-2.994587143153007780e+00,-2.495489285960839965e+00,-2.994587143153007780e+00,-1.996391428768671927e+00,-2.994587143153007780e+00
-2.994298507434712597e+00,-1.996199004956475065e+00,-2.994298507434712597e+00,-2.495248756195593831e+00,-2.994298507434712597e+00,-1.996199004956475065e+00,-2.994298507434712597e+00
-2.994002374684773038e+00,-1.996001583123182099e+00,-2.994002374684773038e+00,-2.495001978903977680e+00,-2.994002374684773038e+00,-1.996001583123182099e+00,-2.994002374684773038e+00
-2.993698744903189990e+00,-1.995799163268793253e+00,-2.993698744903189990e+00,-2.494748954085991510e+00,-2.993698744903189990e+00,-1.995799163268793253e+00,-2.993698744903189990e+00
-2.993387618089962565e+00,-1.995591745393308303e+00,-2.993387618089962565e+00,-2.494489681741635323e+00,-2.993387618089962565e+00,-1.995591745393308303e+00,-2.993387618089962565e+00
-2.993068994245091208e+00,-1.995379329496727472e+00,-2.993068994245091208e+00,-2.494224161870909118e+00,-2.993068994245091208e+00,-1.995379329496727472e+00,-2.993068994245091208e+00
-2.992742873368575474e+00,-1.995161915579050316e+00,-2.992742873368575474e+00,-2.493952394473812895e+00,-2.992742873368575474e+00,-1.995161915579050316e+00,-2.992742873368575474e+00
-2.992409255460416251e+00,-1.994939503640277501e+00,-2.992409255460416251e+00,-2.493674379550346654e+00,-2.992409255460416251e+00,-1.994939503640277501e+00,-2.992409255460416251e+00
-2.992068140520612651e+00,-1.994712093680408360e+00,-2.992068140520612651e+00,-2.493390117100510395e+00,-2.992068140520612651e+00,-1.994712093680408360e+00,-2.992068140520612651e+00
-2.991719528549165119e+00,-1.994479685699443339e+00,-2.991719528549165119e+00,-2.493099607124304118e+00,-2.991719528549165119e+00,-1.994479685699443339e+00,-2.991719528549165119e+00
-2.991363419546073654e+00,-1.994242279697382214e+00,-2.991363419546073654e+00,-2.492802849621727823e+00,-2.991363419546073654e+00,-1.994242279697382214e+00,-2.991363419546073654e+00
-2.990999813511337813e+00,-1.993999875674225208e+00,-2.990999813511337813e+00,-2.492499844592781510e+00,-2.990999813511337813e+00,-1.993999875674225208e+00,-2.990999813511337813e+00
-2.990628710444958038e+00,-1.993752473629972100e+00,-2.990628710444958038e+00,-2.492190592037465180e+00,-2.990628710444958038e+00,-1.993752473629972100e+00,-2.990628710444958038e+00
-2.990250110346934331e+00,-1.993500073564623110e+00,-2.990250110346934331e+00,-2.491875091955778831e+00,-2.990250110346934331e+00,-1.993500073564623110e+00,-2.990250110346934331e+00
-2.989864013217266692e+00,-1.993242675478177794e+00,-2.989864013217266692e+00,-2.491553344347722465e+00,-2.989864013217266692e+00,-1.993242675478177794e+00,-2.989864013217266692e+00
-2.989470419055955119e+00,-1.992980279370636598e+00,-2.989470419055955119e+00,-2.491225349213296081e+00,-2.989470419055955119e+00,-1.992980279370636598e+00,-2.989470419055955119e+00
-2.989069327862999170e+00,-1.992712885241999521e+00,-2.989069327862999170e+00,-2.490891106552499235e+00,-2.989069327862999170e+00,-1.992712885241999521e+00,-2.989069327862999170e+00
-2.988660739638399289e+00,-1.992440493092266340e+00,-2.988660739638399289e+00,-2.490550616365332814e+00,-2.988660739638399289e+00,-1.992440493092266340e+00,-2.988660739638399289e+00
-2.988244654382155474e+00,-1.992163102921437057e+00,-2.988244654382155474e+00,-2.490203878651796376e+00,-2.988244654382155474e+00,-1.992163102921437057e+00,-2.988244654382155474e+00
-2.987821072094267727e+00,-1.991880714729511892e+00,-2.987821072094267727e+00,-2.489850893411889921e+00,-2.987821072094267727e+00,-1.991880714729511892e+00,-2.987821072094267727e+00
-2.987389992774735603e+00,-1.991593328516490402e+00,-2.987389992774735603e+00,-2.489491660645613003e+00,-2.987389992774735603e+00,-1.991593328516490402e+00,-2.987389992774735603e+00
-2.986951416423559991e+00,-1.991300944282373253e+00,-2.986951416423559991e+00,-2.489126180352966511e+00,-2.986951416423559991e+00,-1.991300944282373253e+00,-2.986951416423559991e+00
-2.986505343040740001e+00,-1.991003562027159779e+00,-2.986505343040740001e+00,-2.488754452533950001e+00,-2.986505343040740001e+00,-1.991003562027159779e+00,-2.986505343040740001e+00
-2.986051772626275636e+00,-1.990701181750850424e+00,-2.986051772626275636e+00,-2.488376477188563030e+00,-2.986051772626275636e+00,-1.990701181750850424e+00,-2.986051772626275636e+00
-2.985590705180167781e+00,-1.990393803453445187e+00,-2.985590705180167781e+00,-2.487992254316806484e+00,-2.985590705180167781e+00,-1.990393803453445187e+00,-2.985590705180167781e+00
-2.985122140702415550e+00,-1.990081427134943848e+00,-2.985122140702415550e+00,-2.487601783918679477e+00,-2.985122140702415550e+00,-1.990081427134943848e+00,-2.985122140702415550e+00
-2.984646079193019386e+00,-1.989764052795346405e+00,-2.984646079193019386e+00,-2.487205065994182895e+00,-2.984646079193019386e+00,-1.989764052795346405e+00,-2.984646079193019386e+00
-2.984162520651979289e+00,-1.989441680434652859e+00,-2.984162520651979289e+00,-2.486802100543316296e+00,-2.984162520651979289e+00,-1.989441680434652859e+00,-2.984162520651979289e+00
-2.983671465079295260e+00,-1.989114310052863432e+00,-2.983671465079295260e+00,-2.486392887566079235e+00,-2.983671465079295260e+00,-1.989114310052863432e+00,-2.983671465079295260e+00
-2.983172912474966854e+00,-1.988781941649977902e+00,-2.983172912474966854e+00,-2.485977427062472600e+00,-2.983172912474966854e+00,-1.988781941649977902e+00,-2.983172912474966854e+00
-2.982666862838994515e+00,-1.988444575225996491e+00,-2.982666862838994515e+00,-2.485555719032495503e+00,-2.982666862838994515e+00,-1.988444575225996491e+00,-2.982666862838994515e+00
-2.982153316171378243e+00,-1.988102210780918977e+00,-2.982153316171378243e+00,-2.485127763476148832e+00,-2.982153316171378243e+00,-1.988102210780918977e+00,-2.982153316171378243e+00
-2.981632272472118039e+00,-1.987754848314745360e+00,-2.981632272472118039e+00,-2.484693560393431699e+00,-2.981632272472118039e+00,-1.987754848314745360e+00,-2.981632272472118039e+00
-2.981103731741213902e+00,-1.987402487827475861e+00,-2.981103731741213902e+00,-2.484253109784344549e+00,-2.981103731741213902e+00,-1.987402487827475861e+00,-2.981103731741213902e+00
-2.980567693978665389e+00,-1.987045129319110259e+00,-2.980567693978665389e+00,-2.483806411648887824e+00,-2.980567693978665389e+00,-1.987045129319110259e+00,-2.980567693978665389e+00
-2.980024159184472943e+00,-1.986682772789648554e+00,-2.980024159184472943e+00,-2.483353465987060638e+00,-2.980024159184472943e+00,-1.986682772789648554e+00,-2.980024159184472943e+00
-2.979473127358636564e+00,-1.986315418239090969e+00,-2.979473127358636564e+00,-2.482894272798863877e+00,-2.979473127358636564e+00,-1.986315418239090969e+00,-2.979473127358636564e+00
-2.978914598501155808e+00,-1.985943065667437279e+00,-2.978914598501155808e+00,-2.482428832084296655e+00,-2.978914598501155808e+00,-1.985943065667437279e+00,-2.978914598501155808e+00
-2.978348572612031564e+00,-1.985565715074687709e+00,-2.978348572612031564e+00,-2.481957143843359415e+00,-2.978348572612031564e+00,-1.985565715074687709e+00,-2.978348572612031564e+00
-2.977775049691262943e+00,-1.985183366460841814e+00,-2.977775049691262943e+00,-2.481479208076052601e+00,-2.977775049691262943e+00,-1.985183366460841814e+00,-2.977775049691262943e+00
-2.977194029738850389e+00,-1.984796019825900260e+00,-2.977194029738850389e+00,-2.480995024782375324e+00,-2.977194029738850389e+00,-1.984796019825900260e+00,-2.977194029738850389e+00
-2.976605512754793459e+00,-1.984403675169862380e+00,-2.976605512754793459e+00,-2.480504593962328030e+00,-2.976605512754793459e+00,-1.984403675169862380e+00,-2.976605512754793459e+00
-2.976009498739093040e+00,-1.984006332492728619e+00,-2.976009498739093040e+00,-2.480007915615910719e+00,-2.976009498739093040e+00,-1.984006332492728619e+00,-2.976009498739093040e+00
-2.975405987691748244e+00,-1.983603991794498755e+00,-2.975405987691748244e+00,-2.479504989743123389e+00,-2.975405987691748244e+00,-1.983603991794498755e+00,-2.975405987691748244e+00
-2.974794979612759516e+00,-1.983196653075173010e+00,-2.974794979612759516e+00,-2.478995816343966485e+00,-2.974794979612759516e+00,-1.983196653075173010e+00,-2.974794979612759516e+00
-2.974176474502126855e+00,-1.982784316334751162e+00,-2.974176474502126855e+00,-2.478480395418439119e+00,-2.974176474502126855e+00,-1.982784316334751162e+00,-2.974176474502126855e+00
-2.973550472359849817e+00,-1.982366981573233433e+00,-2.973550472359849817e+00,-2.477958726966541736e+00,-2.973550472359849817e+00,-1.982366981573233433e+00,-2.973550472359849817e+00
-2.972916973185929290e+00,-1.981944648790619379e+00,-2.972916973185929290e+00,-2.477430810988274335e+00,-2.972916973185929290e+00,-1.981944648790619379e+00,-2.972916973185929290e+00
-2.972275976980364387e+00,-1.981517317986909443e+00,-2.972275976980364387e+00,-2.476896647483636915e+00,-2.972275976980364387e+00,-1.981517317986909443e+00,-2.972275976980364387e+00
-2.971627483743155551e+00,-1.981084989162103627e+00,-2.971627483743155551e+00,-2.476356236452629478e+00,-2.971627483743155551e+00,-1.981084989162103627e+00,-2.971627483743155551e+00
-2.970971493474302338e+00,-1.980647662316201707e+00,-2.970971493474302338e+00,-2.475809577895252023e+00,-2.970971493474302338e+00,-1.980647662316201707e+00,-2.970971493474302338e+00
-2.970308006173805637e+00,-1.980205337449203684e+00,-2.970308006173805637e+00,-2.475256671811504550e+00,-2.970308006173805637e+00,-1.980205337449203684e+00,-2.970308006173805637e+00
-2.969637021841664559e+00,-1.979758014561109780e+00,-2.969637021841664559e+00,-2.474697518201387059e+00,-2.969637021841664559e+00,-1.979758014561109780e+00,-2.969637021841664559e+00
-2.968958540477879549e+00,-1.979305693651919773e+00,-2.968958540477879549e+00,-2.474132117064899550e+00,-2.968958540477879549e+00,-1.979305693651919773e+00,-2.968958540477879549e+00
-2.968272562082450605e+00,-1.978848374721633663e+00,-2.968272562082450605e+00,-2.473560468402042023e+00,-2.968272562082450605e+00,-1.978848374721633663e+00,-2.968272562082450605e+00
-2.967579086655377285e+00,-1.978386057770251671e+00,-2.967579086655377285e+00,-2.472982572212814478e+00,-2.967579086655377285e+00,-1.978386057770251671e+00,-2.967579086655377285e+00
-2.966878114196660476e+00,-1.977918742797773577e+00,-2.966878114196660476e+00,-2.472398428497216916e+00,-2.966878114196660476e+00,-1.977918742797773577e+00,-2.966878114196660476e+00
-2.966169644706299291e+00,-1.977446429804199379e+00,-2.966169644706299291e+00,-2.471808037255249335e+00,-2.966169644706299291e+00,-1.977446429804199379e+00,-2.966169644706299291e+00
-2.965453678184293729e+00,-1.976969118789529301e+00,-2.965453678184293729e+00,-2.471211398486911737e+00,-2.965453678184293729e+00,-1.976969118789529301e+00,-2.965453678184293729e+00
-2.964730214630644678e+00,-1.976486809753763119e+00,-2.964730214630644678e+00,-2.470608512192203676e+00,-2.964730214630644678e+00,-1.976486809753763119e+00,-2.964730214630644678e+00
-2.963999254045351250e+00,-1.975999502696900834e+00,-2.963999254045351250e+00,-2.469999378371126042e+00,-2.963999254045351250e+00,-1.975999502696900834e+00,-2.963999254045351250e+00
-2.963260796428414334e+00,-1.975507197618942667e+00,-2.963260796428414334e+00,-2.469383997023678390e+00,-2.963260796428414334e+00,-1.975507197618942667e+00,-2.963260796428414334e+00
-2.962514841779832597e+00,-1.975009894519888620e+00,-2.962514841779832597e+00,-2.468762368149860720e+00,-2.962514841779832597e+00,-1.975009894519888620e+00,-2.962514841779832597e+00
-2.961761390099607372e+00,-1.974507593399738248e+00,-2.961761390099607372e+00,-2.468134491749673032e+00,-2.961761390099607372e+00,-1.974507593399738248e+00,-2.961761390099607372e+00
-2.961000441387738213e+00,-1.974000294258491994e+00,-2.961000441387738213e+00,-2.467500367823114882e+00,-2.961000441387738213e+00,-1.974000294258491994e+00,-2.961000441387738213e+00
-2.960231995644224678e+00,-1.973487997096149638e+00,-2.960231995644224678e+00,-2.466859996370187158e+00,-2.960231995644224678e+00,-1.973487997096149638e+00,-2.960231995644224678e+00
-2.959456052869067211e+00,-1.972970701912711400e+00,-2.959456052869067211e+00,-2.466213377390889416e+00,-2.959456052869067211e+00,-1.972970701912711400e+00,-2.959456052869067211e+00
-2.958672613062265810e+00,-1.972448408708177059e+00,-2.958672613062265810e+00,-2.465560510885221213e+00,-2.958672613062265810e+00,-1.972448408708177059e+00,-2.958672613062265810e+00
-2.957881676223820033e+00,-1.971921117482546837e+00,-2.957881676223820033e+00,-2.464901396853183435e+00,-2.957881676223820033e+00,-1.971921117482546837e+00,-2.957881676223820033e+00
-2.957083242353730768e+00,-1.971388828235820290e+00,-2.957083242353730768e+00,-2.464236035294775640e+00,-2.957083242353730768e+00,-1.971388828235820290e+00,-2.957083242353730768e+00
-2.956277311451997125e+00,-1.970851540967998083e+00,-2.956277311451997125e+00,-2.463564426209997382e+00,-2.956277311451997125e+00,-1.970851540967998083e+00,-2.956277311451997125e+00
-2.955463883518619550e+00,-1.970309255679079552e+00,-2.955463883518619550e+00,-2.462886569598849551e+00,-2.955463883518619550e+00,-1.970309255679079552e+00,-2.955463883518619550e+00
-2.954642958553597598e+00,-1.969761972369065139e+00,-2.954642958553597598e+00,-2.462202465461331258e+00,-2.954642958553597598e+00,-1.969761972369065139e+00,-2.954642958553597598e+00
-2.953814536556932158e+00,-1.969209691037954624e+00,-2.953814536556932158e+00,-2.461512113797443391e+00,-2.953814536556932158e+00,-1.969209691037954624e+00,-2.953814536556932158e+00
-2.952978617528622340e+00,-1.968652411685748227e+00,-2.952978617528622340e+00,-2.460815514607185062e+00,-2.952978617528622340e+00,-1.968652411685748227e+00,-2.952978617528622340e+00
-2.952135201468668591e+00,-1.968090134312445727e+00,-2.952135201468668591e+00,-2.460112667890557159e+00,-2.952135201468668591e+00,-1.968090134312445727e+00,-2.952135201468668591e+00
-2.951284288377070908e+00,-1.967522858918047124e+00,-2.951284288377070908e+00,-2.459403573647558794e+00,-2.951284288377070908e+00,-1.967522858918047124e+00,-2.951284288377070908e+00
-2.950425878253828849e+00,-1.966950585502552640e+00,-2.950425878253828849e+00,-2.458688231878190855e+00,-2.950425878253828849e+00,-1.966950585502552640e+00,-2.950425878253828849e+00
-2.949559971098942857e+00,-1.966373314065962052e+00,-2.949559971098942857e+00,-2.457966642582452454e+00,-2.949559971098942857e+00,-1.966373314065962052e+00,-2.949559971098942857e+00
-2.948686566912412932e+00,-1.965791044608275362e+00,-2.948686566912412932e+00,-2.457238805760344036e+00,-2.948686566912412932e+00,-1.965791044608275362e+00,-2.948686566912412932e+00
-2.947805665694239075e+00,-1.965203777129492790e+00,-2.947805665694239075e+00,-2.456504721411866043e+00,-2.947805665694239075e+00,-1.965203777129492790e+00,-2.947805665694239075e+00
-2.946917267444421284e+00,-1.964611511629614116e+00,-2.946917267444421284e+00,-2.455764389537017589e+00,-2.946917267444421284e+00,-1.964611511629614116e+00,-2.946917267444421284e+00
-2.946021372162959118e+00,-1.964014248108639560e+00,-2.946021372162959118e+00,-2.455017810135799561e+00,-2.946021372162959118e+00,-1.964014248108639560e+00,-2.946021372162959118e+00
-2.945117979849853018e+00,-1.963411986566568679e+00,-2.945117979849853018e+00,-2.454264983208211071e+00,-2.945117979849853018e+00,-1.963411986566568679e+00,-2.945117979849853018e+00
-2.944207090505102986e+00,-1.962804727003402139e+00,-2.944207090505102986e+00,-2.453505908754252562e+00,-2.944207090505102986e+00,-1.962804727003402139e+00,-2.944207090505102986e+00
-2.943288704128709021e+00,-1.962192469419139274e+00,-2.943288704128709021e+00,-2.452740586773924036e+00,-2.943288704128709021e+00,-1.962192469419139274e+00,-2.943288704128709021e+00
-2.942362820720671124e+00,-1.961575213813780527e+00,-2.942362820720671124e+00,-2.451969017267225937e+00,-2.942362820720671124e+00,-1.961575213813780527e+00,-2.942362820720671124e+00
-2.941429440280988850e+00,-1.960952960187325900e+00,-2.941429440280988850e+00,-2.451191200234157375e+00,-2.941429440280988850e+00,-1.960952960187325900e+00,-2.941429440280988850e+00
-2.940488562809662643e+00,-1.960325708539774947e+00,-2.940488562809662643e+00,-2.450407135674718795e+00,-2.940488562809662643e+00,-1.960325708539774947e+00,-2.940488562809662643e+00
-2.939540188306692503e+00,-1.959693458871128113e+00,-2.939540188306692503e+00,-2.449616823588910197e+00,-2.939540188306692503e+00,-1.959693458871128113e+00,-2.939540188306692503e+00
-2.938584316772077987e+00,-1.959056211181385398e+00,-2.938584316772077987e+00,-2.448820263976731582e+00,-2.938584316772077987e+00,-1.959056211181385398e+00,-2.938584316772077987e+00
-2.937620948205819538e+00,-1.958413965470546581e+00,-2.937620948205819538e+00,-2.448017456838182948e+00,-2.937620948205819538e+00,-1.958413965470546581e+00,-2.937620948205819538e+00
-2.936650082607917600e+00,-1.957766721738611659e+00,-2.936650082607917600e+00,-2.447208402173264297e+00,-2.936650082607917600e+00,-1.957766721738611659e+00,-2.936650082607917600e+00
-2.935671719978370842e+00,-1.957114479985580635e+00,-2.935671719978370842e+00,-2.446393099981976071e+00,-2.935671719978370842e+00,-1.957114479985580635e+00,-2.935671719978370842e+00
-2.934685860317180595e+00,-1.956457240211453730e+00,-2.934685860317180595e+00,-2.445571550264317384e+00,-2.934685860317180595e+00,-1.956457240211453730e+00,-2.934685860317180595e+00
-2.933692503624346415e+00,-1.955795002416230721e+00,-2.933692503624346415e+00,-2.444743753020288679e+00,-2.933692503624346415e+00,-1.955795002416230721e+00,-2.933692503624346415e+00
-2.932691649899867858e+00,-1.955127766599911832e+00,-2.932691649899867858e+00,-2.443909708249889956e+00,-2.932691649899867858e+00,-1.955127766599911832e+00,-2.932691649899867858e+00
-2.931683299143745369e+00,-1.954455532762496839e+00,-2.931683299143745369e+00,-2.443069415953121215e+00,-2.931683299143745369e+00,-1.954455532762496839e+00,-2.931683299143745369e+00
-2.930667451355978947e+00,-1.953778300903985743e+00,-2.930667451355978947e+00,-2.442222876129982456e+00,-2.930667451355978947e+00,-1.953778300903985743e+00,-2.930667451355978947e+00
-2.929644106536568149e+00,-1.953096071024378766e+00,-2.929644106536568149e+00,-2.441370088780473679e+00,-2.929644106536568149e+00,-1.953096071024378766e+00,-2.929644106536568149e+00
-2.928613264685513418e+00,-1.952408843123675686e+00,-2.928613264685513418e+00,-2.440511053904594441e+00,-2.928613264685513418e+00,-1.952408843123675686e+00,-2.928613264685513418e+00
-2.927574925802814754e+00,-1.951716617201876502e+00,-2.927574925802814754e+00,-2.439645771502345628e+00,-2.927574925802814754e+00,-1.951716617201876502e+00,-2.927574925802814754e+00
-2.926529089888472157e+00,-1.951019393258981438e+00,-2.926529089888472157e+00,-2.438774241573726798e+00,-2.926529089888472157e+00,-1.951019393258981438e+00,-2.926529089888472157e+00
-2.925475756942485628e+00,-1.950317171294990271e+00,-2.925475756942485628e+00,-2.437896464118737949e+00,-2.925475756942485628e+00,-1.950317171294990271e+00,-2.925475756942485628e+00
-2.924414926964854722e+00,-1.949609951309903222e+00,-2.924414926964854722e+00,-2.437012439137379083e+00,-2.924414926964854722e+00,-1.949609951309903222e+00,-2.924414926964854722e+00
-2.923346599955579883e+00,-1.948897733303720070e+00,-2.923346599955579883e+00,-2.436122166629650199e+00,-2.923346599955579883e+00,-1.948897733303720070e+00,-2.923346599955579883e+00
-2.922270775914661112e+00,-1.948180517276440815e+00,-2.922270775914661112e+00,-2.435225646595550852e+00,-2.922270775914661112e+00,-1.948180517276440815e+00,-2.922270775914661112e+00
-2.921187454842098408e+00,-1.947458303228065679e+00,-2.921187454842098408e+00,-2.434322879035081932e+00,-2.921187454842098408e+00,-1.947458303228065679e+00,-2.921187454842098408e+00
-2.920096636737891771e+00,-1.946731091158594440e+00,-2.920096636737891771e+00,-2.433413863948242994e+00,-2.920096636737891771e+00,-1.946731091158594440e+00,-2.920096636737891771e+00
-2.918998321602040757e+00,-1.945998881068027098e+00,-2.918998321602040757e+00,-2.432498601335034039e+00,-2.918998321602040757e+00,-1.945998881068027098e+00,-2.918998321602040757e+00
-2.917892509434545811e+00,-1.945261672956363874e+00,-2.917892509434545811e+00,-2.431577091195454621e+00,-2.917892509434545811e+00,-1.945261672956363874e+00,-2.917892509434545811e+00
-2.916779200235406933e+00,-1.944519466823604548e+00,-2.916779200235406933e+00,-2.430649333529505629e+00,-2.916779200235406933e+00,-1.944519466823604548e+00,-2.916779200235406933e+00
-2.915658394004623677e+00,-1.943772262669749118e+00,-2.915658394004623677e+00,-2.429715328337186619e+00,-2.915658394004623677e+00,-1.943772262669749118e+00,-2.915658394004623677e+00
-2.914530090742196933e+00,-1.943020060494797807e+00,-2.914530090742196933e+00,-2.428775075618497148e+00,-2.914530090742196933e+00,-1.943020060494797807e+00,-2.914530090742196933e+00
-2.913394290448125812e+00,-1.942262860298750393e+00,-2.913394290448125812e+00,-2.427828575373438103e+00,-2.913394290448125812e+00,-1.942262860298750393e+00,-2.913394290448125812e+00
-2.912250993122410758e+00,-1.941500662081607098e+00,-2.912250993122410758e+00,-2.426875827602009039e+00,-2.912250993122410758e+00,-1.941500662081607098e+00,-2.912250993122410758e+00
-2.911100198765051328e+00,-1.940733465843367700e+00,-2.911100198765051328e+00,-2.425916832304209514e+00,-2.911100198765051328e+00,-1.940733465843367700e+00,-2.911100198765051328e+00
-2.909941907376048409e+00,-1.939961271584032199e+00,-2.909941907376048409e+00,-2.424951589480040415e+00,-2.909941907376048409e+00,-1.939961271584032199e+00,-2.909941907376048409e+00
-2.908776118955401113e+00,-1.939184079303600816e+00,-2.908776118955401113e+00,-2.423980099129500854e+00,-2.908776118955401113e+00,-1.939184079303600816e+00,-2.908776118955401113e+00
-2.907602833503109885e+00,-1.938401889002073331e+00,-2.907602833503109885e+00,-2.423002361252591719e+00,-2.907602833503109885e+00,-1.938401889002073331e+00,-2.907602833503109885e+00
-2.906422051019174724e+00,-1.937614700679449742e+00,-2.906422051019174724e+00,-2.422018375849312122e+00,-2.906422051019174724e+00,-1.937614700679449742e+00,-2.906422051019174724e+00
-2.905233771503595186e+00,-1.936822514335730272e+00,-2.905233771503595186e+00,-2.421028142919662507e+00,-2.905233771503595186e+00,-1.936822514335730272e+00,-2.905233771503595186e+00
-2.904037994956372160e+00,-1.936025329970914699e+00,-2.904037994956372160e+00,-2.420031662463643318e+00,-2.904037994956372160e+00,-1.936025329970914699e+00,-2.904037994956372160e+00
-2.902834721377504756e+00,-1.935223147585003023e+00,-2.902834721377504756e+00,-2.419028934481253668e+00,-2.902834721377504756e+00,-1.935223147585003023e+00,-2.902834721377504756e+00
-2.901623950766992976e+00,-1.934415967177995466e+00,-2.901623950766992976e+00,-2.418019958972494443e+00,-2.901623950766992976e+00,-1.934415967177995466e+00,-2.901623950766992976e+00
-2.900405683124837708e+00,-1.933603788749891805e+00,-2.900405683124837708e+00,-2.417004735937364757e+00,-2.900405683124837708e+00,-1.933603788749891805e+00,-2.900405683124837708e+00
-2.899179918451038063e+00,-1.932786612300692264e+00,-2.899179918451038063e+00,-2.415983265375865052e+00,-2.899179918451038063e+00,-1.932786612300692264e+00,-2.899179918451038063e+00
-2.897946656745594929e+00,-1.931964437830396619e+00,-2.897946656745594929e+00,-2.414955547287995774e+00,-2.897946656745594929e+00,-1.931964437830396619e+00,-2.897946656745594929e+00
-2.896705898008507418e+00,-1.931137265339004871e+00,-2.896705898008507418e+00,-2.413921581673756034e+00,-2.896705898008507418e+00,-1.931137265339004871e+00,-2.896705898008507418e+00
-2.895457642239775531e+00,-1.930305094826517021e+00,-2.895457642239775531e+00,-2.412881368533146276e+00,-2.895457642239775531e+00,-1.930305094826517021e+00,-2.895457642239775531e+00
-2.894201889439400155e+00,-1.929467926292933289e+00,-2.894201889439400155e+00,-2.411834907866166500e+00,-2.894201889439400155e+00,-1.929467926292933289e+00,-2.894201889439400155e+00
-2.892938639607380402e+00,-1.928625759738253675e+00,-2.892938639607380402e+00,-2.410782199672817150e+00,-2.892938639607380402e+00,-1.928625759738253675e+00,-2.892938639607380402e+00
-2.891667892743716717e+00,-1.927778595162477737e+00,-2.891667892743716717e+00,-2.409723243953097338e+00,-2.891667892743716717e+00,-1.927778595162477737e+00,-2.891667892743716717e+00
-2.890389648848409099e+00,-1.926926432565605918e+00,-2.890389648848409099e+00,-2.408658040707007508e+00,-2.890389648848409099e+00,-1.926926432565605918e+00,-2.890389648848409099e+00
-2.889103907921457548e+00,-1.926069271947638217e+00,-2.889103907921457548e+00,-2.407586589934547661e+00,-2.889103907921457548e+00,-1.926069271947638217e+00,-2.889103907921457548e+00
-2.887810669962861621e+00,-1.925207113308574414e+00,-2.887810669962861621e+00,-2.406508891635717795e+00,-2.887810669962861621e+00,-1.925207113308574414e+00,-2.887810669962861621e+00
-2.886509934972621760e+00,-1.924339956648414507e+00,-2.886509934972621760e+00,-2.405424945810517912e+00,-2.886509934972621760e+00,-1.924339956648414507e+00,-2.886509934972621760e+00
-2.885201702950737968e+00,-1.923467801967158497e+00,-2.885201702950737968e+00,-2.404334752458948454e+00,-2.885201702950737968e+00,-1.923467801967158497e+00,-2.885201702950737968e+00
-2.883885973897210242e+00,-1.922590649264806606e+00,-2.883885973897210242e+00,-2.403238311581008535e+00,-2.883885973897210242e+00,-1.922590649264806606e+00,-2.883885973897210242e+00
-2.882562747812038140e+00,-1.921708498541358834e+00,-2.882562747812038140e+00,-2.402135623176698598e+00,-2.882562747812038140e+00,-1.921708498541358834e+00,-2.882562747812038140e+00
-2.881232024695222105e+00,-1.920821349796814737e+00,-2.881232024695222105e+00,-2.401026687246018643e+00,-2.881232024695222105e+00,-1.920821349796814737e+00,-2.881232024695222105e+00
-2.879893804546762137e+00,-1.919929203031174758e+00,-2.879893804546762137e+00,-2.399911503788968670e+00,-2.879893804546762137e+00,-1.919929203031174758e+00,-2.879893804546762137e+00
-2.878548087366658237e+00,-1.919032058244438899e+00,-2.878548087366658237e+00,-2.398790072805548679e+00,-2.878548087366658237e+00,-1.919032058244438899e+00,-2.878548087366658237e+00
-2.877194873154910404e+00,-1.918129915436606714e+00,-2.877194873154910404e+00,-2.397662394295758670e+00,-2.877194873154910404e+00,-1.918129915436606714e+00,-2.877194873154910404e+00
-2.875834161911518194e+00,-1.917222774607678648e+00,-2.875834161911518194e+00,-2.396528468259598643e+00,-2.875834161911518194e+00,-1.917222774607678648e+00,-2.875834161911518194e+00
-2.874465953636482052e+00,-1.916310635757654701e+00,-2.874465953636482052e+00,-2.395388294697068154e+00,-2.874465953636482052e+00,-1.916310635757654701e+00,-2.874465953636482052e+00
-2.873090248329801977e+00,-1.915393498886534651e+00,-2.873090248329801977e+00,-2.394241873608168092e+00,-2.873090248329801977e+00,-1.915393498886534651e+00,-2.873090248329801977e+00
-2.871707045991477969e+00,-1.914471363994318498e+00,-2.871707045991477969e+00,-2.393089204992898011e+00,-2.871707045991477969e+00,-1.914471363994318498e+00,-2.871707045991477969e+00
-2.870316346621509584e+00,-1.913544231081006242e+00,-2.870316346621509584e+00,-2.391930288851257913e+00,-2.870316346621509584e+00,-1.913544231081006242e+00,-2.870316346621509584e+00
-2.868918150219897267e+00,-1.912612100146598104e+00,-2.868918150219897267e+00,-2.390765125183247797e+00,-2.868918150219897267e+00,-1.912612100146598104e+00,-2.868918150219897267e+00
-2.867512456786641017e+00,-1.911674971191094086e+00,-2.867512456786641017e+00,-2.389593713988867663e+00,-2.867512456786641017e+00,-1.911674971191094086e+00,-2.867512456786641017e+00
-2.866099266321740835e+00,-1.910732844214493742e+00,-2.866099266321740835e+00,-2.388416055268117066e+00,-2.866099266321740835e+00,-1.910732844214493742e+00,-2.866099266321740835e+00
-2.864678578825196276e+00,-1.909785719216797517e+00,-2.864678578825196276e+00,-2.387232149020996896e+00,-2.864678578825196276e+00,-1.909785719216797517e+00,-2.864678578825196276e+00
-2.863250394297008228e+00,-1.908833596198005411e+00,-2.863250394297008228e+00,-2.386041995247506708e+00,-2.863250394297008228e+00,-1.908833596198005411e+00,-2.863250394297008228e+00
-2.861814712737175803e+00,-1.907876475158116980e+00,-2.861814712737175803e+00,-2.384845593947646503e+00,-2.861814712737175803e+00,-1.907876475158116980e+00,-2.861814712737175803e+00
-2.860371534145699002e+00,-1.906914356097132668e+00,-2.860371534145699002e+00,-2.383642945121415835e+00,-2.860371534145699002e+00,-1.906914356097132668e+00,-2.860371534145699002e+00
-2.858920858522578712e+00,-1.905947239015052475e+00,-2.858920858522578712e+00,-2.382434048768815593e+00,-2.858920858522578712e+00,-1.905947239015052475e+00,-2.858920858522578712e+00
-2.857462685867814045e+00,-1.904975123911876178e+00,-2.857462685867814045e+00,-2.381218904889845334e+00,-2.857462685867814045e+00,-1.904975123911876178e+00,-2.857462685867814045e+00
-2.855997016181405890e+00,-1.903998010787603778e+00,-2.855997016181405890e+00,-2.379997513484504612e+00,-2.855997016181405890e+00,-1.903998010787603778e+00,-2.855997016181405890e+00
-2.854523849463352914e+00,-1.903015899642235276e+00,-2.854523849463352914e+00,-2.378769874552794317e+00,-2.854523849463352914e+00,-1.903015899642235276e+00,-2.854523849463352914e+00
-2.853043185713656449e+00,-1.902028790475770892e+00,-2.853043185713656449e+00,-2.377535988094713559e+00,-2.853043185713656449e+00,-1.902028790475770892e+00,-2.853043185713656449e+00
-2.851555024932316051e+00,-1.901036683288210627e+00,-2.851555024932316051e+00,-2.376295854110263228e+00,-2.851555024932316051e+00,-1.901036683288210627e+00,-2.851555024932316051e+00
-2.850059367119331277e+00,-1.900039578079554037e+00,-2.850059367119331277e+00,-2.375049472599442435e+00,-2.850059367119331277e+00,-1.900039578079554037e+00,-2.850059367119331277e+00
-2.848556212274702570e+00,-1.899037474849801566e+00,-2.848556212274702570e+00,-2.373796843562252068e+00,-2.848556212274702570e+00,-1.899037474849801566e+00,-2.848556212274702570e+00
-2.847045560398429487e+00,-1.898030373598953213e+00,-2.847045560398429487e+00,-2.372537966998691239e+00,-2.847045560398429487e+00,-1.898030373598953213e+00,-2.847045560398429487e+00
-2.845527411490512915e+00,-1.897018274327008536e+00,-2.845527411490512915e+00,-2.371272842908760836e+00,-2.845527411490512915e+00,-1.897018274327008536e+00,-2.845527411490512915e+00
-2.844001765550951966e+00,-1.896001177033967977e+00,-2.844001765550951966e+00,-2.370001471292459971e+00,-2.844001765550951966e+00,-1.896001177033967977e+00,-2.844001765550951966e+00
-2.842468622579747528e+00,-1.894979081719831537e+00,-2.842468622579747528e+00,-2.368723852149789533e+00,-2.842468622579747528e+00,-1.894979081719831537e+00,-2.842468622579747528e+00
-2.840927982576898270e+00,-1.893951988384598994e+00,-2.840927982576898270e+00,-2.367439985480748632e+00,-2.840927982576898270e+00,-1.893951988384598994e+00,-2.840927982576898270e+00
-2.839379845542405523e+00,-1.892919897028270348e+00,-2.839379845542405523e+00,-2.366149871285338158e+00,-2.839379845542405523e+00,-1.892919897028270348e+00,-2.839379845542405523e+00
-2.837824211476268843e+00,-1.891882807650845821e+00,-2.837824211476268843e+00,-2.364853509563557221e+00,-2.837824211476268843e+00,-1.891882807650845821e+00,-2.837824211476268843e+00
-2.836261080378487787e+00,-1.890840720252325191e+00,-2.836261080378487787e+00,-2.363550900315406267e+00,-2.836261080378487787e+00,-1.890840720252325191e+00,-2.836261080378487787e+00
-2.834690452249062798e+00,-1.889793634832708458e+00,-2.834690452249062798e+00,-2.362242043540885295e+00,-2.834690452249062798e+00,-1.889793634832708458e+00,-2.834690452249062798e+00
-2.833112327087993432e+00,-1.888741551391995621e+00,-2.833112327087993432e+00,-2.360926939239994748e+00,-2.833112327087993432e+00,-1.888741551391995621e+00,-2.833112327087993432e+00
-2.831526704895280577e+00,-1.887684469930186903e+00,-2.831526704895280577e+00,-2.359605587412733740e+00,-2.831526704895280577e+00,-1.887684469930186903e+00,-2.831526704895280577e+00
-2.829933585670923346e+00,-1.886622390447282305e+00,-2.829933585670923346e+00,-2.358277988059102714e+00,-2.829933585670923346e+00,-1.886622390447282305e+00,-2.829933585670923346e+00
-2.828332969414922182e+00,-1.885555312943281603e+00,-2.828332969414922182e+00,-2.356944141179101671e+00,-2.828332969414922182e+00,-1.885555312943281603e+00,-2.828332969414922182e+00
-2.826724856127277086e+00,-1.884483237418184798e+00,-2.826724856127277086e+00,-2.355604046772731053e+00,-2.826724856127277086e+00,-1.884483237418184798e+00,-2.826724856127277086e+00
-2.825109245807988056e+00,-1.883406163871991890e+00,-2.825109245807988056e+00,-2.354257704839989973e+00,-2.825109245807988056e+00,-1.883406163871991890e+00,-2.825109245807988056e+00
-2.823486138457054651e+00,-1.882324092304703100e+00,-2.823486138457054651e+00,-2.352905115380878875e+00,-2.823486138457054651e+00,-1.882324092304703100e+00,-2.823486138457054651e+00
-2.821855534074477312e+00,-1.881237022716318208e+00,-2.821855534074477312e+00,-2.351546278395397760e+00,-2.821855534074477312e+00,-1.881237022716318208e+00,-2.821855534074477312e+00
-2.820217432660256041e+00,-1.880144955106837434e+00,-2.820217432660256041e+00,-2.350181193883546626e+00,-2.820217432660256041e+00,-1.880144955106837434e+00,-2.820217432660256041e+00
-2.818571834214390837e+00,-1.879047889476260558e+00,-2.818571834214390837e+00,-2.348809861845325475e+00,-2.818571834214390837e+00,-1.879047889476260558e+00,-2.818571834214390837e+00
-2.816918738736881256e+00,-1.877945825824587578e+00,-2.816918738736881256e+00,-2.347432282280734306e+00,-2.816918738736881256e+00,-1.877945825824587578e+00,-2.816918738736881256e+00
-2.815258146227727742e+00,-1.876838764151818495e+00,-2.815258146227727742e+00,-2.346048455189773119e+00,-2.815258146227727742e+00,-1.876838764151818495e+00,-2.815258146227727742e+00
-2.813590056686930296e+00,-1.875726704457953531e+00,-2.813590056686930296e+00,-2.344658380572441914e+00,-2.813590056686930296e+00,-1.875726704457953531e+00,-2.813590056686930296e+00
-2.811914470114488918e+00,-1.874609646742992686e+00,-2.811914470114488918e+00,-2.343262058428740691e+00,-2.811914470114488918e+00,-1.874609646742992686e+00,-2.811914470114488918e+00
-2.810231386510403606e+00,-1.873487591006935737e+00,-2.810231386510403606e+00,-2.341859488758669450e+00,-2.810231386510403606e+00,-1.873487591006935737e+00,-2.810231386510403606e+00
-2.808540805874673918e+00,-1.872360537249782686e+00,-2.808540805874673918e+00,-2.340450671562228191e+00,-2.808540805874673918e+00,-1.872360537249782686e+00,-2.808540805874673918e+00
-2.806842728207300297e+00,-1.871228485471533531e+00,-2.806842728207300297e+00,-2.339035606839416914e+00,-2.806842728207300297e+00,-1.871228485471533531e+00,-2.806842728207300297e+00
-2.805137153508282744e+00,-1.870091435672188496e+00,-2.805137153508282744e+00,-2.337614294590235620e+00,-2.805137153508282744e+00,-1.870091435672188496e+00,-2.805137153508282744e+00
-2.803424081777621257e+00,-1.868949387851747357e+00,-2.803424081777621257e+00,-2.336186734814684307e+00,-2.803424081777621257e+00,-1.868949387851747357e+00,-2.803424081777621257e+00
-2.801703513015315394e+00,-1.867802342010210337e+00,-2.801703513015315394e+00,-2.334752927512762977e+00,-2.801703513015315394e+00,-1.867802342010210337e+00,-2.801703513015315394e+00
-2.799975447221365599e+00,-1.866650298147577214e+00,-2.799975447221365599e+00,-2.333312872684471628e+00,-2.799975447221365599e+00,-1.866650298147577214e+00,-2.799975447221365599e+00
-2.798239884395771870e+00,-1.865493256263847988e+00,-2.798239884395771870e+00,-2.331866570329809818e+00,-2.798239884395771870e+00,-1.865493256263847988e+00,-2.798239884395771870e+00
-2.796496824538534209e+00,-1.864331216359022880e+00,-2.796496824538534209e+00,-2.330414020448778434e+00,-2.796496824538534209e+00,-1.864331216359022880e+00,-2.796496824538534209e+00
-2.794746267649652616e+00,-1.863164178433101670e+00,-2.794746267649652616e+00,-2.328955223041377032e+00,-2.794746267649652616e+00,-1.863164178433101670e+00,-2.794746267649652616e+00
-2.792988213729126645e+00,-1.861992142486084356e+00,-2.792988213729126645e+00,-2.327490178107605612e+00,-2.792988213729126645e+00,-1.861992142486084356e+00,-2.792988213729126645e+00
-2.791222662776956742e+00,-1.860815108517971161e+00,-2.791222662776956742e+00,-2.326018885647463730e+00,-2.791222662776956742e+00,-1.860815108517971161e+00,-2.791222662776956742e+00
-2.789449614793142906e+00,-1.859633076528761864e+00,-2.789449614793142906e+00,-2.324541345660952274e+00,-2.789449614793142906e+00,-1.859633076528761864e+00,-2.789449614793142906e+00
-2.787669069777684694e+00,-1.858446046518456463e+00,-2.787669069777684694e+00,-2.323057558148070800e+00,-2.787669069777684694e+00,-1.858446046518456463e+00,-2.787669069777684694e+00
-2.785881027730582993e+00,-1.857254018487055180e+00,-2.785881027730582993e+00,-2.321567523108818865e+00,-2.785881027730582993e+00,-1.857254018487055180e+00,-2.785881027730582993e+00
-2.784085488651836915e+00,-1.856056992434557795e+00,-2.784085488651836915e+00,-2.320071240543197355e+00,-2.784085488651836915e+00,-1.856056992434557795e+00,-2.784085488651836915e+00
-2.782282452541446904e+00,-1.854854968360964529e+00,-2.782282452541446904e+00,-2.318568710451205828e+00,-2.782282452541446904e+00,-1.854854968360964529e+00,-2.782282452541446904e+00
-2.780471919399412961e+00,-1.853647946266275159e+00,-2.780471919399412961e+00,-2.317059932832843838e+00,-2.780471919399412961e+00,-1.853647946266275159e+00,-2.780471919399412961e+00
-2.778653889225734641e+00,-1.852435926150489687e+00,-2.778653889225734641e+00,-2.315544907688112275e+00,-2.778653889225734641e+00,-1.852435926150489687e+00,-2.778653889225734641e+00
-2.776828362020412388e+00,-1.851218908013608333e+00,-2.776828362020412388e+00,-2.314023635017010250e+00,-2.776828362020412388e+00,-1.851218908013608333e+00,-2.776828362020412388e+00
-2.774995337783446203e+00,-1.849996891855630876e+00,-2.774995337783446203e+00,-2.312496114819538651e+00,-2.774995337783446203e+00,-1.849996891855630876e+00,-2.774995337783446203e+00
-2.773154816514836085e+00,-1.848769877676557316e+00,-2.773154816514836085e+00,-2.310962347095696590e+00,-2.773154816514836085e+00,-1.848769877676557316e+00,-2.773154816514836085e+00
-2.771306798214582034e+00,-1.847537865476387875e+00,-2.771306798214582034e+00,-2.309422331845484955e+00,-2.771306798214582034e+00,-1.847537865476387875e+00,-2.771306798214582034e+00
-2.769451282882683607e+00,-1.846300855255122331e+00,-2.769451282882683607e+00,-2.307876069068902858e+00,-2.769451282882683607e+00,-1.846300855255122331e+00,-2.769451282882683607e+00
-2.767588270519141247e+00,-1.845058847012760905e+00,-2.767588270519141247e+00,-2.306323558765951187e+00,-2.767588270519141247e+00,-1.845058847012760905e+00,-2.767588270519141247e+00
-2.765717761123954954e+00,-1.843811840749303377e+00,-2.765717761123954954e+00,-2.304764800936629054e+00,-2.765717761123954954e+00,-1.843811840749303377e+00,-2.765717761123954954e+00
-2.763839754697124729e+00,-1.842559836464749745e+00,-2.763839754697124729e+00,-2.303199795580937348e+00,-2.763839754697124729e+00,-1.842559836464749745e+00,-2.763839754697124729e+00
-2.761954251238650127e+00,-1.841302834159100010e+00,-2.761954251238650127e+00,-2.301628542698875179e+00,-2.761954251238650127e+00,-1.841302834159100010e+00,-2.761954251238650127e+00
-2.760061250748531592e+00,-1.840040833832354394e+00,-2.760061250748531592e+00,-2.300051042290442993e+00,-2.760061250748531592e+00,-1.840040833832354394e+00,-2.760061250748531592e+00
-2.758160753226769124e+00,-1.838773835484512897e+00,-2.758160753226769124e+00,-2.298467294355641233e+00,-2.758160753226769124e+00,-1.838773835484512897e+00,-2.758160753226769124e+00
-2.756252758673362724e+00,-1.837501839115575075e+00,-2.756252758673362724e+00,-2.296877298894469011e+00,-2.756252758673362724e+00,-1.837501839115575075e+00,-2.756252758673362724e+00
-2.754337267088312391e+00,-1.836224844725541372e+00,-2.754337267088312391e+00,-2.295281055906926770e+00,-2.754337267088312391e+00,-1.836224844725541372e+00,-2.754337267088312391e+00
-2.752414278471617681e+00,-1.834942852314411788e+00,-2.752414278471617681e+00,-2.293678565393014512e+00,-2.752414278471617681e+00,-1.834942852314411788e+00,-2.752414278471617681e+00
-2.750483792823279039e+00,-1.833655861882185878e+00,-2.750483792823279039e+00,-2.292069827352732680e+00,-2.750483792823279039e+00,-1.833655861882185878e+00,-2.750483792823279039e+00
-2.748545810143296464e+00,-1.832363873428864309e+00,-2.748545810143296464e+00,-2.290454841786080387e+00,-2.748545810143296464e+00,-1.832363873428864309e+00,-2.748545810143296464e+00
-2.746600330431669512e+00,-1.831066886954446415e+00,-2.746600330431669512e+00,-2.288833608693058075e+00,-2.746600330431669512e+00,-1.831066886954446415e+00,-2.746600330431669512e+00
-2.744647353688399072e+00,-1.829764902458932641e+00,-2.744647353688399072e+00,-2.287206128073665745e+00,-2.744647353688399072e+00,-1.829764902458932641e+00,-2.744647353688399072e+00
-2.742686879913484255e+00,-1.828457919942322762e+00,-2.742686879913484255e+00,-2.285572399927903398e+00,-2.742686879913484255e+00,-1.828457919942322762e+00,-2.742686879913484255e+00
-2.740718909106925505e+00,-1.827145939404617003e+00,-2.740718909106925505e+00,-2.283932424255771032e+00,-2.740718909106925505e+00,-1.827145939404617003e+00,-2.740718909106925505e+00
-2.738743441268722822e+00,-1.825828960845815141e+00,-2.738743441268722822e+00,-2.282286201057268649e+00,-2.738743441268722822e+00,-1.825828960845815141e+00,-2.738743441268722822e+00
-2.736760476398875763e+00,-1.824506984265917175e+00,-2.736760476398875763e+00,-2.280633730332396247e+00,-2.736760476398875763e+00,-1.824506984265917175e+00,-2.736760476398875763e+00
-2.734770014497384771e+00,-1.823180009664923329e+00,-2.734770014497384771e+00,-2.278975012081154272e+00,-2.734770014497384771e+00,-1.823180009664923329e+00,-2.734770014497384771e+00
-2.732772055564249847e+00,-1.821848037042833379e+00,-2.732772055564249847e+00,-2.277310046303541835e+00,-2.732772055564249847e+00,-1.821848037042833379e+00,-2.732772055564249847e+00
-2.730766599599470990e+00,-1.820511066399647326e+00,-2.730766599599470990e+00,-2.275638832999558936e+00,-2.730766599599470990e+00,-1.820511066399647326e+00,-2.730766599599470990e+00
-2.728753646603048200e+00,-1.819169097735365392e+00,-2.728753646603048200e+00,-2.273961372169206907e+00,-2.728753646603048200e+00,-1.819169097735365392e+00,-2.728753646603048200e+00
-2.726733196574981033e+00,-1.817822131049987355e+00,-2.726733196574981033e+00,-2.272277663812484416e+00,-2.726733196574981033e+00,-1.817822131049987355e+00,-2.726733196574981033e+00
-2.724705249515269934e+00,-1.816470166343513215e+00,-2.724705249515269934e+00,-2.270587707929391463e+00,-2.724705249515269934e+00,-1.816470166343513215e+00,-2.724705249515269934e+00
-2.722669805423914902e+00,-1.815113203615943194e+00,-2.722669805423914902e+00,-2.268891504519928937e+00,-2.722669805423914902e+00,-1.815113203615943194e+00,-2.722669805423914902e+00
-2.720626864300915937e+00,-1.813751242867277291e+00,-2.720626864300915937e+00,-2.267189053584096392e+00,-2.720626864300915937e+00,-1.813751242867277291e+00,-2.720626864300915937e+00
-2.718576426146272595e+00,-1.812384284097515064e+00,-2.718576426146272595e+00,-2.265480355121893830e+00,-2.718576426146272595e+00,-1.812384284097515064e+00,-2.718576426146272595e+00
-2.716518490959985321e+00,-1.811012327306656955e+00,-2.716518490959985321e+00,-2.263765409133321249e+00,-2.716518490959985321e+00,-1.811012327306656955e+00,-2.716518490959985321e+00
-2.714453058742054559e+00,-1.809635372494702743e+00,-2.714453058742054559e+00,-2.262044215618378651e+00,-2.714453058742054559e+00,-1.809635372494702743e+00,-2.714453058742054559e+00
-2.712380129492478975e+00,-1.808253419661652650e+00,-2.712380129492478975e+00,-2.260316774577066035e+00,-2.712380129492478975e+00,-1.808253419661652650e+00,-2.712380129492478975e+00
-2.710299703211259903e+00,-1.806866468807506454e+00,-2.710299703211259903e+00,-2.258583086009382956e+00,-2.710299703211259903e+00,-1.806866468807506454e+00,-2.710299703211259903e+00
-2.708211779898396454e+00,-1.805474519932264155e+00,-2.708211779898396454e+00,-2.256843149915330304e+00,-2.708211779898396454e+00,-1.805474519932264155e+00,-2.708211779898396454e+00
-2.706116359553889072e+00,-1.804077573035926196e+00,-2.706116359553889072e+00,-2.255096966294907634e+00,-2.706116359553889072e+00,-1.804077573035926196e+00,-2.706116359553889072e+00
-2.704013442177737758e+00,-1.802675628118491691e+00,-2.704013442177737758e+00,-2.253344535148114502e+00,-2.704013442177737758e+00,-1.802675628118491691e+00,-2.704013442177737758e+00
-2.701903027769942511e+00,-1.801268685179961526e+00,-2.701903027769942511e+00,-2.251585856474951797e+00,-2.701903027769942511e+00,-1.801268685179961526e+00,-2.701903027769942511e+00
-2.699785116330502888e+00,-1.799856744220335258e+00,-2.699785116330502888e+00,-2.249820930275419073e+00,-2.699785116330502888e+00,-1.799856744220335258e+00,-2.699785116330502888e+00
-2.697659707859419331e+00,-1.798439805239612888e+00,-2.697659707859419331e+00,-2.248049756549516331e+00,-2.697659707859419331e+00,-1.798439805239612888e+00,-2.697659707859419331e+00
-2.695526802356691842e+00,-1.797017868237794636e+00,-2.695526802356691842e+00,-2.246272335297243128e+00,-2.695526802356691842e+00,-1.797017868237794636e+00,-2.695526802356691842e+00
-2.693386399822320421e+00,-1.795590933214880280e+00,-2.693386399822320421e+00,-2.244488666518600350e+00,-2.693386399822320421e+00,-1.795590933214880280e+00,-2.693386399822320421e+00
-2.691238500256304622e+00,-1.794159000170869822e+00,-2.691238500256304622e+00,-2.242698750213587111e+00,-2.691238500256304622e+00,-1.794159000170869822e+00,-2.691238500256304622e+00
-2.689083103658645335e+00,-1.792722069105763261e+00,-2.689083103658645335e+00,-2.240902586382204298e+00,-2.689083103658645335e+00,-1.792722069105763261e+00,-2.689083103658645335e+00
-2.686920210029341671e+00,-1.791280140019561040e+00,-2.686920210029341671e+00,-2.239100175024451023e+00,-2.686920210029341671e+00,-1.791280140019561040e+00,-2.686920210029341671e+00
-2.684749819368393631e+00,-1.789833212912262494e+00,-2.684749819368393631e+00,-2.237291516140328174e+00,-2.684749819368393631e+00,-1.789833212912262494e+00,-2.684749819368393631e+00
-2.682571931675802102e+00,-1.788381287783868068e+00,-2.682571931675802102e+00,-2.235476609729834863e+00,-2.682571931675802102e+00,-1.788381287783868068e+00,-2.682571931675802102e+00
-2.680386546951566196e+00,-1.786924364634377538e+00,-2.680386546951566196e+00,-2.233655455792971978e+00,-2.680386546951566196e+00,-1.786924364634377538e+00,-2.680386546951566196e+00
-2.678193665195686801e+00,-1.785462443463790905e+00,-2.678193665195686801e+00,-2.231828054329738631e+00,-2.678193665195686801e+00,-1.785462443463790905e+00,-2.678193665195686801e+00
-2.675993286408162586e+00,-1.783995524272108391e+00,-2.675993286408162586e+00,-2.229994405340135710e+00,-2.675993286408162586e+00,-1.783995524272108391e+00,-2.675993286408162586e+00
-2.673785410588994882e+00,-1.782523607059329995e+00,-2.673785410588994882e+00,-2.228154508824162328e+00,-2.673785410588994882e+00,-1.782523607059329995e+00,-2.673785410588994882e+00
-2.671570037738183245e+00,-1.781046691825455275e+00,-2.671570037738183245e+00,-2.226308364781819371e+00,-2.671570037738183245e+00,-1.781046691825455275e+00,-2.671570037738183245e+00
-2.669347167855727232e+00,-1.779564778570484673e+00,-2.669347167855727232e+00,-2.224455973213105953e+00,-2.669347167855727232e+00,-1.779564778570484673e+00,-2.669347167855727232e+00
-2.667116800941627286e+00,-1.778077867294417969e+00,-2.667116800941627286e+00,-2.222597334118022516e+00,-2.667116800941627286e+00,-1.778077867294417969e+00,-2.667116800941627286e+00
-2.664878936995883407e+00,-1.776585957997255383e+00,-2.664878936995883407e+00,-2.220732447496569506e+00,-2.664878936995883407e+00,-1.776585957997255383e+00,-2.664878936995883407e+00
-2.662633576018495152e+00,-1.775089050678996694e+00,-2.662633576018495152e+00,-2.218861313348746034e+00,-2.662633576018495152e+00,-1.775089050678996694e+00,-2.662633576018495152e+00
-2.660380718009462964e+00,-1.773587145339642124e+00,-2.660380718009462964e+00,-2.216983931674552544e+00,-2.660380718009462964e+00,-1.773587145339642124e+00,-2.660380718009462964e+00
-2.658120362968786843e+00,-1.772080241979191229e+00,-2.658120362968786843e+00,-2.215100302473989036e+00,-2.658120362968786843e+00,-1.772080241979191229e+00,-2.658120362968786843e+00
-2.655852510896466789e+00,-1.770568340597644452e+00,-2.655852510896466789e+00,-2.213210425747055510e+00,-2.655852510896466789e+00,-1.770568340597644452e+00,-2.655852510896466789e+00
-2.653577161792502803e+00,-1.769051441195001795e+00,-2.653577161792502803e+00,-2.211314301493752410e+00,-2.653577161792502803e+00,-1.769051441195001795e+00,-2.653577161792502803e+00
-2.651294315656894440e+00,-1.767529543771263034e+00,-2.651294315656894440e+00,-2.209411929714078848e+00,-2.651294315656894440e+00,-1.767529543771263034e+00,-2.651294315656894440e+00
-2.649003972489642589e+00,-1.766002648326428170e+00,-2.649003972489642589e+00,-2.207503310408035269e+00,-2.649003972489642589e+00,-1.766002648326428170e+00,-2.649003972489642589e+00
-2.646706132290745916e+00,-1.764470754860497426e+00,-2.646706132290745916e+00,-2.205588443575621671e+00,-2.646706132290745916e+00,-1.764470754860497426e+00,-2.646706132290745916e+00
-2.644400795060205756e+00,-1.762933863373470578e+00,-2.644400795060205756e+00,-2.203667329216838056e+00,-2.644400795060205756e+00,-1.762933863373470578e+00,-2.644400795060205756e+00
-2.642087960798021662e+00,-1.761391973865347627e+00,-2.642087960798021662e+00,-2.201739967331684422e+00,-2.642087960798021662e+00,-1.761391973865347627e+00,-2.642087960798021662e+00
-2.639767629504193192e+00,-1.759845086336128794e+00,-2.639767629504193192e+00,-2.199806357920160771e+00,-2.639767629504193192e+00,-1.759845086336128794e+00,-2.639767629504193192e+00
-2.637439801178720788e+00,-1.758293200785813859e+00,-2.637439801178720788e+00,-2.197866500982267102e+00,-2.637439801178720788e+00,-1.758293200785813859e+00,-2.637439801178720788e+00
-2.635104475821604453e+00,-1.756736317214402820e+00,-2.635104475821604453e+00,-2.195920396518003415e+00,-2.635104475821604453e+00,-1.756736317214402820e+00,-2.635104475821604453e+00
-2.632761653432844184e+00,-1.755174435621895901e+00,-2.632761653432844184e+00,-2.193968044527369710e+00,-2.632761653432844184e+00,-1.755174435621895901e+00,-2.632761653432844184e+00
-2.630411334012439539e+00,-1.753607556008292878e+00,-2.630411334012439539e+00,-2.192009445010365987e+00,-2.630411334012439539e+00,-1.753607556008292878e+00,-2.630411334012439539e+00
-2.628053517560390961e+00,-1.752035678373593974e+00,-2.628053517560390961e+00,-2.190044597966992246e+00,-2.628053517560390961e+00,-1.752035678373593974e+00,-2.628053517560390961e+00
-2.625688204076698451e+00,-1.750458802717798745e+00,-2.625688204076698451e+00,-2.188073503397248487e+00,-2.625688204076698451e+00,-1.750458802717798745e+00,-2.625688204076698451e+00
-2.623315393561361564e+00,-1.748876929040907857e+00,-2.623315393561361564e+00,-2.186096161301134710e+00,-2.623315393561361564e+00,-1.748876929040907857e+00,-2.623315393561361564e+00
-2.620935086014381188e+00,-1.747290057342920644e+00,-2.620935086014381188e+00,-2.184112571678650916e+00,-2.620935086014381188e+00,-1.747290057342920644e+00,-2.620935086014381188e+00
-2.618547281435756435e+00,-1.745698187623837772e+00,-2.618547281435756435e+00,-2.182122734529797103e+00,-2.618547281435756435e+00,-1.745698187623837772e+00,-2.618547281435756435e+00
-2.616151979825487750e+00,-1.744101319883658574e+00,-2.616151979825487750e+00,-2.180126649854573273e+00,-2.616151979825487750e+00,-1.744101319883658574e+00,-2.616151979825487750e+00
-2.613749181183575132e+00,-1.742499454122383273e+00,-2.613749181183575132e+00,-2.178124317652979425e+00,-2.613749181183575132e+00,-1.742499454122383273e+00,-2.613749181183575132e+00
-2.611338885510018137e+00,-1.740892590340012314e+00,-2.611338885510018137e+00,-2.176115737925015114e+00,-2.611338885510018137e+00,-1.740892590340012314e+00,-2.611338885510018137e+00
-2.608921092804817654e+00,-1.739280728536545029e+00,-2.608921092804817654e+00,-2.174100910670681230e+00,-2.608921092804817654e+00,-1.739280728536545029e+00,-2.608921092804817654e+00
-2.606495803067972794e+00,-1.737663868711981863e+00,-2.606495803067972794e+00,-2.172079835889977328e+00,-2.606495803067972794e+00,-1.737663868711981863e+00,-2.606495803067972794e+00
-2.604063016299484001e+00,-1.736042010866322594e+00,-2.604063016299484001e+00,-2.170052513582903408e+00,-2.604063016299484001e+00,-1.736042010866322594e+00,-2.604063016299484001e+00
-2.601622732499350832e+00,-1.734415154999567221e+00,-2.601622732499350832e+00,-2.168018943749459027e+00,-2.601622732499350832e+00,-1.734415154999567221e+00,-2.601622732499350832e+00
-2.599174951667574174e+00,-1.732783301111715968e+00,-2.599174951667574174e+00,-2.165979126389645071e+00,-2.599174951667574174e+00,-1.732783301111715968e+00,-2.599174951667574174e+00
-2.596719673804153139e+00,-1.731146449202768611e+00,-2.596719673804153139e+00,-2.163933061503461097e+00,-2.596719673804153139e+00,-1.731146449202768611e+00,-2.596719673804153139e+00
-2.594256898909088171e+00,-1.729504599272725374e+00,-2.594256898909088171e+00,-2.161880749090906662e+00,-2.594256898909088171e+00,-1.729504599272725374e+00,-2.594256898909088171e+00
-2.591786626982378827e+00,-1.727857751321586033e+00,-2.591786626982378827e+00,-2.159822189151982652e+00,-2.591786626982378827e+00,-1.727857751321586033e+00,-2.591786626982378827e+00
-2.589308858024025994e+00,-1.726205905349350589e+00,-2.589308858024025994e+00,-2.157757381686688181e+00,-2.589308858024025994e+00,-1.726205905349350589e+00,-2.589308858024025994e+00
-2.586823592034028785e+00,-1.724549061356019264e+00,-2.586823592034028785e+00,-2.155686326695024135e+00,-2.586823592034028785e+00,-1.724549061356019264e+00,-2.586823592034028785e+00
-2.584330829012388087e+00,-1.722887219341591836e+00,-2.584330829012388087e+00,-2.153609024176989628e+00,-2.584330829012388087e+00,-1.722887219341591836e+00,-2.584330829012388087e+00
-2.581830568959102568e+00,-1.721220379306068526e+00,-2.581830568959102568e+00,-2.151525474132585547e+00,-2.581830568959102568e+00,-1.721220379306068526e+00,-2.581830568959102568e+00
-2.579322811874173560e+00,-1.719548541249448892e+00,-2.579322811874173560e+00,-2.149435676561811448e+00,-2.579322811874173560e+00,-1.719548541249448892e+00,-2.579322811874173560e+00
-2.576807557757600176e+00,-1.717871705171733598e+00,-2.576807557757600176e+00,-2.147339631464666887e+00,-2.576807557757600176e+00,-1.717871705171733598e+00,-2.576807557757600176e+00
-2.574284806609382859e+00,-1.716189871072921980e+00,-2.574284806609382859e+00,-2.145237338841152308e+00,-2.574284806609382859e+00,-1.716189871072921980e+00,-2.574284806609382859e+00
-2.571754558429521609e+00,-1.714503038953014480e+00,-2.571754558429521609e+00,-2.143128798691268155e+00,-2.571754558429521609e+00,-1.714503038953014480e+00,-2.571754558429521609e+00
-2.569216813218016426e+00,-1.712811208812010877e+00,-2.569216813218016426e+00,-2.141014011015013541e+00,-2.569216813218016426e+00,-1.712811208812010877e+00,-2.569216813218016426e+00
-2.566671570974866867e+00,-1.711114380649911393e+00,-2.566671570974866867e+00,-2.138892975812389352e+00,-2.566671570974866867e+00,-1.711114380649911393e+00,-2.566671570974866867e+00
-2.564118831700073819e+00,-1.709412554466715806e+00,-2.564118831700073819e+00,-2.136765693083394702e+00,-2.564118831700073819e+00,-1.709412554466715806e+00,-2.564118831700073819e+00
-2.561558595393636395e+00,-1.707705730262424115e+00,-2.561558595393636395e+00,-2.134632162828030033e+00,-2.561558595393636395e+00,-1.707705730262424115e+00,-2.561558595393636395e+00
-2.558990862055554594e+00,-1.705993908037036544e+00,-2.558990862055554594e+00,-2.132492385046295791e+00,-2.558990862055554594e+00,-1.705993908037036544e+00,-2.558990862055554594e+00
-2.556415631685829304e+00,-1.704277087790552869e+00,-2.556415631685829304e+00,-2.130346359738191087e+00,-2.556415631685829304e+00,-1.704277087790552869e+00,-2.556415631685829304e+00
-2.553832904284459637e+00,-1.702555269522973092e+00,-2.553832904284459637e+00,-2.128194086903716364e+00,-2.553832904284459637e+00,-1.702555269522973092e+00,-2.553832904284459637e+00
-2.551242679851446482e+00,-1.700828453234297433e+00,-2.551242679851446482e+00,-2.126035566542872068e+00,-2.551242679851446482e+00,-1.700828453234297433e+00,-2.551242679851446482e+00
-2.548644958386788506e+00,-1.699096638924525671e+00,-2.548644958386788506e+00,-2.123870798655657310e+00,-2.548644958386788506e+00,-1.699096638924525671e+00,-2.548644958386788506e+00
-2.546039739890487041e+00,-1.697359826593658028e+00,-2.546039739890487041e+00,-2.121699783242072535e+00,-2.546039739890487041e+00,-1.697359826593658028e+00,-2.546039739890487041e+00
-2.543427024362541644e+00,-1.695618016241694281e+00,-2.543427024362541644e+00,-2.119522520302117741e+00,-2.543427024362541644e+00,-1.695618016241694281e+00,-2.543427024362541644e+00
-2.540806811802951870e+00,-1.693871207868634432e+00,-2.540806811802951870e+00,-2.117339009835792929e+00,-2.540806811802951870e+00,-1.693871207868634432e+00,-2.540806811802951870e+00
-2.538179102211718163e+00,-1.692119401474478702e+00,-2.538179102211718163e+00,-2.115149251843098099e+00,-2.538179102211718163e+00,-1.692119401474478702e+00,-2.538179102211718163e+00
-2.535543895588840080e+00,-1.690362597059226868e+00,-2.535543895588840080e+00,-2.112953246324033252e+00,-2.535543895588840080e+00,-1.690362597059226868e+00,-2.535543895588840080e+00
-2.532901191934318508e+00,-1.688600794622878931e+00,-2.532901191934318508e+00,-2.110750993278598386e+00,-2.532901191934318508e+00,-1.688600794622878931e+00,-2.532901191934318508e+00
-2.530250991248152559e+00,-1.686833994165435113e+00,-2.530250991248152559e+00,-2.108542492706793947e+00,-2.530250991248152559e+00,-1.686833994165435113e+00,-2.530250991248152559e+00
-2.527593293530342677e+00,-1.685062195686894970e+00,-2.527593293530342677e+00,-2.106327744608619046e+00,-2.527593293530342677e+00,-1.685062195686894970e+00,-2.527593293530342677e+00
-2.524928098780888863e+00,-1.683285399187259168e+00,-2.524928098780888863e+00,-2.104106748984074127e+00,-2.524928098780888863e+00,-1.683285399187259168e+00,-2.524928098780888863e+00
-2.522255406999791116e+00,-1.681503604666527263e+00,-2.522255406999791116e+00,-2.101879505833159190e+00,-2.522255406999791116e+00,-1.681503604666527263e+00,-2.522255406999791116e+00
-2.519575218187048993e+00,-1.679716812124699254e+00,-2.519575218187048993e+00,-2.099646015155874235e+00,-2.519575218187048993e+00,-1.679716812124699254e+00,-2.519575218187048993e+00
-2.516887532342662936e+00,-1.677925021561775365e+00,-2.516887532342662936e+00,-2.097406276952219262e+00,-2.516887532342662936e+00,-1.677925021561775365e+00,-2.516887532342662936e+00
-2.514192349466632947e+00,-1.676128232977755372e+00,-2.514192349466632947e+00,-2.095160291222194271e+00,-2.514192349466632947e+00,-1.676128232977755372e+00,-2.514192349466632947e+00
-2.511489669558959026e+00,-1.674326446372639277e+00,-2.511489669558959026e+00,-2.092908057965799262e+00,-2.511489669558959026e+00,-1.674326446372639277e+00,-2.511489669558959026e+00
-2.508779492619640727e+00,-1.672519661746427078e+00,-2.508779492619640727e+00,-2.090649577183033792e+00,-2.508779492619640727e+00,-1.672519661746427078e+00,-2.508779492619640727e+00
-2.506061818648678496e+00,-1.670707879099118998e+00,-2.506061818648678496e+00,-2.088384848873898747e+00,-2.506061818648678496e+00,-1.670707879099118998e+00,-2.506061818648678496e+00
-2.503336647646072777e+00,-1.668891098430715036e+00,-2.503336647646072777e+00,-2.086113873038393685e+00,-2.503336647646072777e+00,-1.668891098430715036e+00,-2.503336647646072777e+00
-2.500603979611822236e+00,-1.667069319741214972e+00,-2.500603979611822236e+00,-2.083836649676518604e+00,-2.500603979611822236e+00,-1.667069319741214972e+00,-2.500603979611822236e+00
-2.497863814545928207e+00,-1.665242543030618805e+00,-2.497863814545928207e+00,-2.081553178788273506e+00,-2.497863814545928207e+00,-1.665242543030618805e+00,-2.497863814545928207e+00
-2.495116152448389801e+00,-1.663410768298926534e+00,-2.495116152448389801e+00,-2.079263460373658390e+00,-2.495116152448389801e+00,-1.663410768298926534e+00,-2.495116152448389801e+00
-2.492360993319207907e+00,-1.661573995546138383e+00,-2.492360993319207907e+00,-2.076967494432672812e+00,-2.492360993319207907e+00,-1.661573995546138383e+00,-2.492360993319207907e+00
-2.489598337158381192e+00,-1.659732224772254128e+00,-2.489598337158381192e+00,-2.074665280965317660e+00,-2.489598337158381192e+00,-1.659732224772254128e+00,-2.489598337158381192e+00
-2.486828183965910988e+00,-1.657885455977273992e+00,-2.486828183965910988e+00,-2.072356819971592490e+00,-2.486828183965910988e+00,-1.657885455977273992e+00,-2.486828183965910988e+00
-2.484050533741796407e+00,-1.656033689161197753e+00,-2.484050533741796407e+00,-2.070042111451497302e+00,-2.484050533741796407e+00,-1.656033689161197753e+00,-2.484050533741796407e+00
-2.481265386486038338e+00,-1.654176924324025411e+00,-2.481265386486038338e+00,-2.067721155405031652e+00,-2.481265386486038338e+00,-1.654176924324025411e+00,-2.481265386486038338e+00
-2.478472742198635892e+00,-1.652315161465756965e+00,-2.478472742198635892e+00,-2.065393951832196429e+00,-2.478472742198635892e+00,-1.652315161465756965e+00,-2.478472742198635892e+00
-2.475672600879589069e+00,-1.650448400586392861e+00,-2.475672600879589069e+00,-2.063060500732991187e+00,-2.475672600879589069e+00,-1.650448400586392861e+00,-2.475672600879589069e+00
-2.472864962528898758e+00,-1.648576641685932431e+00,-2.472864962528898758e+00,-2.060720802107415484e+00,-2.472864962528898758e+00,-1.648576641685932431e+00,-2.472864962528898758e+00
-2.470049827146564070e+00,-1.646699884764375899e+00,-2.470049827146564070e+00,-2.058374855955470206e+00,-2.470049827146564070e+00,-1.646699884764375899e+00,-2.470049827146564070e+00
-2.467227194732585449e+00,-1.644818129821723707e+00,-2.467227194732585449e+00,-2.056022662277154467e+00,-2.467227194732585449e+00,-1.644818129821723707e+00,-2.467227194732585449e+00
-2.464397065286962896e+00,-1.642931376857975190e+00,-2.464397065286962896e+00,-2.053664221072469154e+00,-2.464397065286962896e+00,-1.642931376857975190e+00,-2.464397065286962896e+00
-2.461559438809696410e+00,-1.641039625873130792e+00,-2.461559438809696410e+00,-2.051299532341413379e+00,-2.461559438809696410e+00,-1.641039625873130792e+00,-2.461559438809696410e+00
-2.458714315300785547e+00,-1.639142876867190290e+00,-2.458714315300785547e+00,-2.048928596083988030e+00,-2.458714315300785547e+00,-1.639142876867190290e+00,-2.458714315300785547e+00
-2.455861694760230751e+00,-1.637241129840153686e+00,-2.455861694760230751e+00,-2.046551412300192219e+00,-2.455861694760230751e+00,-1.637241129840153686e+00,-2.455861694760230751e+00
-2.453001577188032023e+00,-1.635334384792021201e+00,-2.453001577188032023e+00,-2.044167980990026834e+00,-2.453001577188032023e+00,-1.635334384792021201e+00,-2.453001577188032023e+00
-2.450133962584189362e+00,-1.633422641722792834e+00,-2.450133962584189362e+00,-2.041778302153490987e+00,-2.450133962584189362e+00,-1.633422641722792834e+00,-2.450133962584189362e+00
-2.447258850948702325e+00,-1.631505900632468364e+00,-2.447258850948702325e+00,-2.039382375790585566e+00,-2.447258850948702325e+00,-1.631505900632468364e+00,-2.447258850948702325e+00
-2.444376242281571798e+00,-1.629584161521047569e+00,-2.444376242281571798e+00,-2.036980201901309684e+00,-2.444376242281571798e+00,-1.629584161521047569e+00,-2.444376242281571798e+00
-2.441486136582796895e+00,-1.627657424388531116e+00,-2.441486136582796895e+00,-2.034571780485663783e+00,-2.441486136582796895e+00,-1.627657424388531116e+00,-2.441486136582796895e+00
-2.438588533852377616e+00,-1.625725689234918558e+00,-2.438588533852377616e+00,-2.032157111543648309e+00,-2.438588533852377616e+00,-1.625725689234918558e+00,-2.438588533852377616e+00
-2.435683434090314847e+00,-1.623788956060209898e+00,-2.435683434090314847e+00,-2.029736195075262373e+00,-2.435683434090314847e+00,-1.623788956060209898e+00,-2.435683434090314847e+00
-2.432770837296607702e+00,-1.621847224864405135e+00,-2.432770837296607702e+00,-2.027309031080506418e+00,-2.432770837296607702e+00,-1.621847224864405135e+00,-2.432770837296607702e+00
-2.429850743471257069e+00,-1.619900495647504490e+00,-2.429850743471257069e+00,-2.024875619559380446e+00,-2.429850743471257069e+00,-1.619900495647504490e+00,-2.429850743471257069e+00
-2.426923152614261614e+00,-1.617948768409507743e+00,-2.426923152614261614e+00,-2.022435960511884900e+00,-2.426923152614261614e+00,-1.617948768409507743e+00,-2.426923152614261614e+00
-2.423988064725622671e+00,-1.615992043150415114e+00,-2.423988064725622671e+00,-2.019990053938018892e+00,-2.423988064725622671e+00,-1.615992043150415114e+00,-2.423988064725622671e+00
-2.421045479805339351e+00,-1.614030319870226382e+00,-2.421045479805339351e+00,-2.017537899837782867e+00,-2.421045479805339351e+00,-1.614030319870226382e+00,-2.421045479805339351e+00
-2.418095397853412543e+00,-1.612063598568941547e+00,-2.418095397853412543e+00,-2.015079498211176823e+00,-2.418095397853412543e+00,-1.612063598568941547e+00,-2.418095397853412543e+00
-2.415137818869841357e+00,-1.610091879246560609e+00,-2.415137818869841357e+00,-2.012614849058200761e+00,-2.415137818869841357e+00,-1.610091879246560609e+00,-2.415137818869841357e+00
-2.412172742854625795e+00,-1.608115161903084012e+00,-2.412172742854625795e+00,-2.010143952378855126e+00,-2.412172742854625795e+00,-1.608115161903084012e+00,-2.412172742854625795e+00
-2.409200169807766745e+00,-1.606133446538511089e+00,-2.409200169807766745e+00,-2.007666808173138584e+00,-2.409200169807766745e+00,-1.606133446538511089e+00,-2.409200169807766745e+00
-2.406220099729263318e+00,-1.604146733152842064e+00,-2.406220099729263318e+00,-2.005183416441052913e+00,-2.406220099729263318e+00,-1.604146733152842064e+00,-2.406220099729263318e+00
-2.403232532619115958e+00,-1.602155021746077379e+00,-2.403232532619115958e+00,-2.002693777182596779e+00,-2.403232532619115958e+00,-1.602155021746077379e+00,-2.403232532619115958e+00
-2.400237468477324665e+00,-1.600158312318216369e+00,-2.400237468477324665e+00,-2.000197890397770628e+00,-2.400237468477324665e+00,-1.600158312318216369e+00,-2.400237468477324665e+00
-2.397234907303888996e+00,-1.598156604869259478e+00,-2.397234907303888996e+00,-1.997695756086574459e+00,-2.397234907303888996e+00,-1.598156604869259478e+00,-2.397234907303888996e+00
-2.394224849098809837e+00,-1.596149899399206484e+00,-2.394224849098809837e+00,-1.995187374249008272e+00,-2.394224849098809837e+00,-1.596149899399206484e+00,-2.394224849098809837e+00
-2.391207293862086303e+00,-1.594138195908057387e+00,-2.391207293862086303e+00,-1.992672744885071845e+00,-2.391207293862086303e+00,-1.594138195908057387e+00,-2.391207293862086303e+00
-2.388182241593718835e+00,-1.592121494395812631e+00,-2.388182241593718835e+00,-1.990151867994765844e+00,-2.388182241593718835e+00,-1.592121494395812631e+00,-2.388182241593718835e+00
-2.385149692293707435e+00,-1.590099794862471549e+00,-2.385149692293707435e+00,-1.987624743578089381e+00,-2.385149692293707435e+00,-1.590099794862471549e+00,-2.385149692293707435e+00
-2.382109645962051658e+00,-1.588073097308034365e+00,-2.382109645962051658e+00,-1.985091371635042901e+00,-2.382109645962051658e+00,-1.588073097308034365e+00,-2.382109645962051658e+00
-2.379062102598751949e+00,-1.586041401732501521e+00,-2.379062102598751949e+00,-1.982551752165626846e+00,-2.379062102598751949e+00,-1.586041401732501521e+00,-2.379062102598751949e+00
-2.376007062203808751e+00,-1.584004708135872352e+00,-2.376007062203808751e+00,-1.980005885169840329e+00,-2.376007062203808751e+00,-1.584004708135872352e+00,-2.376007062203808751e+00
-2.372944524777221176e+00,-1.581963016518147302e+00,-2.372944524777221176e+00,-1.977453770647684017e+00,-2.372944524777221176e+00,-1.581963016518147302e+00,-2.372944524777221176e+00
-2.369874490318989224e+00,-1.579916326879326149e+00,-2.369874490318989224e+00,-1.974895408599157687e+00,-2.369874490318989224e+00,-1.579916326879326149e+00,-2.369874490318989224e+00
-2.366796958829113784e+00,-1.577864639219408893e+00,-2.366796958829113784e+00,-1.972330799024261117e+00,-2.366796958829113784e+00,-1.577864639219408893e+00,-2.366796958829113784e+00
-2.363711930307593967e+00,-1.575807953538395756e+00,-2.363711930307593967e+00,-1.969759941922994528e+00,-2.363711930307593967e+00,-1.575807953538395756e+00,-2.363711930307593967e+00
-2.360619404754430217e+00,-1.573746269836286515e+00,-2.360619404754430217e+00,-1.967182837295358144e+00,-2.360619404754430217e+00,-1.573746269836286515e+00,-2.360619404754430217e+00
-2.357519382169622091e+00,-1.571679588113081394e+00,-2.357519382169622091e+00,-1.964599485141351742e+00,-2.357519382169622091e+00,-1.571679588113081394e+00,-2.357519382169622091e+00
-2.354411862553170032e+00,-1.569607908368780169e+00,-2.354411862553170032e+00,-1.962009885460975100e+00,-2.354411862553170032e+00,-1.569607908368780169e+00,-2.354411862553170032e+00
-2.351296845905074484e+00,-1.567531230603382841e+00,-2.351296845905074484e+00,-1.959414038254228663e+00,-2.351296845905074484e+00,-1.567531230603382841e+00,-2.351296845905074484e+00
-2.348174332225334560e+00,-1.565449554816889410e+00,-2.348174332225334560e+00,-1.956811943521111985e+00,-2.348174332225334560e+00,-1.565449554816889410e+00,-2.348174332225334560e+00
-2.345044321513950258e+00,-1.563362881009300320e+00,-2.345044321513950258e+00,-1.954203601261625511e+00,-2.345044321513950258e+00,-1.563362881009300320e+00,-2.345044321513950258e+00
-2.341906813770922469e+00,-1.561271209180614905e+00,-2.341906813770922469e+00,-1.951589011475768576e+00,-2.341906813770922469e+00,-1.561271209180614905e+00,-2.341906813770922469e+00
-2.338761808996250302e+00,-1.559174539330833609e+00,-2.338761808996250302e+00,-1.948968174163542066e+00,-2.338761808996250302e+00,-1.559174539330833609e+00,-2.338761808996250302e+00
-2.335609307189934203e+00,-1.557072871459956209e+00,-2.335609307189934203e+00,-1.946341089324945317e+00,-2.335609307189934203e+00,-1.557072871459956209e+00,-2.335609307189934203e+00
-2.332449308351974615e+00,-1.554966205567982929e+00,-2.332449308351974615e+00,-1.943707756959978550e+00,-2.332449308351974615e+00,-1.554966205567982929e+00,-2.332449308351974615e+00
-2.329281812482370206e+00,-1.552854541654913323e+00,-2.329281812482370206e+00,-1.941068177068641765e+00,-2.329281812482370206e+00,-1.552854541654913323e+00,-2.329281812482370206e+00
-2.326106819581121865e+00,-1.550737879720748058e+00,-2.326106819581121865e+00,-1.938422349650934962e+00,-2.326106819581121865e+00,-1.550737879720748058e+00,-2.326106819581121865e+00
-2.322924329648230035e+00,-1.548616219765486468e+00,-2.322924329648230035e+00,-1.935770274706858141e+00,-2.322924329648230035e+00,-1.548616219765486468e+00,-2.322924329648230035e+00
-2.319734342683693384e+00,-1.546489561789128997e+00,-2.319734342683693384e+00,-1.933111952236411302e+00,-2.319734342683693384e+00,-1.546489561789128997e+00,-2.319734342683693384e+00
-2.316536858687513245e+00,-1.544357905791675645e+00,-2.316536858687513245e+00,-1.930447382239594445e+00,-2.316536858687513245e+00,-1.544357905791675645e+00,-2.316536858687513245e+00
-2.313331877659689173e+00,-1.542221251773125967e+00,-2.313331877659689173e+00,-1.927776564716407570e+00,-2.313331877659689173e+00,-1.542221251773125967e+00,-2.313331877659689173e+00
-2.310119399600220724e+00,-1.540079599733480409e+00,-2.310119399600220724e+00,-1.925099499666850456e+00,-2.310119399600220724e+00,-1.540079599733480409e+00,-2.310119399600220724e+00
-2.306899424509108343e+00,-1.537932949672738969e+00,-2.306899424509108343e+00,-1.922416187090923767e+00,-2.306899424509108343e+00,-1.537932949672738969e+00,-2.306899424509108343e+00
-2.303671952386352029e+00,-1.535781301590901204e+00,-2.303671952386352029e+00,-1.919726626988626617e+00,-2.303671952386352029e+00,-1.535781301590901204e+00,-2.303671952386352029e+00
-2.300436983231951338e+00,-1.533624655487967559e+00,-2.300436983231951338e+00,-1.917030819359959448e+00,-2.300436983231951338e+00,-1.533624655487967559e+00,-2.300436983231951338e+00
-2.297194517045907158e+00,-1.531463011363938032e+00,-2.297194517045907158e+00,-1.914328764204922484e+00,-2.297194517045907158e+00,-1.531463011363938032e+00,-2.297194517045907158e+00
-2.293944553828218602e+00,-1.529296369218812401e+00,-2.293944553828218602e+00,-1.911620461523515502e+00,-2.293944553828218602e+00,-1.529296369218812401e+00,-2.293944553828218602e+00
-2.290687093578886113e+00,-1.527124729052590446e+00,-2.290687093578886113e+00,-1.908905911315738280e+00,-2.290687093578886113e+00,-1.527124729052590446e+00,-2.290687093578886113e+00
-2.287422136297909692e+00,-1.524948090865273054e+00,-2.287422136297909692e+00,-1.906185113581591262e+00,-2.287422136297909692e+00,-1.524948090865273054e+00,-2.287422136297909692e+00
-2.284149681985288893e+00,-1.522766454656859114e+00,-2.284149681985288893e+00,-1.903458068321073782e+00,-2.284149681985288893e+00,-1.522766454656859114e+00,-2.284149681985288893e+00
-2.280869730641024162e+00,-1.520579820427349294e+00,-2.280869730641024162e+00,-1.900724775534186728e+00,-2.280869730641024162e+00,-1.520579820427349294e+00,-2.280869730641024162e+00
-2.277582282265115943e+00,-1.518388188176743814e+00,-2.277582282265115943e+00,-1.897985235220929656e+00,-2.277582282265115943e+00,-1.518388188176743814e+00,-2.277582282265115943e+00
-2.274287336857562902e+00,-1.516191557905041787e+00,-2.274287336857562902e+00,-1.895239447381302345e+00,-2.274287336857562902e+00,-1.516191557905041787e+00,-2.274287336857562902e+00
-2.270984894418366373e+00,-1.513989929612244101e+00,-2.270984894418366373e+00,-1.892487412015305015e+00,-2.270984894418366373e+00,-1.513989929612244101e+00,-2.270984894418366373e+00
-2.267674954947525467e+00,-1.511783303298350312e+00,-2.267674954947525467e+00,-1.889729129122937668e+00,-2.267674954947525467e+00,-1.511783303298350312e+00,-2.267674954947525467e+00
-2.264357518445040629e+00,-1.509571678963360419e+00,-2.264357518445040629e+00,-1.886964598704200302e+00,-2.264357518445040629e+00,-1.509571678963360419e+00,-2.264357518445040629e+00
-2.261032584910911858e+00,-1.507355056607274424e+00,-2.261032584910911858e+00,-1.884193820759092919e+00,-2.261032584910911858e+00,-1.507355056607274424e+00,-2.261032584910911858e+00
-2.257700154345139154e+00,-1.505133436230092547e+00,-2.257700154345139154e+00,-1.881416795287615740e+00,-2.257700154345139154e+00,-1.505133436230092547e+00,-2.257700154345139154e+00
-2.254360226747722074e+00,-1.502906817831814568e+00,-2.254360226747722074e+00,-1.878633522289768099e+00,-2.254360226747722074e+00,-1.502906817831814568e+00,-2.254360226747722074e+00
-2.251012802118661060e+00,-1.500675201412440707e+00,-2.251012802118661060e+00,-1.875844001765551106e+00,-2.251012802118661060e+00,-1.500675201412440707e+00,-2.251012802118661060e+00
-2.247657880457956114e+00,-1.498438586971970743e+00,-2.247657880457956114e+00,-1.873048233714963429e+00,-2.247657880457956114e+00,-1.498438586971970743e+00,-2.247657880457956114e+00
-2.244295461765607236e+00,-1.496196974510404676e+00,-2.244295461765607236e+00,-1.870246218138005734e+00,-2.244295461765607236e+00,-1.496196974510404676e+00,-2.244295461765607236e+00
-2.240925546041613980e+00,-1.493950364027742728e+00,-2.240925546041613980e+00,-1.867437955034678243e+00,-2.240925546041613980e+00,-1.493950364027742728e+00,-2.240925546041613980e+00
-2.237548133285977237e+00,-1.491698755523984676e+00,-2.237548133285977237e+00,-1.864623444404980734e+00,-2.237548133285977237e+00,-1.491698755523984676e+00,-2.237548133285977237e+00
-2.234163223498695672e+00,-1.489442148999130522e+00,-2.234163223498695672e+00,-1.861802686248913208e+00,-2.234163223498695672e+00,-1.489442148999130522e+00,-2.234163223498695672e+00
-2.230770816679770618e+00,-1.487180544453180486e+00,-2.230770816679770618e+00,-1.858975680566475663e+00,-2.230770816679770618e+00,-1.487180544453180486e+00,-2.230770816679770618e+00
-2.227370912829201632e+00,-1.484913941886134348e+00,-2.227370912829201632e+00,-1.856142427357668101e+00,-2.227370912829201632e+00,-1.484913941886134348e+00,-2.227370912829201632e+00
-2.223963511946988270e+00,-1.482642341297992328e+00,-2.223963511946988270e+00,-1.853302926622490077e+00,-2.223963511946988270e+00,-1.482642341297992328e+00,-2.223963511946988270e+00
-2.220548614033131418e+00,-1.480365742688753983e+00,-2.220548614033131418e+00,-1.850457178360942478e+00,-2.220548614033131418e+00,-1.480365742688753983e+00,-2.220548614033131418e+00
-2.217126219087630190e+00,-1.478084146058419979e+00,-2.217126219087630190e+00,-1.847605182573024862e+00,-2.217126219087630190e+00,-1.478084146058419979e+00,-2.217126219087630190e+00
-2.213696327110484585e+00,-1.475797551406989427e+00,-2.213696327110484585e+00,-1.844746939258737006e+00,-2.213696327110484585e+00,-1.475797551406989427e+00,-2.213696327110484585e+00
-2.210258938101695492e+00,-1.473505958734463661e+00,-2.210258938101695492e+00,-1.841882448418079354e+00,-2.210258938101695492e+00,-1.473505958734463661e+00,-2.210258938101695492e+00
-2.206814052061262021e+00,-1.471209368040841348e+00,-2.206814052061262021e+00,-1.839011710051051463e+00,-2.206814052061262021e+00,-1.471209368040841348e+00,-2.206814052061262021e+00
-2.203361668989184619e+00,-1.468907779326122931e+00,-2.203361668989184619e+00,-1.836134724157653553e+00,-2.203361668989184619e+00,-1.468907779326122931e+00,-2.203361668989184619e+00
-2.199901788885463283e+00,-1.466601192590308855e+00,-2.199901788885463283e+00,-1.833251490737886069e+00,-2.199901788885463283e+00,-1.466601192590308855e+00,-2.199901788885463283e+00
-2.196434411750097571e+00,-1.464289607833398232e+00,-2.196434411750097571e+00,-1.830362009791747901e+00,-2.196434411750097571e+00,-1.464289607833398232e+00,-2.196434411750097571e+00
-2.192959537583087926e+00,-1.461973025055391950e+00,-2.192959537583087926e+00,-1.827466281319239938e+00,-2.192959537583087926e+00,-1.461973025055391950e+00,-2.192959537583087926e+00
-2.189477166384434792e+00,-1.459651444256289565e+00,-2.189477166384434792e+00,-1.824564305320362179e+00,-2.189477166384434792e+00,-1.459651444256289565e+00,-2.189477166384434792e+00
-2.185987298154136838e+00,-1.457324865436091299e+00,-2.185987298154136838e+00,-1.821656081795114179e+00,-2.185987298154136838e+00,-1.457324865436091299e+00,-2.185987298154136838e+00
-2.182489932892195394e+00,-1.454993288594796930e+00,-2.182489932892195394e+00,-1.818741610743495940e+00,-2.182489932892195394e+00,-1.454993288594796930e+00,-2.182489932892195394e+00
-2.178985070598610019e+00,-1.452656713732406679e+00,-2.178985070598610019e+00,-1.815820892165508127e+00,-2.178985070598610019e+00,-1.452656713732406679e+00,-2.178985070598610019e+00
-2.175472711273379822e+00,-1.450315140848919881e+00,-2.175472711273379822e+00,-1.812893926061149852e+00,-2.175472711273379822e+00,-1.450315140848919881e+00,-2.175472711273379822e+00
-2.171952854916506581e+00,-1.447968569944337425e+00,-2.171952854916506581e+00,-1.809960712430421781e+00,-2.171952854916506581e+00,-1.447968569944337425e+00,-2.171952854916506581e+00
-2.168425501527988963e+00,-1.445617001018659087e+00,-2.168425501527988963e+00,-1.807021251273323914e+00,-2.168425501527988963e+00,-1.445617001018659087e+00,-2.168425501527988963e+00
-2.164890651107826969e+00,-1.443260434071884646e+00,-2.164890651107826969e+00,-1.804075542589855807e+00,-2.164890651107826969e+00,-1.443260434071884646e+00,-2.164890651107826969e+00
-2.161348303656021042e+00,-1.440898869104014102e+00,-2.161348303656021042e+00,-1.801123586380017683e+00,-2.161348303656021042e+00,-1.440898869104014102e+00,-2.161348303656021042e+00
-2.157798459172571626e+00,-1.438532306115047454e+00,-2.157798459172571626e+00,-1.798165382643809318e+00,-2.157798459172571626e+00,-1.438532306115047454e+00,-2.157798459172571626e+00
-2.154241117657477389e+00,-1.436160745104984926e+00,-2.154241117657477389e+00,-1.795200931381231158e+00,-2.154241117657477389e+00,-1.436160745104984926e+00,-2.154241117657477389e+00
-2.150676279110739220e+00,-1.433784186073826294e+00,-2.150676279110739220e+00,-1.792230232592282757e+00,-2.150676279110739220e+00,-1.433784186073826294e+00,-2.150676279110739220e+00
-2.147103943532357562e+00,-1.431402629021571560e+00,-2.147103943532357562e+00,-1.789253286276964561e+00,-2.147103943532357562e+00,-1.431402629021571560e+00,-2.147103943532357562e+00
-2.143524110922331527e+00,-1.429016073948220944e+00,-2.143524110922331527e+00,-1.786270092435276347e+00,-2.143524110922331527e+00,-1.429016073948220944e+00,-2.143524110922331527e+00
-2.139936781280662004e+00,-1.426624520853774447e+00,-2.139936781280662004e+00,-1.783280651067218114e+00,-2.139936781280662004e+00,-1.426624520853774447e+00,-2.139936781280662004e+00
-2.136341954607347660e+00,-1.424227969738231625e+00,-2.136341954607347660e+00,-1.780284962172789420e+00,-2.136341954607347660e+00,-1.424227969738231625e+00,-2.136341954607347660e+00
-2.132739630902389383e+00,-1.421826420601592922e+00,-2.132739630902389383e+00,-1.777283025751991152e+00,-2.132739630902389383e+00,-1.421826420601592922e+00,-2.132739630902389383e+00
-2.129129810165787617e+00,-1.419419873443858116e+00,-2.129129810165787617e+00,-1.774274841804822866e+00,-2.129129810165787617e+00,-1.419419873443858116e+00,-2.129129810165787617e+00
-2.125512492397541475e+00,-1.417008328265027650e+00,-2.125512492397541475e+00,-1.771260410331284341e+00,-2.125512492397541475e+00,-1.417008328265027650e+00,-2.125512492397541475e+00
-2.121887677597650956e+00,-1.414591785065100638e+00,-2.121887677597650956e+00,-1.768239731331375797e+00,-2.121887677597650956e+00,-1.414591785065100638e+00,-2.121887677597650956e+00
-2.118255365766116949e+00,-1.412170243844077966e+00,-2.118255365766116949e+00,-1.765212804805097457e+00,-2.118255365766116949e+00,-1.412170243844077966e+00,-2.118255365766116949e+00
-2.114615556902938565e+00,-1.409743704601958969e+00,-2.114615556902938565e+00,-1.762179630752448656e+00,-2.114615556902938565e+00,-1.409743704601958969e+00,-2.114615556902938565e+00
-2.110968251008116248e+00,-1.407312167338744091e+00,-2.110968251008116248e+00,-1.759140209173430058e+00,-2.110968251008116248e+00,-1.407312167338744091e+00,-2.110968251008116248e+00
-2.107313448081650442e+00,-1.404875632054433332e+00,-2.107313448081650442e+00,-1.756094540068041887e+00,-2.107313448081650442e+00,-1.404875632054433332e+00,-2.107313448081650442e+00
-2.103651148123539816e+00,-1.402434098749026248e+00,-2.103651148123539816e+00,-1.753042623436283032e+00,-2.103651148123539816e+00,-1.402434098749026248e+00,-2.103651148123539816e+00
-2.099981351133785257e+00,-1.399987567422523504e+00,-2.099981351133785257e+00,-1.749984459278154159e+00,-2.099981351133785257e+00,-1.399987567422523504e+00,-2.099981351133785257e+00
-2.096304057112387209e+00,-1.397536038074924658e+00,-2.096304057112387209e+00,-1.746920047593655712e+00,-2.096304057112387209e+00,-1.397536038074924658e+00,-2.096304057112387209e+00
-2.092619266059344341e+00,-1.395079510706229708e+00,-2.092619266059344341e+00,-1.743849388382786803e+00,-2.092619266059344341e+00,-1.395079510706229708e+00,-2.092619266059344341e+00
-2.088926977974657984e+00,-1.392617985316438656e+00,-2.088926977974657984e+00,-1.740772481645548098e+00,-2.088926977974657984e+00,-1.392617985316438656e+00,-2.088926977974657984e+00
-2.085227192858327694e+00,-1.390151461905551500e+00,-2.085227192858327694e+00,-1.737689327381939597e+00,-2.085227192858327694e+00,-1.390151461905551500e+00,-2.085227192858327694e+00
-2.081519910710353027e+00,-1.387679940473568685e+00,-2.081519910710353027e+00,-1.734599925591960634e+00,-2.081519910710353027e+00,-1.387679940473568685e+00,-2.081519910710353027e+00
-2.077805131530734428e+00,-1.385203421020489323e+00,-2.077805131530734428e+00,-1.731504276275611875e+00,-2.077805131530734428e+00,-1.385203421020489323e+00,-2.077805131530734428e+00
-2.074082855319471896e+00,-1.382721903546314524e+00,-2.074082855319471896e+00,-1.728402379432893099e+00,-2.074082855319471896e+00,-1.382721903546314524e+00,-2.074082855319471896e+00
-2.070353082076564988e+00,-1.380235388051043399e+00,-2.070353082076564988e+00,-1.725294235063804305e+00,-2.070353082076564988e+00,-1.380235388051043399e+00,-2.070353082076564988e+00
-2.066615811802014591e+00,-1.377743874534676394e+00,-2.066615811802014591e+00,-1.722179843168345492e+00,-2.066615811802014591e+00,-1.377743874534676394e+00,-2.066615811802014591e+00
-2.062871044495819817e+00,-1.375247362997213063e+00,-2.062871044495819817e+00,-1.719059203746516440e+00,-2.062871044495819817e+00,-1.375247362997213063e+00,-2.062871044495819817e+00
-2.059118780157981110e+00,-1.372745853438654073e+00,-2.059118780157981110e+00,-1.715932316798317370e+00,-2.059118780157981110e+00,-1.372745853438654073e+00,-2.059118780157981110e+00
-2.055359018788498471e+00,-1.370239345858998981e+00,-2.055359018788498471e+00,-1.712799182323748726e+00,-2.055359018788498471e+00,-1.370239345858998981e+00,-2.055359018788498471e+00
-2.051591760387371455e+00,-1.367727840258247785e+00,-2.051591760387371455e+00,-1.709659800322809620e+00,-2.051591760387371455e+00,-1.367727840258247785e+00,-2.051591760387371455e+00
-2.047817004954600506e+00,-1.365211336636400485e+00,-2.047817004954600506e+00,-1.706514170795500274e+00,-2.047817004954600506e+00,-1.365211336636400485e+00,-2.047817004954600506e+00
-2.044034752490186069e+00,-1.362689834993457083e+00,-2.044034752490186069e+00,-1.703362293741821576e+00,-2.044034752490186069e+00,-1.362689834993457083e+00,-2.044034752490186069e+00
-2.040245002994127255e+00,-1.360163335329418022e+00,-2.040245002994127255e+00,-1.700204169161772416e+00,-2.040245002994127255e+00,-1.360163335329418022e+00,-2.040245002994127255e+00
-2.036447756466423620e+00,-1.357631837644282413e+00,-2.036447756466423620e+00,-1.697039797055353016e+00,-2.036447756466423620e+00,-1.357631837644282413e+00,-2.036447756466423620e+00
-2.032643012907077384e+00,-1.355095341938051368e+00,-2.032643012907077384e+00,-1.693869177422564265e+00,-2.032643012907077384e+00,-1.355095341938051368e+00,-2.032643012907077384e+00
-2.028830772316085884e+00,-1.352553848210723997e+00,-2.028830772316085884e+00,-1.690692310263405052e+00,-2.028830772316085884e+00,-1.352553848210723997e+00,-2.028830772316085884e+00
-2.025011034693450895e+00,-1.350007356462300523e+00,-2.025011034693450895e+00,-1.687509195577875598e+00,-2.025011034693450895e+00,-1.350007356462300523e+00,-2.025011034693450895e+00
-2.021183800039171974e+00,-1.347455866692781168e+00,-2.021183800039171974e+00,-1.684319833365976571e+00,-2.021183800039171974e+00,-1.347455866692781168e+00,-2.021183800039171974e+00
-2.017349068353248676e+00,-1.344899378902165932e+00,-2.017349068353248676e+00,-1.681124223627707304e+00,-2.017349068353248676e+00,-1.344899378902165932e+00,-2.017349068353248676e+00
-2.013506839635681445e+00,-1.342337893090454148e+00,-2.013506839635681445e+00,-1.677922366363068019e+00,-2.013506839635681445e+00,-1.342337893090454148e+00,-2.013506839635681445e+00
-2.009657113886470725e+00,-1.339771409257646928e+00,-2.009657113886470725e+00,-1.674714261572058716e+00,-2.009657113886470725e+00,-1.339771409257646928e+00,-2.009657113886470725e+00
-2.005799891105615185e+00,-1.337199927403743605e+00,-2.005799891105615185e+00,-1.671499909254679395e+00,-2.005799891105615185e+00,-1.337199927403743605e+00,-2.005799891105615185e+00
-2.001935171293116156e+00,-1.334623447528743956e+00,-2.001935171293116156e+00,-1.668279309410929834e+00,-2.001935171293116156e+00,-1.334623447528743956e+00,-2.001935171293116156e+00
-1.998063891577928297e+00,-1.332042594385285383e+00,-1.998063891577928297e+00,-1.665053242981606729e+00,-1.998063891577928297e+00,-1.332042594385285383e+00,-1.998063891577928297e+00
-1.994191674733784891e+00,-1.329461116489189854e+00,-1.994191674733784891e+00,-1.661826395611487373e+00,-1.994191674733784891e+00,-1.329461116489189854e+00,-1.994191674733784891e+00
-1.990319457889641486e+00,-1.326879638593094324e+00,-1.990319457889641486e+00,-1.658599548241367794e+00,-1.990319457889641486e+00,-1.326879638593094324e+00,-1.990319457889641486e+00
-1.986447241045498524e+00,-1.324298160696999016e+00,-1.986447241045498524e+00,-1.655372700871248659e+00,-1.986447241045498524e+00,-1.324298160696999016e+00,-1.986447241045498524e+00
-1.982575024201355118e+00,-1.321716682800903264e+00,-1.982575024201355118e+00,-1.652145853501129080e+00,-1.982575024201355118e+00,-1.321716682800903264e+00,-1.982575024201355118e+00
-1.978702807357211713e+00,-1.319135204904807734e+00,-1.978702807357211713e+00,-1.648919006131009501e+00,-1.978702807357211713e+00,-1.319135204904807734e+00,-1.978702807357211713e+00
-1.974830590513068529e+00,-1.316553727008712427e+00,-1.974830590513068529e+00,-1.645692158760890367e+00,-1.974830590513068529e+00,-1.316553727008712427e+00,-1.974830590513068529e+00
-1.970958373668925345e+00,-1.313972249112616675e+00,-1.970958373668925345e+00,-1.642465311390770788e+00,-1.970958373668925345e+00,-1.313972249112616675e+00,-1.970958373668925345e+00
-1.967086156824782162e+00,-1.311390771216521145e+00,-1.967086156824782162e+00,-1.639238464020651431e+00,-1.967086156824782162e+00,-1.311390771216521145e+00,-1.967086156824782162e+00
-1.963213939980638756e+00,-1.308809293320425837e+00,-1.963213939980638756e+00,-1.636011616650532297e+00,-1.963213939980638756e+00,-1.308809293320425837e+00,-1.963213939980638756e+00
-1.959341723136495350e+00,-1.306227815424330307e+00,-1.959341723136495350e+00,-1.632784769280412718e+00,-1.959341723136495350e+00,-1.306227815424330307e+00,-1.959341723136495350e+00
-1.955469506292352388e+00,-1.303646337528234778e+00,-1.955469506292352388e+00,-1.629557921910293583e+00,-1.955469506292352388e+00,-1.303646337528234778e+00,-1.955469506292352388e+00
-1.951597289448208983e+00,-1.301064859632139248e+00,-1.951597289448208983e+00,-1.626331074540174004e+00,-1.951597289448208983e+00,-1.301064859632139248e+00,-1.951597289448208983e+00
-1.947725072604065577e+00,-1.298483381736043718e+00,-1.947725072604065577e+00,-1.623104227170054425e+00,-1.947725072604065577e+00,-1.298483381736043718e+00,-1.947725072604065577e+00
-1.943852855759922615e+00,-1.295901903839948188e+00,-1.943852855759922615e+00,-1.619877379799935291e+00,-1.943852855759922615e+00,-1.295901903839948188e+00,-1.943852855759922615e+00
-1.939980638915779210e+00,-1.293320425943852658e+00,-1.939980638915779210e+00,-1.616650532429815712e+00,-1.939980638915779210e+00,-1.293320425943852658e+00,-1.939980638915779210e+00
-1.936108422071635804e+00,-1.290738948047757129e+00,-1.936108422071635804e+00,-1.613423685059696355e+00,-1.936108422071635804e+00,-1.290738948047757129e+00,-1.936108422071635804e+00
-1.932236205227492620e+00,-1.288157470151661821e+00,-1.932236205227492620e+00,-1.610196837689577221e+00,-1.932236205227492620e+00,-1.288157470151661821e+00,-1.932236205227492620e+00
-1.928363988383349215e+00,-1.285575992255566069e+00,-1.928363988383349215e+00,-1.606969990319457642e+00,-1.928363988383349215e+00,-1.285575992255566069e+00,-1.928363988383349215e+00
-1.924491771539206031e+00,-1.282994514359470539e+00,-1.924491771539206031e+00,-1.603743142949338063e+00,-1.924491771539206031e+00,-1.282994514359470539e+00,-1.924491771539206031e+00
-1.920619554695062847e+00,-1.280413036463375231e+00,-1.920619554695062847e+00,-1.600516295579218928e+00,-1.920619554695062847e+00,-1.280413036463375231e+00,-1.920619554695062847e+00
-1.916747337850919441e+00,-1.277831558567279480e+00,-1.916747337850919441e+00,-1.597289448209099350e+00,-1.916747337850919441e+00,-1.277831558567279480e+00,-1.916747337850919441e+00
-1.912875121006776036e+00,-1.275250080671183950e+00,-1.912875121006776036e+00,-1.594062600838979993e+00,-1.912875121006776036e+00,-1.275250080671183950e+00,-1.912875121006776036e+00
-1.909002904162633074e+00,-1.272668602775088642e+00,-1.909002904162633074e+00,-1.590835753468860636e+00,-1.909002904162633074e+00,-1.272668602775088642e+00,-1.909002904162633074e+00
-1.905130687318489668e+00,-1.270087124878993112e+00,-1.905130687318489668e+00,-1.587608906098741279e+00,-1.905130687318489668e+00,-1.270087124878993112e+00,-1.905130687318489668e+00
-1.901258470474346263e+00,-1.267505646982897360e+00,-1.901258470474346263e+00,-1.584382058728621701e+00,-1.901258470474346263e+00,-1.267505646982897360e+00,-1.901258470474346263e+00
-1.897386253630203301e+00,-1.264924169086802053e+00,-1.897386253630203301e+00,-1.581155211358502566e+00,-1.897386253630203301e+00,-1.264924169086802053e+00,-1.897386253630203301e+00
-1.893514036786059895e+00,-1.262342691190706523e+00,-1.893514036786059895e+00,-1.577928363988382987e+00,-1.893514036786059895e+00,-1.262342691190706523e+00,-1.893514036786059895e+00
-1.889641819941916490e+00,-1.259761213294610993e+00,-1.889641819941916490e+00,-1.574701516618263630e+00,-1.889641819941916490e+00,-1.259761213294610993e+00,-1.889641819941916490e+00
-1.885769603097773306e+00,-1.257179735398515463e+00,-1.885769603097773306e+00,-1.571474669248144274e+00,-1.885769603097773306e+00,-1.257179735398515463e+00,-1.885769603097773306e+00
-1.881897386253629900e+00,-1.254598257502419933e+00,-1.881897386253629900e+00,-1.568247821878024917e+00,-1.881897386253629900e+00,-1.254598257502419933e+00,-1.881897386253629900e+00
-1.878025169409486939e+00,-1.252016779606324404e+00,-1.878025169409486939e+00,-1.565020974507905338e+00,-1.878025169409486939e+00,-1.252016779606324404e+00,-1.878025169409486939e+00
