liuyurong129/figaroh_kinova/examples/airbot_play/data/identification/chirp_motion/identification_q_real.csv
q0,q1,q2,q3,q4,q5
1.570344090461731,-0.5239566564559937,1.5699626207351685,1.569581151008606,1.569581151008606,1.571107029914856
1.570344090461731,-0.5239566564559937,1.5699626207351685,1.5699626207351685,1.569581151008606,1.571107029914856
1.570344090461731,-0.5239566564559937,1.570344090461731,1.5699626207351685,1.569581151008606,1.571107029914856
1.570344090461731,-0.5239566564559937,1.5707255601882935,1.570344090461731,1.569581151008606,1.571107029914856
1.570344090461731,-0.5239566564559937,1.5707255601882935,1.570344090461731,1.569581151008606,1.571107029914856
1.570344090461731,-0.5239566564559937,1.5707255601882935,1.570344090461731,1.569581151008606,1.571107029914856
1.570344090461731,-0.5239566564559937,1.5707255601882935,1.570344090461731,1.569581151008606,1.571107029914856
1.570344090461731,-0.5239566564559937,1.5707255601882935,1.570344090461731,1.5699626207351685,1.571107029914856
1.570344090461731,-0.5235751867294312,1.570344090461731,1.570344090461731,1.5699626207351685,1.571107029914856
1.570344090461731,-0.5235751867294312,1.570344090461731,1.570344090461731,1.5699626207351685,1.571107029914856
1.570344090461731,-0.5235751867294312,1.5691996812820435,1.5699626207351685,1.569581151008606,1.571107029914856
1.570344090461731,-0.5228122472763062,1.5684367418289185,1.5699626207351685,1.569581151008606,1.5707255601882935
1.5699626207351685,-0.5228122472763062,1.568055272102356,1.5699626207351685,1.5699626207351685,1.571107029914856
1.5691996812820435,-0.5228122472763062,1.5676738023757935,1.569581151008606,1.5691996812820435,1.571107029914856
1.568055272102356,-0.5228122472763062,1.567292332649231,1.569581151008606,1.5691996812820435,1.570344090461731
1.5676738023757935,-0.5228122472763062,1.566529393196106,1.5691996812820435,1.5684367418289185,1.5699626207351685
1.566529393196106,-0.5224307775497437,1.5657663345336914,1.5691996812820435,1.568055272102356,1.5699626207351685
1.5657663345336914,-0.5220493078231812,1.564621925354004,1.568818211555481,1.5676738023757935,1.5691996812820435
1.5650033950805664,-0.5216678380966187,1.563858985900879,1.568818211555481,1.5669108629226685,1.5676738023757935
1.5634775161743164,-0.5216678380966187,1.563096046447754,1.567292332649231,1.5657663345336914,1.567292332649231
1.562333106994629,-0.5216678380966187,1.563096046447754,1.567292332649231,1.565384864807129,1.566529393196106
1.560807228088379,-0.5209048390388489,1.562333106994629,1.5657663345336914,1.563858985900879,1.5650033950805664
1.5596628189086914,-0.5205233693122864,1.560044288635254,1.563858985900879,1.562333106994629,1.5634775161743164
1.5585182905197144,-0.5193789601325989,1.5573738813400269,1.5627145767211914,1.560807228088379,1.5627145767211914
1.5566109418869019,-0.5186160206794739,1.5554665327072144,1.561570167541504,1.560807228088379,1.5611886978149414
1.5550850629806519,-0.5182345509529114,1.5539406538009644,1.559281349182129,1.560807228088379,1.559281349182129
1.5535591840744019,-0.5178530812263489,1.5527962446212769,1.5581368207931519,1.560807228088379,1.5585182905197144
1.5512703657150269,-0.5174715518951416,1.5505073070526123,1.5558480024337769,1.5588998794555664,1.5562294721603394
1.5497443675994873,-0.5163271427154541,1.5485999584197998,1.5547035932540894,1.5566109418869019,1.5547035932540894
1.5474555492401123,-0.5159456729888916,1.5470740795135498,1.5527962446212769,1.5531777143478394,1.5527962446212769
1.5451667308807373,-0.5151827335357666,1.5447852611541748,1.5516518354415894,1.5501258373260498,1.5508888959884644
1.5428777933120728,-0.5148012638092041,1.5424963235855103,1.5489814281463623,1.5478370189666748,1.5489814281463623
1.5405889749526978,-0.5140383243560791,1.5402075052261353,1.5470740795135498,1.5451667308807373,1.5470740795135498
1.5379186868667603,-0.5132753252983093,1.5371557474136353,1.5444037914276123,1.5432593822479248,1.5447852611541748
1.5356298685073853,-0.5121309161186218,1.5348668098449707,1.5436408519744873,1.5413519144058228,1.5436408519744873
1.5325779914855957,-0.5113679766654968,1.5321965217590332,1.5413519144058228,1.5394445657730103,1.5413519144058228
1.5302891731262207,-0.5106050372123718,1.5302891731262207,1.5390630960464478,1.5375372171401978,1.5386816263198853
1.5272372961044312,-0.5094605684280396,1.5268558263778687,1.5363928079605103,1.5352483987808228,1.5356298685073853
1.5238040685653687,-0.5079346895217896,1.5234225988388062,1.5341038703918457,1.5321965217590332,1.5321965217590332
1.5211337804794312,-0.506790280342102,1.5203708410263062,1.5318150520324707,1.5299077033996582,1.5295262336730957
1.517700433731079,-0.506027340888977,1.5173189640045166,1.5283818244934082,1.5268558263778687,1.5268558263778687
1.5142672061920166,-0.5048828721046448,1.5142672061920166,1.5245670080184937,1.5238040685653687,1.5241855382919312
1.5108338594436646,-0.5041199326515198,1.511215329170227,1.5218967199325562,1.5211337804794312,1.5211337804794312
1.5070191621780396,-0.5025940537452698,1.506637692451477,1.518463373184204,1.517700433731079,1.5180819034576416
1.503204345703125,-0.501068115234375,1.5028228759765625,1.515411615371704,1.5135042667388916,1.514648675918579
1.4997711181640625,-0.4999237060546875,1.4993896484375,1.5119783878326416,1.5108338594436646,1.5115967988967896
1.4955748319625854,-0.4991607666015625,1.4955748319625854,1.507400631904602,1.506637692451477,1.507400631904602
1.492141604423523,-0.4976348578929901,1.4917601346969604,1.5039674043655396,1.503204345703125,1.5039674043655396
1.4875638484954834,-0.4961089491844177,1.487182378768921,1.4993896484375,1.4997711181640625,1.500152587890625
1.4829862117767334,-0.49458304047584534,1.482604742050171,1.495193362236023,1.496337890625,1.495956301689148
1.4791713953018188,-0.49343863129615784,1.4787899255752563,1.4909971952438354,1.4917601346969604,1.492141604423523
1.4745937585830688,-0.49191272258758545,1.4742122888565063,1.4868009090423584,1.486419439315796,1.4887083768844604
1.4696345329284668,-0.49038681387901306,1.4692530632019043,1.481841802597046,1.481841802597046,1.4837491512298584
1.4654383659362793,-0.4888609051704407,1.4654383659362793,1.4784084558486938,1.4795528650283813,1.4803158044815063
1.4604791402816772,-0.4869535267353058,1.4600976705551147,1.4734493494033813,1.4742122888565063,1.4757381677627563
1.4559013843536377,-0.4854276478290558,1.4555199146270752,1.4692530632019043,1.4707789421081543,1.4711604118347168
1.4505608081817627,-0.4835202693939209,1.4501793384552002,1.4642938375473022,1.4658198356628418,1.4658198356628418
1.4452201128005981,-0.4819943606853485,1.4452201128005981,1.4593347311019897,1.4612420797348022,1.4616235494613647
1.4406423568725586,-0.4800869822502136,1.440260887145996,1.4555199146270752,1.4566643238067627,1.4574273824691772
1.434920310974121,-0.47817960381507874,1.4345388412475586,1.4505608081817627,1.4513237476348877,1.4517052173614502
1.4288166761398315,-0.47665369510650635,1.4288166761398315,1.4452201128005981,1.4456015825271606,1.4463645219802856
1.424238920211792,-0.47512778639793396,1.424238920211792,1.441023826599121,1.4414052963256836,1.4425498247146606
1.41775381565094,-0.4728389382362366,1.41775381565094,1.4353017807006836,1.435683250427246,1.4360647201538086
1.4127947092056274,-0.4713130295276642,1.4127947092056274,1.4303425550460815,1.430724024772644,1.431486964225769
1.406691074371338,-0.4694056510925293,1.4063096046447754,1.424238920211792,1.425001859664917,1.426146388053894
1.4002059698104858,-0.4671168029308319,1.4002059698104858,1.418135404586792,1.418898344039917,1.4200427532196045
1.3948653936386108,-0.4655908942222595,1.3948653936386108,1.412413239479065,1.41317617893219,1.4143205881118774
1.3883802890777588,-0.46330204606056213,1.3879988193511963,1.4063096046447754,1.406691074371338,1.409742832183838
1.3815137147903442,-0.46101319789886475,1.3815137147903442,1.3998245000839233,1.3990615606307983,1.4024949073791504
1.3761730194091797,-0.45910581946372986,1.3757915496826172,1.3941023349761963,1.3944838047027588,1.3971542119979858
1.3693064451217651,-0.45681697130203247,1.3689249753952026,1.3876173496246338,1.3891432285308838,1.3902876377105713
1.362058401107788,-0.4545281231403351,1.362058401107788,1.3811322450637817,1.3822766542434692,1.3853284120559692
1.355954885482788,-0.4522392749786377,1.3563363552093506,1.3750286102294922,1.3784618377685547,1.3788433074951172
1.3490883111953735,-0.4499503970146179,1.348706841468811,1.3681620359420776,1.3704508543014526,1.3715953826904297
1.342984676361084,-0.44766154885292053,1.3426032066345215,1.362821340560913,1.3651102781295776,1.3654917478561401
1.3353551626205444,-0.44537270069122314,1.334973692893982,1.3578622341156006,1.356717824935913,1.3586251735687256
1.3277256488800049,-0.44270238280296326,1.3281071186065674,1.3490883111953735,1.350995659828186,1.351758599281311
1.3216220140457153,-0.44079500436782837,1.3212405443191528,1.342984676361084,1.346036434173584,1.3456549644470215
1.3136110305786133,-0.4381246566772461,1.3136110305786133,1.335736632347107,1.3384069204330444,1.338788390159607
1.3059815168380737,-0.4354543387889862,1.3059815168380737,1.3288700580596924,1.3311588764190674,1.3315403461456299
1.2994964122772217,-0.4331654906272888,1.2991149425506592,1.3220034837722778,1.3246738910675049,1.3250553607940674
1.2914854288101196,-0.43049514293670654,1.2914854288101196,1.3143739700317383,1.3162813186645508,1.3174258470535278
1.284618854522705,-0.42858776450157166,1.2842373847961426,1.3082703351974487,1.3105592727661133,1.3105592727661133
1.276607871055603,-0.42591744661331177,1.2762264013290405,1.3006408214569092,1.3010224103927612,1.3029297590255737
1.2682154178619385,-0.4232471287250519,1.267833948135376,1.2926298379898071,1.2922483682632446,1.2953002452850342
1.2609673738479614,-0.4209582805633545,1.2609673738479614,1.2857633829116821,1.2850003242492676,1.2888151407241821
1.2525749206542969,-0.4182879328727722,1.2521934509277344,1.27775239944458,1.27927827835083,1.28080415725708
1.2441824674606323,-0.41523614525794983,1.2441824674606323,1.2689783573150635,1.269741415977478,1.272793173789978
1.2365529537200928,-0.41294726729393005,1.2365529537200928,1.261730432510376,1.262493371963501,1.265545129776001
1.2281605005264282,-0.41027694940567017,1.2281605005264282,1.2533378601074219,1.2533378601074219,1.256771206855774
1.2193865776062012,-0.4068436622619629,1.2193865776062012,1.2453268766403198,1.2464714050292969,1.2487602233886719
1.2121385335922241,-0.4045548141002655,1.2117570638656616,1.2380788326263428,1.2399863004684448,1.2418936491012573
1.2029831409454346,-0.4011215269565582,1.202601671218872,1.2304493188858032,1.2293049097061157,1.2331197261810303
1.1957350969314575,-0.39845120906829834,1.195353627204895,1.2220568656921387,1.2232013940811157,1.2262531518936157
1.1861982345581055,-0.39616236090660095,1.1861982345581055,1.2136644124984741,1.2144273519515991,1.2170977592468262
1.177042841911316,-0.3927290737628937,1.1774243116378784,1.2052719593048096,1.2071794271469116,1.2079423666000366
1.1690318584442139,-0.3904402256011963,1.1694133281707764,1.198405385017395,1.1987868547439575,1.200312852859497
1.1598763465881348,-0.3866254687309265,1.1598763465881348,1.19153892993927,1.1884870529174805,1.191157341003418
1.1503394842147827,-0.38357365131378174,1.1503394842147827,1.180094599723816,1.1804760694503784,1.182383418083191
1.1427099704742432,-0.38090333342552185,1.1423285007476807,1.1720836162567139,1.1720836162567139,1.1751353740692139
1.1331731081008911,-0.37823301553726196,1.1331731081008911,1.1625467538833618,1.1629282236099243,1.1655985116958618
1.125162124633789,-0.3755626678466797,1.1247806549072266,1.1549172401428223,1.1549172401428223,1.1579689979553223
1.1152437925338745,-0.3725108802318573,1.114862322807312,1.1461433172225952,1.1469062566757202,1.1480506658554077
1.1057069301605225,-0.3686961233615875,1.1053253412246704,1.1362248659133911,1.1392767429351807,1.1392767429351807
1.0973143577575684,-0.36640727519989014,1.0969328880310059,1.1278324127197266,1.1293584108352661,1.1312657594680786
1.0873960256576538,-0.36297398805618286,1.0870145559310913,1.1175326108932495,1.1175326108932495,1.121347427368164
1.0774776935577393,-0.3599221706390381,1.0774776935577393,1.1079957485198975,1.107614278793335,1.112191915512085
1.0687037706375122,-0.3568703830242157,1.0690852403640747,1.0999847650527954,1.099603295326233,1.103417992591858
1.0587854385375977,-0.3534370958805084,1.0587854385375977,1.0908293724060059,1.0904479026794434,1.0938811302185059
1.0488669872283936,-0.35000380873680115,1.0488669872283936,1.0812923908233643,1.0820554494857788,1.0843442678451538
1.040474534034729,-0.34733349084854126,1.0400930643081665,1.0725184679031372,1.0717555284500122,1.0759518146514893
1.030174732208252,-0.343900203704834,1.030174732208252,1.0622186660766602,1.0618371963500977,1.0664149522781372
1.0217822790145874,-0.3408484160900116,1.021400809288025,1.054207682609558,1.0538262128829956,1.057259440422058
1.0111008882522583,-0.3374151289463043,1.0111008882522583,1.044670820236206,1.043907880783081,1.0473411083221436
1.0011825561523438,-0.33360037207603455,1.0008010864257812,1.0351338386535645,1.0355154275894165,1.037422776222229
0.9924086332321167,-0.33093002438545227,0.9924086332321167,1.0263599157333374,1.0255969762802124,1.028648853302002
0.9817273020744324,-0.3274967670440674,0.9817273020744324,1.0160601139068604,1.0152971744537354,1.0187304019927979
0.9714275002479553,-0.3240634799003601,0.9710460305213928,1.0057603120803833,1.0053788423538208,1.0084306001663208
0.9626535177230835,-0.32101166248321533,0.962272047996521,0.9969863295555115,0.996604859828949,0.9996566772460938
0.951972246170044,-0.31757840514183044,0.9515907764434814,0.9866865277290344,0.9863049983978271,0.9897382855415344
0.9431982636451721,-0.31490805745124817,0.9447242021560669,0.9779125452041626,0.9763866662979126,0.9813458323478699
0.9325169920921326,-0.3110933005809784,0.9321355223655701,0.967231273651123,0.967231273651123,0.970283031463623
0.9218356609344482,-0.3084229826927185,0.9218356609344482,0.9565499424934387,0.9569314122200012,0.959983229637146
0.9130617380142212,-0.30460822582244873,0.9126802682876587,0.9473945498466492,0.9473945498466492,0.951209306716919
0.9019989371299744,-0.30155640840530396,0.9019989371299744,0.9374761581420898,0.9363317489624023,0.9405279755592346
0.89131760597229,-0.2977416515350342,0.89131760597229,0.926413357257843,0.9245060086250305,0.9306095838546753
0.8821622133255005,-0.2946898639202118,0.8821622133255005,0.9218356609344482,0.9153505563735962,0.9214541912078857
0.8714808821678162,-0.2912565767765045,0.8710994124412537,0.9069581031799316,0.9058136940002441,0.9107728600502014
0.8607995510101318,-0.28744181990623474,0.8607995510101318,0.8966583013534546,0.8958953022956848,0.8997100591659546
0.8516441583633423,-0.28477150201797485,0.8516441583633423,0.8875028491020203,0.8855955004692078,0.890554666519165
0.8405813574790955,-0.2809567451477051,0.840962827205658,0.8775845170021057,0.8752956390380859,0.8806362748146057
0.8318074345588684,-0.2782863974571228,0.8318074345588684,0.8688105344772339,0.8657587766647339,0.8710994124412537
0.8207446336746216,-0.2740901708602905,0.8207446336746216,0.8581292629241943,0.8550774455070496,0.8604180812835693
0.8100633025169373,-0.27065691351890564,0.8096818327903748,0.8493552803993225,0.8440146446228027,0.8501182794570923
0.8005264401435852,-0.26722362637519836,0.8005264401435852,0.8382925391197205,0.8363851308822632,0.840962827205658
0.7898451089859009,-0.2637903392314911,0.7894636392593384,0.8272297382354736,0.8253223299980164,0.8302815556526184
0.7791637778282166,-0.2599755823612213,0.778782308101654,0.8180742859840393,0.812352180480957,0.8192187547683716
0.770008385181427,-0.2573052644729614,0.770008385181427,0.8073930144309998,0.8039597272872925,0.8096818327903748
0.7589455842971802,-0.25349050760269165,0.7589455842971802,0.7963302135467529,0.7948042750358582,0.8001449704170227
0.7482643127441406,-0.2504386901855469,0.7482643127441406,0.7860303521156311,0.7829785346984863,0.7890821695327759
0.7391088604927063,-0.2473868876695633,0.7391088604927063,0.7784008383750916,0.7726787328720093,0.7795453071594238
0.728427529335022,-0.24357213079929352,0.728427529335022,0.767719566822052,0.7623788714408875,0.769245445728302
0.7173647880554199,-0.24090181291103363,0.7173647880554199,0.7562752962112427,0.7532234787940979,0.7581826448440552
0.7066834568977356,-0.23708705604076385,0.7066834568977356,0.7455939650535583,0.7425421476364136,0.7482643127441406
0.6979095339775085,-0.23441672325134277,0.6979095339775085,0.7368200421333313,0.7330052852630615,0.7387273907661438
0.6872282028198242,-0.230601966381073,0.6872282028198242,0.7265201807022095,0.7223239541053772,0.7280460596084595
0.6765468716621399,-0.22755016386508942,0.6765468716621399,0.7154573798179626,0.7120240926742554,0.7173647880554199
0.6677729487419128,-0.22411687672138214,0.6673914790153503,0.7063019871711731,0.7028687000274658,0.7085908055305481
0.656710147857666,-0.22068360447883606,0.6563286781311035,0.6956206560134888,0.6921873688697815,0.698291003704071
0.6464102864265442,-0.21686884760856628,0.6460288166999817,0.6849393248558044,0.6811245679855347,0.6872282028198242
0.6357290148735046,-0.2134355753660202,0.6357290148735046,0.6757839322090149,0.6692988276481628,0.6765468716621399
0.6265735626220703,-0.21038375794887543,0.6265735626220703,0.6651026010513306,0.6624323129653931,0.6677729487419128
0.6158922910690308,-0.20695048570632935,0.6158922910690308,0.6563286781311035,0.6509880423545837,0.656710147857666
0.6059738993644714,-0.20313572883605957,0.6055924296379089,0.6448844075202942,0.6410696506500244,0.6464102864265442
0.5968185067176819,-0.200083926320076,0.5968185067176819,0.6357290148735046,0.6338216066360474,0.6380178332328796
0.5865186452865601,-0.1962691694498062,0.5865186452865601,0.6254291534423828,0.6231403350830078,0.6269550919532776
0.5758373141288757,-0.19283588230609894,0.576218843460083,0.615129292011261,0.613603413105011,0.6166552305221558
0.5655375123023987,-0.18940261006355286,0.5655375123023987,0.6052109599113464,0.6036850810050964,0.6052109599113464
0.5567635893821716,-0.18635080754756927,0.5571450591087341,0.5960555672645569,0.5952925682067871,0.5971999764442444
0.5464637279510498,-0.182917520403862,0.5464637279510498,0.5861371755599976,0.5849927663803101,0.5869001150131226
0.536163866519928,-0.17872129380702972,0.536163866519928,0.5758373141288757,0.5758373141288757,0.5766003131866455
0.5273899435997009,-0.17643244564533234,0.5277714133262634,0.5685893297195435,0.5640115737915039,0.5678263306617737
0.5170900821685791,-0.17299915850162506,0.5170900821685791,0.5563820600509644,0.5552376508712769,0.5571450591087341
0.5071717500686646,-0.16994735598564148,0.506790280342102,0.5460822582244873,0.5449378490447998,0.5468451976776123
0.4968718886375427,-0.1665140837430954,0.4968718886375427,0.5357823967933655,0.534637987613678,0.536926805973053
0.4884794354438782,-0.16384375095367432,0.4884794354438782,0.5273899435997009,0.5258640646934509,0.5285343527793884
0.47856107354164124,-0.16041046380996704,0.47856107354164124,0.5174715518951416,0.5155642032623291,0.5182345509529114
0.4686427116394043,-0.15697719156742096,0.4682612419128418,0.5071717500686646,0.5056458115577698,0.508316159248352
0.45986875891685486,-0.15430685877799988,0.46025025844573975,0.4983977973461151,0.4968718886375427,0.4991607666015625
0.4503318965435028,-0.1504921019077301,0.4503318965435028,0.4880979657173157,0.4869535267353058,0.48962387442588806
0.4404135048389435,-0.14744029939174652,0.4404135048389435,0.47817960381507874,0.47856107354164124,0.4797055125236511
0.43049514293670654,-0.14400701224803925,0.43087664246559143,0.4709315598011017,0.4663538634777069,0.4694056510925293
0.4224841594696045,-0.14171816408634186,0.4228656589984894,0.46139466762542725,0.46063172817230225,0.46177613735198975
0.41294726729393005,-0.13828489184379578,0.41294726729393005,0.4518577754497528,0.4503318965435028,0.4514763057231903
0.403410404920578,-0.1348516047000885,0.4037918746471405,0.44232088327407837,0.44117647409439087,0.44193941354751587
0.39539939165115356,-0.13218127191066742,0.39578089118003845,0.4339284300804138,0.4327840209007263,0.4335469603538513
0.3858625292778015,-0.12912946939468384,0.386243999004364,0.4243915379047394,0.4236285984516144,0.4236285984516144
0.3767071068286896,-0.12607766687870026,0.3767071068286896,0.41523614525794983,0.41485464572906494,0.41447317600250244
0.36755168437957764,-0.12302586436271667,0.36755168437957764,0.4053177833557129,0.4079881012439728,0.4053177833557129
0.3599221706390381,-0.1203555315732956,0.3595407009124756,0.39730677008628845,0.39730677008628845,0.39730677008628845
0.35076677799224854,-0.11730372905731201,0.35076677799224854,0.3877699077129364,0.3877699077129364,0.3877699077129364
0.3416113555431366,-0.11425192654132843,0.3427557647228241,0.37823301553726196,0.3770885765552521,0.37861448526382446
0.33436331152915955,-0.11196307092905045,0.33398184180259705,0.3728923499584198,0.3694590628147125,0.3709849715232849
0.32520791888237,-0.10929274559020996,0.32520791888237,0.3622110188007355,0.361066609621048,0.361829549074173
0.31681543588638306,-0.10624094307422638,0.31643396615982056,0.3530556261539459,0.35229265689849854,0.3530556261539459
0.308041512966156,-0.1031891331076622,0.308041512966156,0.3442816734313965,0.34504464268684387,0.3442816734313965
0.30079346895217896,-0.10051880776882172,0.30079346895217896,0.3370336592197418,0.33588922023773193,0.33627068996429443
0.2920195460319519,-0.09784847497940063,0.2924010157585144,0.3286411762237549,0.3271152675151825,0.3278782367706299
0.28362706303596497,-0.09479667246341705,0.28400853276252747,0.31986725330352783,0.31910428404808044,0.31872281432151794
0.2767605185508728,-0.09250781685113907,0.2767605185508728,0.31414511799812317,0.3118562698364258,0.3114747703075409
0.26874953508377075,-0.09021896868944168,0.26874953508377075,0.30422675609588623,0.30308231711387634,0.30346378684043884
0.2607385218143463,-0.086785688996315,0.2607385218143463,0.2958342730998993,0.2965972423553467,0.2950713336467743
0.25272753834724426,-0.08487831056118011,0.25234606862068176,0.28744181990623474,0.28744181990623474,0.28667888045310974
0.2458609938621521,-0.08258945494890213,0.2470054179430008,0.2801937758922577,0.2790493667125702,0.2798123061656952
0.23823148012161255,-0.07991912961006165,0.23785001039505005,0.27218279242515564,0.2725642919540405,0.27141985297203064
0.230601966381073,-0.07724879682064056,0.2302204966545105,0.2653162479400635,0.2641718089580536,0.2634088695049286
0.22411687672138214,-0.07534141838550568,0.22411687672138214,0.2573052644729614,0.2595941126346588,0.2569237947463989
0.21686884760856628,-0.07267109304666519,0.21648737788200378,0.24967575073242188,0.24891279637813568,0.24891279637813568
0.20923933386802673,-0.07000076025724411,0.20923933386802673,0.24204623699188232,0.24280919134616852,0.24128328263759613
0.20160982012748718,-0.06771191209554672,0.20199130475521088,0.23479819297790527,0.23517967760562897,0.23327229917049408
0.1958876997232437,-0.06542305648326874,0.1958876997232437,0.2286945879459381,0.2294575423002243,0.22716869413852692
0.18863965570926666,-0.06313420087099075,0.18863965570926666,0.22106507420539856,0.22030213475227356,0.21992065012454987
0.182154580950737,-0.06084534898400307,0.1817730963230133,0.2149614691734314,0.212672621011734,0.212672621011734
0.17605096101760864,-0.059319447726011276,0.17643244564533234,0.20885786414146423,0.20580606162548065,0.20656901597976685
0.16956588625907898,-0.05703059583902359,0.16956588625907898,0.20084688067436218,0.1993209719657898,0.1993209719657898
0.16308079659938812,-0.054741740226745605,0.16308079659938812,0.19359883666038513,0.19321736693382263,0.19283588230609894
0.15621423721313477,-0.05283436179161072,0.15659570693969727,0.18749523162841797,0.18635080754756927,0.18520638346672058
0.1512550562620163,-0.05054550990462303,0.1512550562620163,0.1817730963230133,0.1802472025156021,0.17986571788787842
0.14515145123004913,-0.048638131469488144,0.14476996660232544,0.17452506721019745,0.17452506721019745,0.17338064312934875
0.13904783129692078,-0.04711223021149635,0.13904783129692078,0.1680399775505066,0.16918440163135529,0.1668955534696579
0.1340886503458023,-0.04482337832450867,0.1340886503458023,0.16308079659938812,0.1657511293888092,0.16117341816425323
0.12798504531383514,-0.04291599988937378,0.12836651504039764,0.15774014592170715,0.15964750945568085,0.15468832850456238
0.12226291000843048,-0.04139009863138199,0.12264438718557358,0.1508735716342926,0.1512550562620163,0.1489662081003189
0.11768520623445511,-0.0394827201962471,0.11768520623445511,0.14553292095661163,0.14629587531089783,0.14400701224803925
0.11196307092905045,-0.03757534176111221,0.11272602528333664,0.13981078565120697,0.14019227027893066,0.13790340721607208
0.10700388997793198,-0.035667963325977325,0.10662241280078888,0.1340886503458023,0.1348516047000885,0.13179980218410492
0.10166323184967041,-0.034142062067985535,0.10166323184967041,0.12798504531383514,0.12798504531383514,0.12684062123298645
0.09746700525283813,-0.03299763426184654,0.09822995215654373,0.12340734153985977,0.12188144028186798,0.12188144028186798
0.09250781685113907,-0.03147173300385475,0.09250781685113907,0.1184481605887413,0.1180666834115982,0.11654078215360641
0.0879301130771637,-0.02994582988321781,0.0879301130771637,0.11387044936418533,0.11387044936418533,0.11081864684820175
0.08373387902975082,-0.02841992862522602,0.08411535620689392,0.10929274559020996,0.10967422276735306,0.10662241280078888
0.07953765243291855,-0.02689402550458908,0.07953765243291855,0.1039520874619484,0.1028076633810997,0.10204470902681351
0.07534141838550568,-0.025749599561095238,0.07495994865894318,0.09975585341453552,0.09822995215654373,0.09708552807569504
0.0711451917886734,-0.02384222112596035,0.0711451917886734,0.09555962681770325,0.09479667246341705,0.09212634712457657
0.06771191209554672,-0.022697795182466507,0.06771191209554672,0.09136339277029037,0.09174486994743347,0.0883115902543068
0.06389715522527695,-0.021171892061829567,0.06389715522527695,0.0864042118191719,0.0871671661734581,0.08411535620689392
0.06008239835500717,-0.020027466118335724,0.06008239835500717,0.08182650804519653,0.08297093212604523,0.07991912961006165
0.05703059583902359,-0.01926451548933983,0.05703059583902359,0.07877469807863235,0.07953765243291855,0.07610437273979187
0.05359731614589691,-0.01773861236870289,0.05397878959774971,0.07457847148180008,0.07495994865894318,0.0722896158695221
0.050164032727479935,-0.016975661739706993,0.050164032727479935,0.071908138692379,0.071908138692379,0.06809338182210922
0.04711223021149635,-0.016594186425209045,0.04749370738863945,0.06809338182210922,0.06771191209554672,0.06504157930612564
0.04444190114736557,-0.01506828423589468,0.04444190114736557,0.06542305648326874,0.06580453366041183,0.06198977679014206
0.04139009863138199,-0.014686808921396732,0.04139009863138199,0.06160829961299896,0.06275273114442825,0.058175019919872284
0.03833829239010811,-0.013160906732082367,0.039101243019104004,0.05741206929087639,0.057793546468019485,0.054741740226745605
0.03643091395497322,-0.012779430486261845,0.03643091395497322,0.05436026677489281,0.0558861680328846,0.05207141116261482
0.034142062067985535,-0.011635004542768002,0.034142062067985535,0.05092698708176613,0.05054550990462303,0.04940108209848404
0.03185320645570755,-0.01125352829694748,0.03223468363285065,0.04901960864663124,0.04711223021149635,0.04634927958250046
0.029564354568719864,-0.010490577667951584,0.02994582988321781,0.04749370738863945,0.045204851776361465,0.043678950518369675
0.028038453310728073,-0.010109102353453636,0.02841992862522602,0.045204851776361465,0.043678950518369675,0.042153049260377884
0.025749599561095238,-0.008964675478637218,0.026512550190091133,0.042153049260377884,0.04100862145423889,0.0398641936480999
0.024223696440458298,-0.00858320016413927,0.024605173617601395,0.0398641936480999,0.039101243019104004,0.03757534176111221
0.023460745811462402,-0.0078202486038208,0.023079270496964455,0.03795681521296501,0.03757534176111221,0.03490501269698143
0.02193484455347061,-0.00667582219466567,0.02193484455347061,0.03490501269698143,0.03490501269698143,0.03299763426184654
0.021171892061829567,-0.00667582219466567,0.02079041674733162,0.03299763426184654,0.03337911143898964,0.03147173300385475
0.019645990803837776,-0.00667582219466567,0.020027466118335724,0.03147173300385475,0.032616160809993744,0.029564354568719864
0.01888304017484188,-0.00667582219466567,0.01888304017484188,0.030708782374858856,0.032616160809993744,0.027656977996230125
0.01773861236870289,-0.006294346414506435,0.018501564860343933,0.029564354568719864,0.03147173300385475,0.02727550081908703
0.01773861236870289,-0.006294346414506435,0.018501564860343933,0.02880140393972397,0.029564354568719864,0.026131074875593185
0.01773861236870289,-0.005531395319849253,0.01735713705420494,0.027656977996230125,0.02841992862522602,0.024986648932099342
0.01773861236870289,-0.005531395319849253,0.016975661739706993,0.026131074875593185,0.02727550081908703,0.024605173617601395
0.01773861236870289,-0.005531395319849253,0.016594186425209045,0.02536812424659729,0.025749599561095238,0.024605173617601395
0.01735713705420494,-0.005531395319849253,0.016594186425209045,0.02536812424659729,0.025749599561095238,0.024223696440458298
0.01735713705420494,-0.005531395319849253,0.016594186425209045,0.02536812424659729,0.02536812424659729,0.02384222112596035
0.01773861236870289,-0.005531395319849253,0.016975661739706993,0.024986648932099342,0.024605173617601395,0.02384222112596035
0.01773861236870289,-0.005531395319849253,0.01735713705420494,0.024986648932099342,0.02384222112596035,0.023460745811462402
0.01773861236870289,-0.005531395319849253,0.01773861236870289,0.024986648932099342,0.023460745811462402,0.023460745811462402
0.01773861236870289,-0.005531395319849253,0.01888304017484188,0.024986648932099342,0.023460745811462402,0.023460745811462402
0.018501564860343933,-0.005531395319849253,0.020027466118335724,0.024986648932099342,0.023079270496964455,0.023460745811462402
0.019645990803837776,-0.005531395319849253,0.021171892061829567,0.024986648932099342,0.023079270496964455,0.023460745811462402
0.02079041674733162,-0.005912871100008488,0.02231631986796856,0.024986648932099342,0.023079270496964455,0.02384222112596035
0.023079270496964455,-0.005912871100008488,0.02384222112596035,0.02536812424659729,0.023079270496964455,0.024223696440458298
0.024986648932099342,-0.00667582219466567,0.026131074875593185,0.025749599561095238,0.023079270496964455,0.024605173617601395
0.026131074875593185,-0.007057297509163618,0.027656977996230125,0.026131074875593185,0.02384222112596035,0.024986648932099342
0.028038453310728073,-0.008201723918318748,0.02994582988321781,0.026131074875593185,0.025749599561095238,0.025749599561095238
0.03032730519771576,-0.008964675478637218,0.03185320645570755,0.02689402550458908,0.02727550081908703,0.026131074875593185
0.03299763426184654,-0.009727626107633114,0.034142062067985535,0.02841992862522602,0.02880140393972397,0.027656977996230125
0.03528648987412453,-0.010872052982449532,0.035667963325977325,0.02994582988321781,0.031090257689356804,0.029564354568719864
0.03795681521296501,-0.01201647985726595,0.03833829239010811,0.03223468363285065,0.03376058489084244,0.031090257689356804
0.040627144277095795,-0.012779430486261845,0.04139009863138199,0.03452353551983833,0.03681239113211632,0.034142062067985535
0.04291599988937378,-0.013542382046580315,0.043678950518369675,0.03643091395497322,0.038719769567251205,0.03643091395497322
0.04634927958250046,-0.01506828423589468,0.04711223021149635,0.039101243019104004,0.04139009863138199,0.038719769567251205
0.049782559275627136,-0.016212711110711098,0.050164032727479935,0.042153049260377884,0.04406042397022247,0.042153049260377884
0.053215838968753815,-0.01735713705420494,0.053215838968753815,0.045204851776361465,0.046730753034353256,0.04558632895350456
0.056267641484737396,-0.018120087683200836,0.05664911866188049,0.04787518084049225,0.04787518084049225,0.048256658017635345
0.05970092490315437,-0.019645990803837776,0.06084534898400307,0.05130846053361893,0.05092698708176613,0.05092698708176613
0.06351567804813385,-0.02079041674733162,0.06466010212898254,0.05436026677489281,0.05436026677489281,0.05397878959774971
0.06733043491840363,-0.02193484455347061,0.06733043491840363,0.05703059583902359,0.057793546468019485,0.05664911866188049
0.0715266615152359,-0.023460745811462402,0.0722896158695221,0.061226826161146164,0.06046387553215027,0.06046387553215027
0.07610437273979187,-0.024605173617601395,0.07648584991693497,0.06427863240242004,0.06351567804813385,0.06427863240242004
0.08030059933662415,-0.026131074875593185,0.08106355369091034,0.06847485899925232,0.06771191209554672,0.06885633617639542
0.08411535620689392,-0.027656977996230125,0.08449683338403702,0.071908138692379,0.0711451917886734,0.071908138692379
0.08907453715801239,-0.029564354568719864,0.08945601433515549,0.07686731964349747,0.07534141838550568,0.07686731964349747
0.09403372555971146,-0.03147173300385475,0.09479667246341705,0.08106355369091034,0.07953765243291855,0.08106355369091034
0.09861142933368683,-0.03299763426184654,0.09784847497940063,0.08449683338403702,0.08411535620689392,0.08487831056118011
0.1039520874619484,-0.03452353551983833,0.1028076633810997,0.08907453715801239,0.09021896868944168,0.08907453715801239
0.10929274559020996,-0.03643091395497322,0.10929274559020996,0.09365224838256836,0.09517814964056015,0.09403372555971146
0.11463340371847153,-0.03795681521296501,0.11501488089561462,0.09899290651082993,0.09975585341453552,0.09861142933368683
0.11959258466959,-0.0398641936480999,0.11959258466959,0.1035706102848053,0.1035706102848053,0.1031891331076622
0.12531471252441406,-0.04139009863138199,0.12569619715213776,0.10852979123592377,0.10891126841306686,0.10891126841306686
0.13103684782981873,-0.043678950518369675,0.13141833245754242,0.11387044936418533,0.11348897218704224,0.11463340371847153
0.13752193748950958,-0.04558632895350456,0.13752193748950958,0.1192111074924469,0.1184481605887413,0.11959258466959
0.14248111844062805,-0.04749370738863945,0.14286258816719055,0.12417028844356537,0.12417028844356537,0.12417028844356537
0.1489662081003189,-0.050164032727479935,0.1489662081003189,0.12989242374897003,0.12874799966812134,0.13065537810325623
0.15545128285884857,-0.05207141116261482,0.15545128285884857,0.1363775134086609,0.1340886503458023,0.1359960287809372
0.16117341816425323,-0.05397878959774971,0.16117341816425323,0.14133669435977936,0.13942931592464447,0.14171816408634186
0.1680399775505066,-0.056267641484737396,0.1680399775505066,0.14744029939174652,0.14629587531089783,0.14782176911830902
0.17490653693675995,-0.058175019919872284,0.17490653693675995,0.15316243469715118,0.1527809500694275,0.15430685877799988
0.1817730963230133,-0.06084534898400307,0.1817730963230133,0.16002899408340454,0.15888457000255585,0.16002899408340454
0.18825818598270416,-0.06275273114442825,0.18825818598270416,0.1661325991153717,0.164988175034523,0.1665140837430954
0.19550621509552002,-0.06542305648326874,0.19550621509552002,0.17261768877506256,0.17147326469421387,0.17299915850162506
0.20275425910949707,-0.06809338182210922,0.20313572883605957,0.17910276353359222,0.17986571788787842,0.1802472025156021
0.21038375794887543,-0.07038223743438721,0.21038375794887543,0.18673227727413177,0.18558785319328308,0.18711376190185547
0.21686884760856628,-0.0722896158695221,0.21686884760856628,0.19283588230609894,0.19207294285297394,0.19321736693382263
0.22449836134910583,-0.07495994865894318,0.22449836134910583,0.1997024416923523,0.200083926320076,0.20084688067436218
0.23250934481620789,-0.07801175117492676,0.23250934481620789,0.20695048570632935,0.20580606162548065,0.20809490978717804
0.23937590420246124,-0.07991912961006165,0.23937590420246124,0.2138170450925827,0.212672621011734,0.2141985148191452
0.247768372297287,-0.08297093212604523,0.247768372297287,0.22030213475227356,0.22106507420539856,0.22182802855968475
0.25616082549095154,-0.08602273464202881,0.25616082549095154,0.2290760725736618,0.22793163359165192,0.2302204966545105
0.2641718089580536,-0.08869306743144989,0.2641718089580536,0.23708705604076385,0.23556114733219147,0.23823148012161255
0.27141985297203064,-0.09060044586658478,0.27141985297203064,0.2443350851535797,0.24166475236415863,0.2447165697813034
0.2801937758922577,-0.09365224838256836,0.2801937758922577,0.25196459889411926,0.2500572204589844,0.25310903787612915
0.28934919834136963,-0.09670405089855194,0.28896772861480713,0.2588311731815338,0.2588311731815338,0.2611200213432312
0.2977416515350342,-0.09975585341453552,0.2977416515350342,0.26836803555488586,0.26760509610176086,0.26913100481033325
0.30537116527557373,-0.10204470902681351,0.30537116527557373,0.2756160795688629,0.2748531401157379,0.2763790488243103
0.31452658772468567,-0.10547798871994019,0.31490805745124817,0.28400853276252747,0.28400853276252747,0.28553444147109985
0.3236820101737976,-0.10814831405878067,0.3240634799003601,0.2931639552116394,0.2924010157585144,0.2943083941936493
0.33169299364089966,-0.11081864684820175,0.33169299364089966,0.30079346895217896,0.30003052949905396,0.30117493867874146
0.3412298858165741,-0.11425192654132843,0.3412298858165741,0.309567391872406,0.309567391872406,0.3103303611278534
0.35076677799224854,-0.11730372905731201,0.35114824771881104,0.31872281432151794,0.31834134459495544,0.31986725330352783
0.3603036403656006,-0.1203555315732956,0.3587777614593506,0.3278782367706299,0.3286411762237549,0.3286411762237549
0.368314653635025,-0.12302586436271667,0.368314653635025,0.33550775051116943,0.33398184180259705,0.33665215969085693
0.37823301553726196,-0.12645913660526276,0.37823301553726196,0.344663143157959,0.3442816734313965,0.34618905186653137
0.3881513774394989,-0.12989242374897003,0.3881513774394989,0.3542000353336334,0.3542000353336334,0.3549630045890808
0.39806973934173584,-0.1325627565383911,0.39845120906829834,0.36373692750930786,0.36259251832962036,0.36526283621788025
0.4064621925354004,-0.1359960287809372,0.4064621925354004,0.3721294105052948,0.3706035017967224,0.3721294105052948
0.41676202416419983,-0.13904783129692078,0.41676202416419983,0.38204777240753174,0.38014039397239685,0.38319218158721924
0.42706188559532166,-0.14286258816719055,0.42706188559532166,0.3915846347808838,0.3900587558746338,0.3931105434894562
0.4358358085155487,-0.14553292095661163,0.4358358085155487,0.3999771177768707,0.39883267879486084,0.4011215269565582
0.44651713967323303,-0.1493476778268814,0.44651713967323303,0.41027694940567017,0.4064621925354004,0.41103988885879517
0.45681697130203247,-0.1527809500694275,0.45681697130203247,0.4201953113079071,0.4198138415813446,0.421339750289917
0.4671168029308319,-0.15621423721313477,0.4674982726573944,0.43049514293670654,0.42973220348358154,0.43163958191871643
0.47627222537994385,-0.15926603972911835,0.47627222537994385,0.4396505653858185,0.439269095659256,0.440032035112381
0.4869535267353058,-0.16269932687282562,0.4869535267353058,0.4495689272880554,0.4499503970146179,0.4507133662700653
0.4980163276195526,-0.1665140837430954,0.4980163276195526,0.45986875891685486,0.46025025844573975,0.46063172817230225
0.5086976289749146,-0.16994735598564148,0.5086976289749146,0.4701686203479767,0.4705500900745392,0.4713130295276642
0.5182345509529114,-0.17299915850162506,0.5178530812263489,0.47779813408851624,0.47932401299476624,0.4804684519767761
0.5292973518371582,-0.17681391537189484,0.5289158225059509,0.49038681387901306,0.49076828360557556,0.49076828360557556
0.5399786233901978,-0.1806286722421646,0.5399786233901978,0.501068115234375,0.501068115234375,0.5025940537452698
0.5495155453681946,-0.182917520403862,0.5491340756416321,0.5102235674858093,0.5071717500686646,0.5109865069389343
0.5601968169212341,-0.18711376190185547,0.5601968169212341,0.5205233693122864,0.5205233693122864,0.5216678380966187
0.5716410875320435,-0.19092851877212524,0.572022557258606,0.5312047004699707,0.5312047004699707,0.5323491096496582
0.5827038884162903,-0.19474326074123383,0.5830853581428528,0.54264897108078,0.5437933802604675,0.5430304408073425
0.5926222801208496,-0.1974135935306549,0.5922408103942871,0.5529488325119019,0.5518043637275696,0.5529488325119019
0.6040665507316589,-0.20160982012748718,0.6040665507316589,0.5640115737915039,0.5632486343383789,0.5624856948852539
0.6155108213424683,-0.20542457699775696,0.6155108213424683,0.5750743746757507,0.5743114352226257,0.5754558444023132
0.6250476837158203,-0.20885786414146423,0.6231403350830078,0.5846112966537476,0.5857557058334351,0.5849927663803101
0.6364919543266296,-0.21229113638401031,0.6364919543266296,0.5922408103942871,0.5971999764442444,0.5952925682067871
0.647936224937439,-0.21648737788200378,0.6483176946640015,0.6067368388175964,0.6071183085441589,0.6071183085441589
0.6593804955482483,-0.21992065012454987,0.6593804955482483,0.6162737607955933,0.6185625791549683,0.6174181699752808
0.6692988276481628,-0.22373540699481964,0.6692988276481628,0.6273365616798401,0.6284809708595276,0.6277180314064026
0.6811245679855347,-0.22755016386508942,0.6811245679855347,0.6387808322906494,0.6399252414703369,0.6391623020172119
0.6929503083229065,-0.2313649207353592,0.692568838596344,0.650225043296814,0.6498435735702515,0.6506065726280212
0.7047760486602783,-0.23517967760562897,0.7043945789337158,0.6620507836341858,0.6609063744544983,0.6628137826919556
0.7146944403648376,-0.23861294984817505,0.7143129706382751,0.6719691753387451,0.6723506450653076,0.6719691753387451
0.726138710975647,-0.24242770671844482,0.726138710975647,0.6822690367698669,0.6857023239135742,0.6841763854026794
0.7375829815864563,-0.2462424635887146,0.7375829815864563,0.6944762468338013,0.6952391862869263,0.6944762468338013
0.7471198439598083,-0.24929426610469818,0.7478827834129333,0.7047760486602783,0.7047760486602783,0.7047760486602783
0.7593270540237427,-0.25349050760269165,0.7597085237503052,0.7169833183288574,0.7162203192710876,0.7158388495445251
0.7711527943611145,-0.2573052644729614,0.7715343236923218,0.7288090586662292,0.728427529335022,0.726138710975647
0.7833600640296936,-0.2615014910697937,0.7795453071594238,0.7410162687301636,0.7421606779098511,0.7398717999458313
0.7936598658561707,-0.2645532786846161,0.7932783961296082,0.7513160705566406,0.7509346008300781,0.7497901916503906
0.80510413646698,-0.26874953508377075,0.8054856061935425,0.76276034116745,0.76276034116745,0.761997401714325
0.8169298768043518,-0.2725642919540405,0.8169298768043518,0.7738231420516968,0.7761120200157166,0.7730602025985718
0.8268482685089111,-0.2759975492954254,0.8272297382354736,0.7837415337562561,0.7845044732093811,0.7829785346984863
0.838674008846283,-0.2798123061656952,0.8390554785728455,0.7955672740936279,0.7967116832733154,0.7948042750358582
0.8504997491836548,-0.28362706303596497,0.8508812189102173,0.80663001537323,0.8085374236106873,0.805867075920105
0.8623254895210266,-0.28782328963279724,0.8623254895210266,0.8184558153152466,0.8215075731277466,0.8180742859840393
0.8726252913475037,-0.290875107049942,0.8726252913475037,0.8287556171417236,0.8302815556526184,0.8276112079620361
0.8844510316848755,-0.2946898639202118,0.884069561958313,0.840962827205658,0.8405813574790955,0.840199887752533
0.8958953022956848,-0.29888609051704407,0.8958953022956848,0.8524070978164673,0.8527885675430298,0.8520256280899048
0.9058136940002441,-0.30193790793418884,0.9058136940002441,0.8627069592475891,0.8638513684272766,0.8619440197944641
0.9172579646110535,-0.3061341345310211,0.917639434337616,0.8741512298583984,0.8756771087646484,0.8730067610740662
0.9290837049484253,-0.3091859221458435,0.9294651746749878,0.8859769701957703,0.8855955004692078,0.8844510316848755
0.9401465058326721,-0.31376364827156067,0.9409094452857971,0.8978027105331421,0.8985656499862671,0.8962767720222473
0.9500648379325867,-0.31681543588638306,0.9508277773857117,0.9081025123596191,0.9073395729064941,0.9058136940002441
0.962272047996521,-0.32063019275665283,0.962272047996521,0.9180209040641785,0.9214541912078857,0.9180209040641785
0.9737163186073303,-0.3248264193534851,0.9737163186073303,0.9309910535812378,0.9321355223655701,0.9279392957687378
0.9851605892181396,-0.3282597064971924,0.9847791194915771,0.9409094452857971,0.9458686113357544,0.9409094452857971
0.9946975111961365,-0.33169299364089966,0.9946975111961365,0.952735185623169,0.9554055333137512,0.9508277773857117
1.0061417818069458,-0.33550775051116943,1.0061417818069458,0.9637979865074158,0.9676127433776855,0.962272047996521
1.0175859928131104,-0.3393225073814392,1.0175859928131104,0.9752422571182251,0.9794384837150574,0.9740977883338928
1.0271228551864624,-0.3423742949962616,1.0275044441223145,0.9843976497650146,0.9897382855415344,0.9828717708587646
1.038185715675354,-0.34618905186653137,1.0370413064956665,0.995841920375824,1.0023269653320312,0.9946975111961365
1.0496299266815186,-0.34962233901023865,1.050011396408081,1.0069047212600708,1.0107194185256958,1.0053788423538208
1.0610742568969727,-0.3534370958805084,1.0610742568969727,1.0183489322662354,1.0236896276474,1.0172045230865479
1.0702296495437622,-0.3564889132976532,1.0702296495437622,1.0282673835754395,1.0336079597473145,1.0271228551864624
1.0812923908233643,-0.3603036403656006,1.0812923908233643,1.039711594581604,1.044670820236206,1.0378042459487915
1.0923552513122559,-0.36335545778274536,1.0923552513122559,1.050774335861206,1.058022379875183,1.049248456954956
1.101129174232483,-0.36717021465301514,1.1015106439590454,1.0606927871704102,1.0645074844360352,1.0584038496017456
1.1118104457855225,-0.3706035017967224,1.112191915512085,1.0721369981765747,1.0763332843780518,1.0687037706375122
1.122873306274414,-0.3740367889404297,1.1232547760009766,1.0835813283920288,1.0866330862045288,1.0797665119171143
1.1335545778274536,-0.3778515160083771,1.1335545778274536,1.0938811302185059,1.0965514183044434,1.0904479026794434
1.1427099704742432,-0.38052186369895935,1.1427099704742432,1.1015106439590454,1.1053253412246704,1.100366234779358
1.1533913612365723,-0.3847180902957916,1.1533913612365723,1.109140157699585,1.117914080619812,1.110666036605835
1.1636911630630493,-0.3881513774394989,1.1636911630630493,1.1224918365478516,1.128213882446289,1.121347427368164
1.1736094951629639,-0.3915846347808838,1.1739909648895264,1.1346989870071411,1.1369879245758057,1.1324101686477661
1.182383418083191,-0.39425498247146606,1.182383418083191,1.1434729099273682,1.1457618474960327,1.1408026218414307
1.1926833391189575,-0.39768826961517334,1.19306480884552,1.1541543006896973,1.1549172401428223,1.1514838933944702
1.202601671218872,-0.4011215269565582,1.2029831409454346,1.1636911630630493,1.1648355722427368,1.1614023447036743
1.2113755941390991,-0.404173344373703,1.2113755941390991,1.1724650859832764,1.1728465557098389,1.1701762676239014
1.2212939262390137,-0.4072251319885254,1.2216753959655762,1.1827648878097534,1.185053825378418,1.180857539176941
1.2312123775482178,-0.41065841913223267,1.2312123775482178,1.19153892993927,1.1972609758377075,1.1907758712768555
1.2407492399215698,-0.41371023654937744,1.2411307096481323,1.203364610671997,1.205653429031372,1.2006943225860596
1.2487602233886719,-0.41638055443763733,1.2491416931152344,1.2117570638656616,1.2129014730453491,1.2090867757797241
1.258297085762024,-0.4194323718547821,1.2571526765823364,1.2212939262390137,1.2251087427139282,1.2182421684265137
1.2674524784088135,-0.4224841594696045,1.2682154178619385,1.2315938472747803,1.2331197261810303,1.2281605005264282
1.276607871055603,-0.42553597688674927,1.2769893407821655,1.2407492399215698,1.2403677701950073,1.2380788326263428
1.284618854522705,-0.42820629477500916,1.2850003242492676,1.2495231628417969,1.2518119812011719,1.2457083463668823
1.2937743663787842,-0.43125811219215393,1.2941558361053467,1.2586785554885864,1.259822964668274,1.2556267976760864
1.3025482892990112,-0.4343098998069763,1.3033112287521362,1.2666895389556885,1.2701228857040405,1.264782190322876
1.3101778030395508,-0.4365987777709961,1.3101778030395508,1.2754634618759155,1.27775239944458,1.272030234336853
1.3189517259597778,-0.4396505653858185,1.3193331956863403,1.2850003242492676,1.2869077920913696,1.281567096710205
1.3273441791534424,-0.44270238280296326,1.3273441791534424,1.2937743663787842,1.2945373058319092,1.2903410196304321
1.335736632347107,-0.44537270069122314,1.3361181020736694,1.3025482892990112,1.3040741682052612,1.2987334728240967
1.3426032066345215,-0.44766154885292053,1.3426032066345215,1.3090333938598633,1.3117036819458008,1.3071259260177612
1.350995659828186,-0.4503318965435028,1.3513771295547485,1.3185702562332153,1.3189517259597778,1.3155183792114258
1.359006643295288,-0.4533836841583252,1.3593881130218506,1.3265812397003174,1.3284885883331299,1.3235293626785278
1.3670176267623901,-0.4560540020465851,1.3670176267623901,1.334973692893982,1.335736632347107,1.3323034048080444
1.3735027313232422,-0.45796138048171997,1.3738842010498047,1.341458797454834,1.342984676361084,1.3391698598861694
1.3815137147903442,-0.46063172817230225,1.3815137147903442,1.349469780921936,1.3513771295547485,1.3471808433532715
1.3887617588043213,-0.46330204606056213,1.3887617588043213,1.3578622341156006,1.359006643295288,1.3551918268203735
1.3952468633651733,-0.465209424495697,1.3952468633651733,1.3647288084030151,1.3647288084030151,1.3616769313812256
1.4024949073791504,-0.4674982726573944,1.4024949073791504,1.3723583221435547,1.3731212615966797,1.3693064451217651
1.4093613624572754,-0.4697871506214142,1.409742832183838,1.3799878358840942,1.3796063661575317,1.3765544891357422
1.41622793674469,-0.4720759987831116,1.41622793674469,1.3876173496246338,1.3887617588043213,1.3841840028762817
1.421950101852417,-0.47436484694480896,1.4223315715789795,1.3925764560699463,1.3952468633651733,1.3910505771636963
1.428435206413269,-0.47627222537994385,1.4288166761398315,1.4005874395370483,1.4013503789901733,1.3975356817245483
1.434920310974121,-0.47856107354164124,1.4353017807006836,1.4078354835510254,1.4085984230041504,1.404402256011963
1.4414052963256836,-0.4804684519767761,1.4417868852615356,1.41470205783844,1.415464997291565,1.4112688302993774
1.4463645219802856,-0.482375830411911,1.4467459917068481,1.4200427532196045,1.4208056926727295,1.41775381565094
1.4524681568145752,-0.4842832088470459,1.4528496265411377,1.4265278577804565,1.4280537366867065,1.423475980758667
1.4585717916488647,-0.4861905872821808,1.4585717916488647,1.4326313734054565,1.4333943128585815,1.429961085319519
1.4639123678207397,-0.4880979657173157,1.4642938375473022,1.4391164779663086,1.4391164779663086,1.4368276596069336
1.4688715934753418,-0.48962387442588806,1.4688715934753418,1.4440757036209106,1.4440757036209106,1.4417868852615356
1.4742122888565063,-0.49153125286102295,1.4745937585830688,1.4497978687286377,1.4497978687286377,1.4471274614334106
1.4791713953018188,-0.49305713176727295,1.4795528650283813,1.4555199146270752,1.4559013843536377,1.4528496265411377
1.4837491512298584,-0.49458304047584534,1.4837491512298584,1.4604791402816772,1.4608606100082397,1.4581903219223022
1.488326907157898,-0.4961089491844177,1.4875638484954834,1.4658198356628418,1.4673457145690918,1.4635308980941772
1.4932860136032104,-0.4980163276195526,1.4932860136032104,1.4707789421081543,1.4719233512878418,1.4688715934753418
1.49786376953125,-0.499542236328125,1.49786376953125,1.4761196374893188,1.4768825769424438,1.4738308191299438
1.5012969970703125,-0.5006866455078125,1.5012969970703125,1.4799343347549438,1.481078863143921,1.4776455163955688
1.5054932832717896,-0.5018310546875,1.5054932832717896,1.4845120906829834,1.4860379695892334,1.482604742050171
1.509689450263977,-0.5029755234718323,1.508926510810852,1.489852786064148,1.4902342557907104,1.4875638484954834
1.5127413272857666,-0.5045014023780823,1.5127413272857666,1.4932860136032104,1.492904543876648,1.4909971952438354
1.5165560245513916,-0.5056458115577698,1.5165560245513916,1.49786376953125,1.497100830078125,1.495956301689148
1.5199893712997437,-0.506790280342102,1.5199893712997437,1.501678466796875,1.5012969970703125,1.4993896484375
1.5234225988388062,-0.5079346895217896,1.5234225988388062,1.5054932832717896,1.5062562227249146,1.503204345703125
1.5257114171981812,-0.5086976289749146,1.5257114171981812,1.508926510810852,1.5100709199905396,1.5062562227249146
1.5287632942199707,-0.5098420977592468,1.5287632942199707,1.5119783878326416,1.513885736465454,1.5100709199905396
1.5318150520324707,-0.5109865069389343,1.5314335823059082,1.5150301456451416,1.5165560245513916,1.513885736465454
1.5341038703918457,-0.5117494463920593,1.5344853401184082,1.5188448429107666,1.519226312637329,1.516937494277954
1.5360113382339478,-0.5121309161186218,1.5363928079605103,1.5211337804794312,1.5211337804794312,1.5203708410263062
1.5383001565933228,-0.5128938555717468,1.5383001565933228,1.5241855382919312,1.5238040685653687,1.5230411291122437
1.5402075052261353,-0.5136567950248718,1.5405889749526978,1.5272372961044312,1.5260928869247437,1.5249484777450562
1.5421148538589478,-0.5140383243560791,1.5421148538589478,1.5287632942199707,1.5287632942199707,1.5276188850402832
1.5436408519744873,-0.5148012638092041,1.5432593822479248,1.5314335823059082,1.5314335823059082,1.5291447639465332
1.5455482006072998,-0.5148012638092041,1.5447852611541748,1.5333409309387207,1.5352483987808228,1.5314335823059082
1.5463111400604248,-0.5155642032623291,1.5463111400604248,1.5352483987808228,1.5367742776870728,1.5333409309387207
1.5474555492401123,-0.5159456729888916,1.5470740795135498,1.5367742776870728,1.5383001565933228,1.5360113382339478
1.5482184886932373,-0.5159456729888916,1.5482184886932373,1.5390630960464478,1.5386816263198853,1.5375372171401978
1.5493628978729248,-0.5163271427154541,1.5489814281463623,1.5394445657730103,1.5398260354995728,1.5383001565933228
1.5497443675994873,-0.5167086124420166,1.5497443675994873,1.5409704446792603,1.5405889749526978,1.5394445657730103
1.5497443675994873,-0.5167086124420166,1.5501258373260498,1.5421148538589478,1.5421148538589478,1.5405889749526978
1.5497443675994873,-0.5167086124420166,1.5501258373260498,1.5428777933120728,1.5424963235855103,1.5421148538589478
1.5497443675994873,-0.5167086124420166,1.5501258373260498,1.5436408519744873,1.5440223217010498,1.5424963235855103
1.5497443675994873,-0.5167086124420166,1.5497443675994873,1.5440223217010498,1.5440223217010498,1.5424963235855103
1.5493628978729248,-0.5167086124420166,1.5497443675994873,1.5440223217010498,1.5440223217010498,1.5428777933120728
1.5493628978729248,-0.5167086124420166,1.5493628978729248,1.5440223217010498,1.5436408519744873,1.5432593822479248
1.5493628978729248,-0.5167086124420166,1.5485999584197998,1.5440223217010498,1.5436408519744873,1.5436408519744873
1.5489814281463623,-0.5163271427154541,1.5482184886932373,1.5440223217010498,1.5436408519744873,1.5436408519744873
1.5482184886932373,-0.5163271427154541,1.5463111400604248,1.5432593822479248,1.5436408519744873,1.5444037914276123
1.5463111400604248,-0.5155642032623291,1.5451667308807373,1.5432593822479248,1.5436408519744873,1.5447852611541748
1.5444037914276123,-0.5151827335357666,1.5432593822479248,1.5432593822479248,1.5432593822479248,1.5444037914276123
1.5432593822479248,-0.5144197940826416,1.5417333841323853,1.5428777933120728,1.5424963235855103,1.5436408519744873
1.5409704446792603,-0.5140383243560791,1.5398260354995728,1.5428777933120728,1.5421148538589478,1.5424963235855103
1.5390630960464478,-0.5132753252983093,1.5379186868667603,1.5417333841323853,1.5409704446792603,1.5413519144058228
1.5367742776870728,-0.5125123858451843,1.5356298685073853,1.5413519144058228,1.5386816263198853,1.5402075052261353
1.5344853401184082,-0.5117494463920593,1.5333409309387207,1.5394445657730103,1.5367742776870728,1.5379186868667603
1.5314335823059082,-0.5109865069389343,1.5306706428527832,1.5367742776870728,1.5348668098449707,1.5352483987808228
1.5291447639465332,-0.5098420977592468,1.5283818244934082,1.5348668098449707,1.5329594612121582,1.5333409309387207
1.5257114171981812,-0.5086976289749146,1.5253299474716187,1.5325779914855957,1.5299077033996582,1.5314335823059082
1.5226596593856812,-0.507553219795227,1.5215152502059937,1.5295262336730957,1.5280003547668457,1.5283818244934082
1.519226312637329,-0.506790280342102,1.518463373184204,1.5268558263778687,1.5249484777450562,1.5257114171981812
1.5157930850982666,-0.5056458115577698,1.515411615371704,1.5245670080184937,1.5230411291122437,1.5230411291122437
1.5119783878326416,-0.5045014023780823,1.5115967988967896,1.5199893712997437,1.5196079015731812,1.5203708410263062
1.5077821016311646,-0.5033569931983948,1.507400631904602,1.516174554824829,1.5165560245513916,1.5173189640045166
1.5035858154296875,-0.5014495849609375,1.503204345703125,1.512359857559204,1.511215329170227,1.5135042667388916
1.500152587890625,-0.50030517578125,1.4997711181640625,1.5085450410842896,1.5093079805374146,1.5100709199905396
1.4955748319625854,-0.4991607666015625,1.4948118925094604,1.504348874092102,1.5047303438186646,1.505874752998352
1.490615725517273,-0.4972533881664276,1.4902342557907104,1.500152587890625,1.5005340576171875,1.501678466796875
1.486419439315796,-0.4961089491844177,1.4860379695892334,1.496337890625,1.4974822998046875,1.4982452392578125
1.4814603328704834,-0.49420157074928284,1.481078863143921,1.4925230741500854,1.492904543876648,1.493667483329773
1.4761196374893188,-0.49229419231414795,1.4753566980361938,1.487945318222046,1.488326907157898,1.4894713163375854
1.4707789421081543,-0.49076828360557556,1.4700160026550293,1.483367681503296,1.483367681503296,1.484893560409546
1.4662013053894043,-0.4888609051704407,1.4658198356628418,1.4795528650283813,1.4784084558486938,1.4806973934173584
1.4600976705551147,-0.4869535267353058,1.4600976705551147,1.4738308191299438,1.4749752283096313,1.4757381677627563
1.4543755054473877,-0.4850461483001709,1.4539940357208252,1.4692530632019043,1.4692530632019043,1.4711604118347168
1.4482718706130981,-0.4827573001384735,1.4475089311599731,1.4642938375473022,1.4635308980941772,1.4639123678207397
1.4429312944412231,-0.4812313914299011,1.4429312944412231,1.4597162008285522,1.4589532613754272,1.4593347311019897
1.4360647201538086,-0.47894254326820374,1.436446189880371,1.4536125659942627,1.4532310962677002,1.4539940357208252
1.4295796155929565,-0.47703516483306885,1.4295796155929565,1.4482718706130981,1.4478904008865356,1.4482718706130981
1.4238574504852295,-0.47474631667137146,1.4238574504852295,1.4433127641677856,1.4421683549880981,1.4425498247146606
1.4166094064712524,-0.4724574685096741,1.4166094064712524,1.4368276596069336,1.4368276596069336,1.436446189880371
1.409742832183838,-0.4701686203479767,1.4093613624572754,1.429961085319519,1.4295796155929565,1.429961085319519
1.4021133184432983,-0.4678797721862793,1.4021133184432983,1.4223315715789795,1.4230945110321045,1.4238574504852295
1.3960098028182983,-0.4659723937511444,1.3960098028182983,1.4158464670181274,1.4166094064712524,1.4173723459243774
1.3883802890777588,-0.46330204606056213,1.3883802890777588,1.408216953277588,1.4101243019104004,1.4105058908462524
1.3807507753372192,-0.46063172817230225,1.3803693056106567,1.3998245000839233,1.4013503789901733,1.403639316558838
1.3727397918701172,-0.45796138048171997,1.3727397918701172,1.3937208652496338,1.3937208652496338,1.3963912725448608
1.3662546873092651,-0.4556725323200226,1.3658732175827026,1.3857098817825317,1.3872358798980713,1.3899061679840088
1.3578622341156006,-0.4530022144317627,1.357480764389038,1.3776988983154297,1.3799878358840942,1.3826581239700317
1.349469780921936,-0.4499503970146179,1.3490883111953735,1.3700693845748901,1.3723583221435547,1.3750286102294922
1.3418402671813965,-0.44766154885292053,1.3418402671813965,1.3632028102874756,1.3662546873092651,1.3677805662155151
1.3330663442611694,-0.44460976123809814,1.3330663442611694,1.355954885482788,1.356717824935913,1.3593881130218506
1.3246738910675049,-0.44155794382095337,1.3242924213409424,1.3483253717422485,1.348706841468811,1.3513771295547485
1.3170443773269653,-0.439269095659256,1.3166629076004028,1.339932918548584,1.342984676361084,1.3441290855407715
1.3078888654708862,-0.4358358085155487,1.3075073957443237,1.3319218158721924,1.3345922231674194,1.3361181020736694
1.2987334728240967,-0.4331654906272888,1.2983520030975342,1.3235293626785278,1.3261997699737549,1.3273441791534424
1.2891966104507446,-0.42973220348358154,1.2891966104507446,1.3178073167800903,1.3178073167800903,1.3185702562332153
1.2811856269836426,-0.42744335532188416,1.2811856269836426,1.3078888654708862,1.3101778030395508,1.3105592727661133
1.2716487646102905,-0.4240100681781769,1.2716487646102905,1.3002593517303467,1.2994964122772217,1.3014038801193237
1.261730432510376,-0.4209582805633545,1.261730432510376,1.2895780801773071,1.2911039590835571,1.2930114269256592
1.2518119812011719,-0.4175249934196472,1.2518119812011719,1.28080415725708,1.2811856269836426,1.283092975616455
1.2434195280075073,-0.41485464572906494,1.2430380582809448,1.2724117040634155,1.272793173789978,1.275844931602478
1.2331197261810303,-0.41180285811424255,1.2331197261810303,1.262493371963501,1.2628748416900635,1.2659265995025635
1.2228199243545532,-0.4087510406970978,1.2228199243545532,1.2525749206542969,1.2533378601074219,1.2556267976760864
1.2140458822250366,-0.4053177833557129,1.2140458822250366,1.2438009977340698,1.2449454069137573,1.2476158142089844
1.2037460803985596,-0.4018844962120056,1.203364610671997,1.2335011959075928,1.2346456050872803,1.2376973628997803
1.19306480884552,-0.39806973934173584,1.1926833391189575,1.2232013940811157,1.2243458032608032,1.2277790307998657
1.182383418083191,-0.39539939165115356,1.1820019483566284,1.2129014730453491,1.2144273519515991,1.2178606986999512
1.1732280254364014,-0.3912031650543213,1.1736094951629639,1.204127550125122,1.2067978382110596,1.2087053060531616
1.1621652841567993,-0.3889143168926239,1.1621652841567993,1.1942092180252075,1.1934462785720825,1.198405385017395
1.1511024236679077,-0.3839551508426666,1.1511024236679077,1.1839094161987305,1.185053825378418,1.187342643737793
1.1400396823883057,-0.38052186369895935,1.1400396823883057,1.1751353740692139,1.1728465557098389,1.1774243116378784
1.1305028200149536,-0.3770885765552521,1.1305028200149536,1.1644541025161743,1.1652170419692993,1.1682689189910889
1.119439959526062,-0.3736552894115448,1.1190584897994995,1.1533913612365723,1.1537728309631348,1.1575875282287598
1.10837721824646,-0.3694590628147125,1.1079957485198975,1.1430914402008057,1.1430914402008057,1.1461433172225952
1.0984588861465454,-0.36640727519989014,1.0984588861465454,1.1339360475540161,1.1350804567337036,1.1369879245758057
1.0866330862045288,-0.36259251832962036,1.0862516164779663,1.1232547760009766,1.122873306274414,1.1255435943603516
1.0751888751983643,-0.3587777614593506,1.0748074054718018,1.1118104457855225,1.114862322807312,1.114862322807312
1.0633630752563477,-0.3542000353336334,1.0629816055297852,1.1007477045059204,1.1015106439590454,1.1030365228652954
1.0530632734298706,-0.35114824771881104,1.053444743156433,1.0904479026794434,1.0900664329528809,1.0934996604919434
1.041237473487854,-0.34733349084854126,1.041237473487854,1.0782406330108643,1.0782406330108643,1.0824369192123413
1.0297932624816895,-0.3435187339782715,1.029411792755127,1.0667964220046997,1.0687037706375122,1.0706111192703247
1.0175859928131104,-0.3393225073814392,1.0172045230865479,1.054970622062683,1.0538262128829956,1.0591669082641602
1.0072861909866333,-0.33588922023773193,1.0072861909866333,1.0450522899627686,1.045433759689331,1.0488669872283936
0.995078980922699,-0.33169299364089966,0.995078980922699,1.0328450202941895,1.0320820808410645,1.0378042459487915
0.9828717708587646,-0.3278782367706299,0.9828717708587646,1.0210193395614624,1.0217822790145874,1.02521550655365
0.9721904397010803,-0.3244449496269226,0.9725719094276428,1.0111008882522583,1.0114823579788208,1.0149157047271729
0.9596017599105835,-0.32024872303009033,0.959983229637146,1.0000381469726562,0.997367799282074,1.0030899047851562
0.9473945498466492,-0.31605249643325806,0.9473945498466492,0.9874494671821594,0.9866865277290344,0.9908827543258667
0.9370946884155273,-0.3122377395629883,0.9367132186889648,0.9767681360244751,0.9782940149307251,0.9809643626213074
0.9245060086250305,-0.308804452419281,0.924124538898468,0.9653238654136658,0.9676127433776855,0.9683756828308105
0.9119172692298889,-0.30422675609588623,0.9115357995033264,0.952735185623169,0.9523537158966064,0.9565499424934387
0.8993285894393921,-0.30041199922561646,0.8993285894393921,0.9409094452857971,0.9393835067749023,0.9435797929763794
0.8886472582817078,-0.2962157726287842,0.8886472582817078,0.9302281141281128,0.9287022352218628,0.9332799315452576
0.8756771087646484,-0.2924010157585144,0.8756771087646484,0.9195467829704285,0.9164950251579285,0.9210727214813232
0.8634698987007141,-0.28782328963279724,0.8630884289741516,0.9054322242736816,0.9039062857627869,0.9088655114173889
0.8508812189102173,-0.28400853276252747,0.8504997491836548,0.8928435444831848,0.892080545425415,0.8962767720222473
0.8398184180259705,-0.2801937758922577,0.8398184180259705,0.881780743598938,0.8806362748146057,0.8855955004692078
0.8272297382354736,-0.2767605185508728,0.8272297382354736,0.8695735335350037,0.8691920638084412,0.8733882904052734
0.8146410584449768,-0.27218279242515564,0.8146410584449768,0.8573662638664246,0.8562218546867371,0.8600366115570068
0.80357825756073,-0.26874953508377075,0.80357825756073,0.8470664620399475,0.8463035225868225,0.8497368097305298
0.7906080484390259,-0.2645532786846161,0.7906080484390259,0.8344777822494507,0.8337147831916809,0.8375295400619507
0.778019368648529,-0.2603570520877838,0.7776378989219666,0.8234149813652039,0.8196002244949341,0.8253223299980164
0.7673380374908447,-0.2569237947463989,0.7665750980377197,0.810826301574707,0.8093003630638123,0.813878059387207
0.7543678879737854,-0.25234606862068176,0.7539864182472229,0.7990005612373352,0.7974746227264404,0.8012893795967102
0.7413977384567261,-0.248531311750412,0.7433050870895386,0.7852674126625061,0.7791637778282166,0.7883192300796509
0.728427529335022,-0.2439536154270172,0.7288090586662292,0.7726787328720093,0.768482506275177,0.7761120200157166
0.7173647880554199,-0.24090181291103363,0.7177462577819824,0.7623788714408875,0.7574197053909302,0.7650492191314697
0.7047760486602783,-0.23632410168647766,0.7047760486602783,0.7497901916503906,0.7448310256004333,0.7524605393409729
0.6921873688697815,-0.23250934481620789,0.6921873688697815,0.7375829815864563,0.7337682247161865,0.7398717999458313
0.6815060377120972,-0.2286945879459381,0.6811245679855347,0.7288090586662292,0.7192721366882324,0.7291905283927917
0.6689173579216003,-0.22449836134910583,0.6685358881950378,0.7143129706382751,0.7085908055305481,0.7166017889976501
0.6563286781311035,-0.22030213475227356,0.655947208404541,0.7021057605743408,0.6963835954666138,0.7040131092071533
0.6437399983406067,-0.2161058932542801,0.6433585286140442,0.689517080783844,0.6841763854026794,0.6914244294166565
0.6326771974563599,-0.21229113638401031,0.6345845460891724,0.6780728101730347,0.6715877056121826,0.6807430982589722
0.620088517665863,-0.20809490978717804,0.6204699873924255,0.6654840707778931,0.6612878441810608,0.6681544184684753
0.6074998378753662,-0.20389868319034576,0.6097886562347412,0.6528953909873962,0.647936224937439,0.655184268951416
0.5956740379333496,-0.1997024416923523,0.5952925682067871,0.6406881809234619,0.6376363635063171,0.6429770588874817
0.5853742361068726,-0.1958876997232437,0.5849927663803101,0.6319142580032349,0.6273365616798401,0.6326771974563599
0.5727855563163757,-0.19169145822525024,0.5743114352226257,0.6181811094284058,0.6139848828315735,0.6204699873924255
0.5601968169212341,-0.18749523162841797,0.5601968169212341,0.6063553690910339,0.6040665507316589,0.6074998378753662
0.5498970150947571,-0.1844434291124344,0.5498970150947571,0.5960555672645569,0.5937666893005371,0.5968185067176819
0.5373083353042603,-0.17948424816131592,0.5376898050308228,0.5838482975959778,0.5819409489631653,0.5849927663803101
0.5251010656356812,-0.17566949129104614,0.5273899435997009,0.572022557258606,0.5670633912086487,0.5727855563163757
0.5136567950248718,-0.17147326469421387,0.5136567950248718,0.5598153471946716,0.5567635893821716,0.5605783462524414
0.5033569931983948,-0.1684214472770691,0.5033569931983948,0.5487525463104248,0.5495155453681946,0.5502784848213196
0.49153125286102295,-0.16422522068023682,0.49305713176727295,0.5373083353042603,0.5327305793762207,0.5376898050308228
0.4797055125236511,-0.16079194843769073,0.4797055125236511,0.5254825949668884,0.5224307775497437,0.5262455344200134
0.4678797721862793,-0.15659570693969727,0.4678797721862793,0.5136567950248718,0.5121309161186218,0.5144197940826416
0.45796138048171997,-0.15392538905143738,0.45757991075515747,0.5048828721046448,0.4991607666015625,0.5048828721046448
0.44651713967323303,-0.1493476778268814,0.44613564014434814,0.49153125286102295,0.49038681387901306,0.49229419231414795
0.4346913993358612,-0.14553292095661163,0.4346913993358612,0.47894254326820374,0.47703516483306885,0.4812313914299011
0.42515450716018677,-0.14248111844062805,0.42515450716018677,0.4697871506214142,0.4671168029308319,0.4705500900745392
0.41371023654937744,-0.13866636157035828,0.41371023654937744,0.45834288001060486,0.45719844102859497,0.45948728919029236
0.4026474356651306,-0.1348516047000885,0.4026474356651306,0.44766154885292053,0.44499123096466064,0.44766154885292053
0.3915846347808838,-0.13103684782981873,0.3915846347808838,0.440032035112381,0.4327840209007263,0.4365987777709961
0.38204777240753174,-0.12798504531383514,0.38242924213409424,0.42706188559532166,0.42629891633987427,0.42629891633987427
0.3709849715232849,-0.12417028844356537,0.3709849715232849,0.41599908471107483,0.41409170627593994,0.41561761498451233
0.3603036403656006,-0.1203555315732956,0.3622110188007355,0.4053177833557129,0.4015030264854431,0.404173344373703
0.35114824771881104,-0.11730372905731201,0.35152971744537354,0.39730677008628845,0.39539939165115356,0.39501792192459106
0.3404669165611267,-0.11387044936418533,0.3423742949962616,0.3843366205692291,0.38128480315208435,0.3843366205692291
0.33016708493232727,-0.11081864684820175,0.33169299364089966,0.3732738196849823,0.3709849715232849,0.3728923499584198
0.31986725330352783,-0.10700388997793198,0.3213931620121002,0.36259251832962036,0.3606851398944855,0.3622110188007355
0.3114747703075409,-0.10471503436565399,0.3110933005809784,0.3534370958805084,0.3530556261539459,0.3538185656070709
0.30117493867874146,-0.10090028494596481,0.30117493867874146,0.3435187339782715,0.3427557647228241,0.3435187339782715
0.2912565767765045,-0.09784847497940063,0.291638046503067,0.33360037207603455,0.33283740282058716,0.33283740282058716
0.2813382148742676,-0.09441519528627396,0.2817196846008301,0.3229190409183502,0.3225375711917877,0.3229190409183502
0.272945761680603,-0.09174486994743347,0.2733272314071655,0.31490805745124817,0.31376364827156067,0.31376364827156067
0.2634088695049286,-0.0883115902543068,0.2637903392314911,0.30460822582244873,0.3057526648044586,0.30460822582244873
0.25425344705581665,-0.08487831056118011,0.25463491678237915,0.2954528033733368,0.2931639552116394,0.2943083941936493
0.2462424635887146,-0.08258945494890213,0.2466239482164383,0.28706035017967224,0.28591591119766235,0.28629741072654724
0.23670557141304016,-0.07915617525577545,0.23746852576732635,0.2775234580039978,0.2756160795688629,0.2767605185508728
0.22793163359165192,-0.07648584991693497,0.2283131182193756,0.26836803555488586,0.26684215664863586,0.266460657119751
0.22030213475227356,-0.07419699430465698,0.22068360447883606,0.2603570520877838,0.2592126429080963,0.2599755823612213
0.21152819693088531,-0.0707637146115303,0.21190966665744781,0.2508201599121094,0.2500572204589844,0.24967575073242188
0.20428015291690826,-0.06847485899925232,0.20428015291690826,0.2443350851535797,0.24166475236415863,0.24166475236415863
0.1958876997232437,-0.06542305648326874,0.1958876997232437,0.23365376889705658,0.23327229917049408,0.23250934481620789
0.18749523162841797,-0.06275273114442825,0.18749523162841797,0.22487983107566833,0.22526131570339203,0.22411687672138214
0.1806286722421646,-0.06084534898400307,0.1806286722421646,0.21763180196285248,0.21801327168941498,0.21686884760856628
0.17261768877506256,-0.058175019919872284,0.17261768877506256,0.20923933386802673,0.21000228822231293,0.20809490978717804
0.164988175034523,-0.0555046908557415,0.164988175034523,0.20122835040092468,0.20237277448177338,0.200083926320076
0.15850308537483215,-0.05359731614589691,0.15850308537483215,0.19436179101467133,0.19398032128810883,0.19321736693382263
0.1508735716342926,-0.05054550990462303,0.1508735716342926,0.18673227727413177,0.18596932291984558,0.18520638346672058
0.14362554252147675,-0.048256658017635345,0.14400701224803925,0.17910276353359222,0.17795833945274353,0.17757686972618103
0.13790340721607208,-0.04634927958250046,0.13790340721607208,0.17261768877506256,0.17109178006649017,0.17071031033992767
0.13103684782981873,-0.043678950518369675,0.13103684782981873,0.164988175034523,0.1646067053079605,0.16346226632595062
0.12417028844356537,-0.04177157208323479,0.12455176562070847,0.15850308537483215,0.15812161564826965,0.15583276748657227
0.1188296303153038,-0.040245670825242996,0.1192111074924469,0.152399480342865,0.1508735716342926,0.1497291475534439
0.11234454810619354,-0.03757534176111221,0.11272602528333664,0.14476996660232544,0.14438849687576294,0.14324407279491425
0.10738536715507507,-0.03604944050312042,0.10700388997793198,0.13942931592464447,0.13904783129692078,0.1371404528617859
0.10128175467252731,-0.034142062067985535,0.10128175467252731,0.1325627565383911,0.1325627565383911,0.13027389347553253
0.09555962681770325,-0.032616160809993744,0.09517814964056015,0.12569619715213776,0.12684062123298645,0.12455176562070847
0.09098191559314728,-0.030708782374858856,0.09060044586658478,0.12073700875043869,0.12073700875043869,0.1192111074924469
0.08564125746488571,-0.02880140393972397,0.08564125746488571,0.11577782779932022,0.11539635062217712,0.11234454810619354
0.08068207651376724,-0.02727550081908703,0.08106355369091034,0.10891126841306686,0.11005569249391556,0.10700388997793198
0.07648584991693497,-0.026512550190091133,0.07610437273979187,0.10433356463909149,0.10585946589708328,0.1024261862039566
0.0715266615152359,-0.024223696440458298,0.071908138692379,0.09937438368797302,0.09899290651082993,0.09708552807569504
0.06694895774126053,-0.02231631986796856,0.06694895774126053,0.09441519528627396,0.09365224838256836,0.09174486994743347
0.06351567804813385,-0.02079041674733162,0.06389715522527695,0.09060044586658478,0.08983749151229858,0.0875486359000206
0.059319447726011276,-0.019645990803837776,0.059319447726011276,0.08525978773832321,0.08411535620689392,0.08258945494890213
0.0551232174038887,-0.018501564860343933,0.0551232174038887,0.08068207651376724,0.07915617525577545,0.07763027399778366
0.05207141116261482,-0.01735713705420494,0.05245288833975792,0.07648584991693497,0.07495994865894318,0.07419699430465698
0.048638131469488144,-0.016594186425209045,0.04901960864663124,0.07305257022380829,0.0711451917886734,0.06923781335353851
0.04596780240535736,-0.01583123579621315,0.04596780240535736,0.06961929053068161,0.06771191209554672,0.06580453366041183
0.04253452271223068,-0.014686808921396732,0.04329747334122658,0.06618601083755493,0.06466010212898254,0.06275273114442825
0.0394827201962471,-0.013542382046580315,0.0398641936480999,0.06275273114442825,0.061226826161146164,0.05893797054886818
0.03757534176111221,-0.012779430486261845,0.03757534176111221,0.05855649709701538,0.05855649709701538,0.0558861680328846
0.03528648987412453,-0.012397955171763897,0.03528648987412453,0.054741740226745605,0.05436026677489281,0.05245288833975792
0.03299763426184654,-0.011635004542768002,0.03299763426184654,0.05130846053361893,0.05130846053361893,0.04940108209848404
0.03147173300385475,-0.01125352829694748,0.031090257689356804,0.04940108209848404,0.049782559275627136,0.04711223021149635
0.029564354568719864,-0.010490577667951584,0.029564354568719864,0.04787518084049225,0.04749370738863945,0.04482337832450867
0.028038453310728073,-0.010109102353453636,0.02841992862522602,0.04634927958250046,0.04482337832450867,0.04291599988937378
0.02689402550458908,-0.009346150793135166,0.02689402550458908,0.043678950518369675,0.04329747334122658,0.04139009863138199
0.025749599561095238,-0.00858320016413927,0.025749599561095238,0.04139009863138199,0.04139009863138199,0.039101243019104004
0.024605173617601395,-0.00858320016413927,0.024986648932099342,0.039101243019104004,0.040627144277095795,0.03757534176111221
0.02384222112596035,-0.008201723918318748,0.024223696440458298,0.037193864583969116,0.038719769567251205,0.03528648987412453
0.02384222112596035,-0.007438773289322853,0.02384222112596035,0.035667963325977325,0.03681239113211632,0.034142062067985535
0.02384222112596035,-0.007438773289322853,0.023460745811462402,0.034142062067985535,0.035667963325977325,0.032616160809993744
0.024223696440458298,-0.007438773289322853,0.023460745811462402,0.03337911143898964,0.03490501269698143,0.03223468363285065
0.024223696440458298,-0.007438773289322853,0.023460745811462402,0.03299763426184654,0.03452353551983833,0.03185320645570755
0.024223696440458298,-0.007438773289322853,0.02384222112596035,0.03299763426184654,0.034142062067985535,0.03185320645570755
0.024223696440458298,-0.007438773289322853,0.024223696440458298,0.03299763426184654,0.03452353551983833,0.03185320645570755
0.024223696440458298,-0.007438773289322853,0.02536812424659729,0.03299763426184654,0.03452353551983833,0.03147173300385475
0.024605173617601395,-0.007438773289322853,0.026131074875593185,0.03299763426184654,0.03452353551983833,0.03185320645570755
0.025749599561095238,-0.007438773289322853,0.02727550081908703,0.03299763426184654,0.03452353551983833,0.03185320645570755
0.02727550081908703,-0.0078202486038208,0.02880140393972397,0.03337911143898964,0.034142062067985535,0.03185320645570755
0.029564354568719864,-0.008201723918318748,0.030708782374858856,0.03337911143898964,0.034142062067985535,0.03185320645570755
0.03147173300385475,-0.008964675478637218,0.032616160809993744,0.03376058489084244,0.03376058489084244,0.032616160809993744
0.03376058489084244,-0.009346150793135166,0.03452353551983833,0.034142062067985535,0.034142062067985535,0.03299763426184654
0.03604944050312042,-0.010872052982449532,0.037193864583969116,0.03528648987412453,0.03490501269698143,0.03337911143898964
0.038719769567251205,-0.01201647985726595,0.0398641936480999,0.037193864583969116,0.03604944050312042,0.03490501269698143
0.04139009863138199,-0.012779430486261845,0.04253452271223068,0.038719769567251205,0.03795681521296501,0.037193864583969116
0.04444190114736557,-0.013542382046580315,0.04558632895350456,0.04100862145423889,0.040627144277095795,0.0398641936480999
0.048256658017635345,-0.01506828423589468,0.04901960864663124,0.04406042397022247,0.043678950518369675,0.04253452271223068
0.05092698708176613,-0.016212711110711098,0.051689937710762024,0.04596780240535736,0.04596780240535736,0.045204851776361465
0.0551232174038887,-0.01773861236870289,0.0555046908557415,0.049782559275627136,0.048638131469488144,0.048638131469488144
0.05893797054886818,-0.01926451548933983,0.05970092490315437,0.053215838968753815,0.05207141116261482,0.05207141116261482
0.06275273114442825,-0.02040894143283367,0.06313420087099075,0.0551232174038887,0.0551232174038887,0.054741740226745605
0.06733043491840363,-0.02193484455347061,0.06771191209554672,0.05893797054886818,0.05855649709701538,0.057793546468019485
0.0707637146115303,-0.023079270496964455,0.071908138692379,0.06198977679014206,0.06198977679014206,0.061226826161146164
0.07610437273979187,-0.024605173617601395,0.07648584991693497,0.06504157930612564,0.06656748056411743,0.06542305648326874
0.08106355369091034,-0.026131074875593185,0.08182650804519653,0.07000076025724411,0.07000076025724411,0.06961929053068161
0.08564125746488571,-0.028038453310728073,0.08525978773832321,0.07419699430465698,0.07381551712751389,0.07343403995037079
0.09136339277029037,-0.02994582988321781,0.09174486994743347,0.07953765243291855,0.07724879682064056,0.07839322835206985
0.09670405089855194,-0.03185320645570755,0.09746700525283813,0.08411535620689392,0.08258945494890213,0.08373387902975082
0.10204470902681351,-0.03376058489084244,0.10166323184967041,0.0875486359000206,0.08564125746488571,0.0883115902543068
0.10814831405878067,-0.035667963325977325,0.10814831405878067,0.09212634712457657,0.09288929402828217,0.09327077120542526
0.11425192654132843,-0.03795681521296501,0.11463340371847153,0.09861142933368683,0.09822995215654373,0.09861142933368683
0.1199740618467331,-0.0398641936480999,0.11959258466959,0.1035706102848053,0.1028076633810997,0.1035706102848053
0.12684062123298645,-0.042153049260377884,0.12684062123298645,0.10929274559020996,0.10852979123592377,0.10967422276735306
0.13218127191066742,-0.04406042397022247,0.1325627565383911,0.11425192654132843,0.11387044936418533,0.11463340371847153
0.13981078565120697,-0.04634927958250046,0.13981078565120697,0.12111848592758179,0.1203555315732956,0.12111848592758179
0.14705882966518402,-0.04901960864663124,0.14705882966518402,0.12569619715213776,0.12760357558727264,0.12722209095954895
0.15316243469715118,-0.05092698708176613,0.15354390442371368,0.1333257108926773,0.13179980218410492,0.1337071806192398
0.16117341816425323,-0.05359731614589691,0.16155488789081573,0.14057374000549316,0.13866636157035828,0.14019227027893066
0.16880293190479279,-0.056267641484737396,0.16918440163135529,0.14782176911830902,0.14400701224803925,0.14705882966518402
0.17605096101760864,-0.058175019919872284,0.17605096101760864,0.15316243469715118,0.1527809500694275,0.15392538905143738
0.1840619444847107,-0.06160829961299896,0.1840619444847107,0.16117341816425323,0.15964750945568085,0.16155488789081573
0.19245441257953644,-0.06427863240242004,0.19245441257953644,0.1684214472770691,0.1668955534696579,0.1684214472770691
0.1997024416923523,-0.06694895774126053,0.1997024416923523,0.17490653693675995,0.17414358258247375,0.17605096101760864
0.20847637951374054,-0.07000076025724411,0.20847637951374054,0.1817730963230133,0.1836804747581482,0.1840619444847107
0.21763180196285248,-0.07267109304666519,0.21763180196285248,0.19130998849868774,0.18940261006355286,0.19169145822525024
0.22526131570339203,-0.07534141838550568,0.22526131570339203,0.1981765478849411,0.1966506391763687,0.1993209719657898
0.23441672325134277,-0.07877469807863235,0.23479819297790527,0.20695048570632935,0.20580606162548065,0.20809490978717804
0.24242770671844482,-0.08106355369091034,0.24280919134616852,0.2141985148191452,0.2130540907382965,0.2149614691734314
0.25234606862068176,-0.08449683338403702,0.25272753834724426,0.22335393726825714,0.22144655883312225,0.22411687672138214
0.2622644305229187,-0.0875486359000206,0.2626459002494812,0.23250934481620789,0.2309834510087967,0.23327229917049408
0.27065691351890564,-0.09021896868944168,0.27103838324546814,0.24052032828330994,0.23899443447589874,0.24128328263759613
0.2809567451477051,-0.09403372555971146,0.2809567451477051,0.2500572204589844,0.24891279637813568,0.2504386901855469
0.2912565767765045,-0.09708552807569504,0.2912565767765045,0.25577935576438904,0.2584496736526489,0.2603570520877838
0.30003052949905396,-0.10051880776882172,0.30003052949905396,0.26722362637519836,0.26722362637519836,0.26836803555488586
0.3107118308544159,-0.1039520874619484,0.3103303611278534,0.2775234580039978,0.2771419882774353,0.2779049277305603
0.3213931620121002,-0.10738536715507507,0.3213931620121002,0.28667888045310974,0.28706035017967224,0.28858625888824463
0.33054855465888977,-0.11043716967105865,0.33054855465888977,0.2954528033733368,0.2954528033733368,0.2973601818084717
0.3416113555431366,-0.11463340371847153,0.3416113555431366,0.30498969554901123,0.3076600432395935,0.3068970739841461
0.35114824771881104,-0.11768520623445511,0.35152971744537354,0.31528952717781067,0.31490805745124817,0.31719690561294556
0.3622110188007355,-0.12111848592758179,0.3622110188007355,0.325970858335495,0.32520791888237,0.3271152675151825
0.3736552894115448,-0.12493324279785156,0.3736552894115448,0.3370336592197418,0.33436331152915955,0.3381780683994293
0.38319218158721924,-0.12836651504039764,0.38357365131378174,0.34618905186653137,0.34504464268684387,0.34733349084854126
0.39501792192459106,-0.13218127191066742,0.39539939165115356,0.3572518527507782,0.3561074137687683,0.3576333224773407
0.4068436622619629,-0.1359960287809372,0.4072251319885254,0.3686961233615875,0.36678874492645264,0.369840532541275
0.4171435236930847,-0.13942931592464447,0.4171435236930847,0.37823301553726196,0.3767071068286896,0.37937742471694946
0.42935073375701904,-0.14400701224803925,0.42935073375701904,0.3904402256011963,0.3885328471660614,0.3908216953277588
0.44155794382095337,-0.14782176911830902,0.44155794382095337,0.4015030264854431,0.4003585875034332,0.4022659659385681
0.4518577754497528,-0.1512550562620163,0.4518577754497528,0.41065841913223267,0.41065841913223267,0.41218432784080505
0.4640650153160095,-0.15506981313228607,0.4640650153160095,0.4228656589984894,0.4224841594696045,0.4240100681781769
0.47665369510650635,-0.15964750945568085,0.47665369510650635,0.4343098998069763,0.4343098998069763,0.4358358085155487
0.4869535267353058,-0.16308079659938812,0.4869535267353058,0.44499123096466064,0.44689860939979553,0.44651713967323303
0.50030517578125,-0.1672770231962204,0.50030517578125,0.45719844102859497,0.4560540020465851,0.45834288001060486
0.5109865069389343,-0.17071031033992767,0.5109865069389343,0.4655908942222595,0.4694056510925293,0.4686427116394043
0.5239566564559937,-0.17528800666332245,0.5235751867294312,0.4804684519767761,0.4800869822502136,0.481612890958786
0.536926805973053,-0.17948424816131592,0.536926805973053,0.49153125286102295,0.49458304047584534,0.49343863129615784
0.5476081371307373,-0.182917520403862,0.5476081371307373,0.5022125840187073,0.5052643418312073,0.5052643418312073
0.5605783462524414,-0.18749523162841797,0.5609598159790039,0.5159456729888916,0.5163271427154541,0.5170900821685791
0.5735484957695007,-0.19169145822525024,0.5743114352226257,0.5285343527793884,0.5281528830528259,0.5296788215637207
0.5849927663803101,-0.19550621509552002,0.5853742361068726,0.5373083353042603,0.5407415628433228,0.5403600931167603
0.5987258553504944,-0.200083926320076,0.5983443856239319,0.5529488325119019,0.5521858334541321,0.5537117719650269
0.612077534198761,-0.20428015291690826,0.6074998378753662,0.5663004517555237,0.5682078003883362,0.5663004517555237
0.6235218048095703,-0.20809490978717804,0.6227588057518005,0.577744722366333,0.577744722366333,0.577744722366333
0.6368734240531921,-0.212672621011734,0.6345845460891724,0.5895704627037048,0.5926222801208496,0.5914778113365173
0.6498435735702515,-0.21725031733512878,0.6498435735702515,0.6021591424942017,0.6010147333145142,0.6048294901847839
0.6612878441810608,-0.22106507420539856,0.6612878441810608,0.613603413105011,0.614366352558136,0.615129292011261
0.6754024624824524,-0.22564278542995453,0.6750209927558899,0.6269550919532776,0.6303883194923401,0.6277180314064026
0.6868467330932617,-0.2298390120267868,0.6868467330932617,0.6383993029594421,0.6399252414703369,0.6395437717437744
0.7009612917900085,-0.23403525352478027,0.7009612917900085,0.6517509818077087,0.6536583304405212,0.6532768607139587
0.7150759100914001,-0.23899443447589874,0.7143129706382751,0.6654840707778931,0.6692988276481628,0.6677729487419128
0.726138710975647,-0.24242770671844482,0.726138710975647,0.6773098111152649,0.6780728101730347,0.6788357496261597
0.7398717999458313,-0.2470054179430008,0.7398717999458313,0.6914244294166565,0.6921873688697815,0.6914244294166565
0.7532234787940979,-0.25158312916755676,0.7536049485206604,0.7047760486602783,0.7017242908477783,0.7051575779914856
0.7646677494049072,-0.25539788603782654,0.7654306888580322,0.7146944403648376,0.7188906669616699,0.7162203192710876
0.7791637778282166,-0.2599755823612213,0.7795453071594238,0.728427529335022,0.7310978770256042,0.7299534678459167
0.7928969264030457,-0.2645532786846161,0.7936598658561707,0.7444495558738708,0.7455939650535583,0.7440680265426636
0.80510413646698,-0.26874953508377075,0.80510413646698,0.7558938264846802,0.7570382356643677,0.7551308274269104
0.8188372850418091,-0.2733272314071655,0.8188372850418091,0.7696269154548645,0.770771324634552,0.769245445728302
0.8325703740119934,-0.2775234580039978,0.8325703740119934,0.7829785346984863,0.7871748208999634,0.7829785346984863
0.8440146446228027,-0.2817196846008301,0.8440146446228027,0.7944228053092957,0.7928969264030457,0.7951858043670654
0.8577477931976318,-0.28553444147109985,0.8581292629241943,0.8081559538841248,0.812352180480957,0.8073930144309998
0.8714808821678162,-0.290875107049942,0.8718623518943787,0.8211261034011841,0.8241779208183289,0.8218890428543091
0.883306622505188,-0.2946898639202118,0.883306622505188,0.8306630253791809,0.8371480703353882,0.8333333134651184
0.8970397710800171,-0.29926756024360657,0.8970397710800171,0.8470664620399475,0.8493552803993225,0.846684992313385
0.9088655114173889,-0.30346378684043884,0.9084840416908264,0.8569847941398621,0.8630884289741516,0.8585107326507568
0.9225986003875732,-0.3076600432395935,0.9225986003875732,0.8726252913475037,0.8741512298583984,0.8726252913475037
0.9359502792358398,-0.3122377395629883,0.9363317489624023,0.8867399096488953,0.8882657885551453,0.8855955004692078
0.9473945498466492,-0.31605249643325806,0.9473945498466492,0.8985656499862671,0.8974212408065796,0.8974212408065796
0.9611276388168335,-0.32063019275665283,0.9611276388168335,0.9126802682876587,0.9130617380142212,0.9103913903236389
0.9744792580604553,-0.32520791888237,0.9748607873916626,0.9260318875312805,0.9260318875312805,0.924124538898468
0.9859235286712646,-0.3282597064971924,0.9863049983978271,0.9378576278686523,0.9405279755592346,0.9351872801780701
0.9992752075195312,-0.33321890234947205,0.9996566772460938,0.951209306716919,0.9500648379325867,0.9493018984794617
1.0126268863677979,-0.3377965986728668,1.0130083560943604,0.962272047996521,0.968757152557373,0.962272047996521
1.0236896276474,-0.3416113555431366,1.0240710973739624,0.9756237268447876,0.9786755442619324,0.9740977883338928
1.036659836769104,-0.34580758213996887,1.037422776222229,0.9889753460884094,0.995078980922699,0.9863049983978271
1.050011396408081,-0.35000380873680115,1.0503928661346436,1.0015640258789062,1.0072861909866333,1.0004196166992188
1.0610742568969727,-0.3538185656070709,1.0614557266235352,1.0126268863677979,1.0187304019927979,1.0111008882522583
1.0744259357452393,-0.3580147922039032,1.0748074054718018,1.025978446006775,1.031700611114502,1.024452567100525
1.0854886770248413,-0.361829549074173,1.0854886770248413,1.0370413064956665,1.042763352394104,1.0351338386535645
1.098077416419983,-0.36564430594444275,1.0984588861465454,1.050011396408081,1.055733561515808,1.0481040477752686
1.110666036605835,-0.3702220320701599,1.1110475063323975,1.0629816055297852,1.0690852403640747,1.0614557266235352
1.121347427368164,-0.3736552894115448,1.121347427368164,1.0744259357452393,1.0782406330108643,1.0721369981765747
1.1335545778274536,-0.3778515160083771,1.1339360475540161,1.0873960256576538,1.0923552513122559,1.0847257375717163
1.1461433172225952,-0.38204777240753174,1.1465247869491577,1.100366234779358,1.1037994623184204,1.0965514183044434
1.1564431190490723,-0.3854810297489166,1.1568245887756348,1.1110475063323975,1.114099383354187,1.1079957485198975
1.1686503887176514,-0.3896772861480713,1.1690318584442139,1.124399185180664,1.1263065338134766,1.1198214292526245
1.1804760694503784,-0.3934920132160187,1.180857539176941,1.1366063356399536,1.1385138034820557,1.1308842897415161
1.190394401550293,-0.39692530035972595,1.1907758712768555,1.1469062566757202,1.1484321355819702,1.1427099704742432
1.201838731765747,-0.4007400572299957,1.202601671218872,1.1587319374084473,1.1598763465881348,1.1552987098693848
1.2136644124984741,-0.404936283826828,1.2140458822250366,1.1701762676239014,1.1717021465301514,1.1663614511489868
1.2232013940811157,-0.4079881012439728,1.2239643335342407,1.1804760694503784,1.181620478630066,1.177042841911316
1.2350270748138428,-0.41180285811424255,1.2354085445404053,1.1919203996658325,1.1934462785720825,1.1884870529174805
1.2445639371871948,-0.41485464572906494,1.2449454069137573,1.2014572620391846,1.2029831409454346,1.198405385017395
1.256008267402649,-0.4186694025993347,1.256008267402649,1.2129014730453491,1.2129014730453491,1.2102311849594116
1.2666895389556885,-0.4224841594696045,1.267071008682251,1.2235828638076782,1.2277790307998657,1.2209124565124512
1.2754634618759155,-0.42553597688674927,1.275844931602478,1.2335011959075928,1.2361714839935303,1.2308309078216553
1.2857633829116821,-0.42858776450157166,1.2869077920913696,1.2445639371871948,1.2464714050292969,1.2418936491012573
1.2964446544647217,-0.43240252137184143,1.2972075939178467,1.2556267976760864,1.258297085762024,1.2525749206542969
1.3052185773849487,-0.4350728690624237,1.3059815168380737,1.264782190322876,1.267833948135376,1.262493371963501
1.3155183792114258,-0.438506156206131,1.3162813186645508,1.2754634618759155,1.278515338897705,1.2716487646102905
1.3254368305206299,-0.44193941354751587,1.3258183002471924,1.284618854522705,1.2903410196304321,1.283092975616455
1.3338292837142944,-0.44422826170921326,1.3330663442611694,1.2953002452850342,1.2983520030975342,1.2914854288101196
1.3433661460876465,-0.44766154885292053,1.343747615814209,1.3059815168380737,1.3078888654708862,1.3014038801193237
1.3513771295547485,-0.4503318965435028,1.3521400690078735,1.3147554397583008,1.3158998489379883,1.3105592727661133
1.3609139919281006,-0.4537651538848877,1.361295461654663,1.3242924213409424,1.3242924213409424,1.3197146654129028
1.3696879148483276,-0.45681697130203247,1.3700693845748901,1.3338292837142944,1.334973692893982,1.3296329975128174
1.3773174285888672,-0.45910581946372986,1.3776988983154297,1.3418402671813965,1.3426032066345215,1.3376439809799194
1.3857098817825317,-0.46215763688087463,1.3864728212356567,1.350995659828186,1.3521400690078735,1.346799373626709
1.3944838047027588,-0.4648279547691345,1.3948653936386108,1.3601510524749756,1.3609139919281006,1.355954885482788
1.4017318487167358,-0.4674982726573944,1.4021133184432983,1.3677805662155151,1.3681620359420776,1.3635843992233276
1.4101243019104004,-0.4701686203479767,1.4105058908462524,1.3757915496826172,1.3765544891357422,1.3723583221435547
1.4185168743133545,-0.4732204079627991,1.4185168743133545,1.3826581239700317,1.3822766542434692,1.3807507753372192
1.4246203899383545,-0.47512778639793396,1.425001859664917,1.3910505771636963,1.3895246982574463,1.3883802890777588
1.4318684339523315,-0.47741663455963135,1.432249903678894,1.3990615606307983,1.3979171514511108,1.3963912725448608
1.4391164779663086,-0.4797055125236511,1.439497947692871,1.4070725440979004,1.4063096046447754,1.403639316558838
1.4452201128005981,-0.4819943606853485,1.4456015825271606,1.4127947092056274,1.415464997291565,1.4105058908462524
1.4520866870880127,-0.4842832088470459,1.4520866870880127,1.420424222946167,1.423475980758667,1.4185168743133545
1.4574273824691772,-0.4858091175556183,1.4581903219223022,1.4272907972335815,1.429198145866394,1.424238920211792
1.4642938375473022,-0.4880979657173157,1.4642938375473022,1.4345388412475586,1.4360647201538086,1.431486964225769
1.4703974723815918,-0.49000534415245056,1.4707789421081543,1.4417868852615356,1.4429312944412231,1.4391164779663086
1.4753566980361938,-0.49153125286102295,1.4757381677627563,1.4475089311599731,1.4482718706130981,1.4444571733474731
1.481078863143921,-0.49343863129615784,1.4814603328704834,1.4539940357208252,1.4539940357208252,1.4501793384552002
1.4868009090423584,-0.4953460097312927,1.4868009090423584,1.4608606100082397,1.4616235494613647,1.4570459127426147
1.4909971952438354,-0.4968718886375427,1.491378664970398,1.4650568962097168,1.4665827751159668,1.4623864889144897
1.496337890625,-0.4987792670726776,1.496337890625,1.4715418815612793,1.4723048210144043,1.4684901237487793
1.50091552734375,-0.50030517578125,1.50091552734375,1.4772640466690063,1.4776455163955688,1.4738308191299438
1.5047303438186646,-0.5014495849609375,1.505111813545227,1.481841802597046,1.481078863143921,1.4784084558486938
1.5093079805374146,-0.5029755234718323,1.508926510810852,1.4868009090423584,1.4868009090423584,1.4837491512298584
1.513122797012329,-0.5045014023780823,1.513122797012329,1.4917601346969604,1.4902342557907104,1.4887083768844604
1.5165560245513916,-0.5056458115577698,1.5165560245513916,1.4940489530563354,1.494430422782898,1.4932860136032104
1.5199893712997437,-0.5071717500686646,1.5203708410263062,1.4993896484375,1.4982452392578125,1.4974822998046875
1.5230411291122437,-0.507553219795227,1.5230411291122437,1.50244140625,1.50244140625,1.5005340576171875
1.5257114171981812,-0.5086976289749146,1.5260928869247437,1.506637692451477,1.506637692451477,1.504348874092102
1.5291447639465332,-0.5098420977592468,1.5287632942199707,1.5100709199905396,1.511215329170227,1.508163571357727
1.5314335823059082,-0.5106050372123718,1.5310521125793457,1.513122797012329,1.5142672061920166,1.5115967988967896
1.5337224006652832,-0.5117494463920593,1.5337224006652832,1.516174554824829,1.5180819034576416,1.514648675918579
1.5356298685073853,-0.5117494463920593,1.5356298685073853,1.5196079015731812,1.5203708410263062,1.517700433731079
1.5375372171401978,-0.5125123858451843,1.5375372171401978,1.5222781896591187,1.5222781896591187,1.5211337804794312
1.5390630960464478,-0.5128938555717468,1.5394445657730103,1.5249484777450562,1.5253299474716187,1.5234225988388062
1.5402075052261353,-0.5136567950248718,1.5405889749526978,1.5272372961044312,1.5268558263778687,1.5245670080184937
1.5413519144058228,-0.5136567950248718,1.5417333841323853,1.5287632942199707,1.5299077033996582,1.5272372961044312
1.5421148538589478,-0.5140383243560791,1.5424963235855103,1.5314335823059082,1.5310521125793457,1.5280003547668457
1.5432593822479248,-0.5144197940826416,1.5424963235855103,1.5321965217590332,1.5337224006652832,1.5295262336730957
1.5440223217010498,-0.5148012638092041,1.5428777933120728,1.5341038703918457,1.5348668098449707,1.5310521125793457
1.5447852611541748,-0.5148012638092041,1.5428777933120728,1.5348668098449707,1.5356298685073853,1.5321965217590332
1.5444037914276123,-0.5148012638092041,1.5428777933120728,1.5352483987808228,1.5356298685073853,1.5341038703918457
1.5444037914276123,-0.5148012638092041,1.5428777933120728,1.5352483987808228,1.5352483987808228,1.5348668098449707
1.5444037914276123,-0.5148012638092041,1.5424963235855103,1.5352483987808228,1.5348668098449707,1.5348668098449707
1.5436408519744873,-0.5144197940826416,1.5421148538589478,1.5352483987808228,1.5348668098449707,1.5344853401184082
1.5424963235855103,-0.5144197940826416,1.5413519144058228,1.5352483987808228,1.5352483987808228,1.5348668098449707
1.5409704446792603,-0.5140383243560791,1.5405889749526978,1.5352483987808228,1.5352483987808228,1.5348668098449707
1.5390630960464478,-0.5132753252983093,1.5386816263198853,1.5344853401184082,1.5344853401184082,1.5344853401184082
1.5371557474136353,-0.5125123858451843,1.5363928079605103,1.5348668098449707,1.5348668098449707,1.5341038703918457
1.5356298685073853,-0.5117494463920593,1.5344853401184082,1.5344853401184082,1.5337224006652832,1.5341038703918457
1.5329594612121582,-0.5113679766654968,1.5325779914855957,1.5333409309387207,1.5341038703918457,1.5337224006652832
1.5302891731262207,-0.5102235674858093,1.5302891731262207,1.5321965217590332,1.5329594612121582,1.5333409309387207
1.5276188850402832,-0.5094605684280396,1.5276188850402832,1.5306706428527832,1.5310521125793457,1.5310521125793457
1.5241855382919312,-0.508316159248352,1.5241855382919312,1.5287632942199707,1.5280003547668457,1.5276188850402832
1.5215152502059937,-0.5071717500686646,1.5207523107528687,1.5264743566513062,1.5257114171981812,1.5245670080184937
1.517700433731079,-0.506027340888977,1.5173189640045166,1.5245670080184937,1.5222781896591187,1.5222781896591187
