liuyurong129/figaroh_kinova/examples/airbot_play/data/identification/chirp_motion/identification_q_simulation.csv
q1,q2,q3,q4,q5,q6
1.5707963267948966,-0.5235987755982988,1.5707963267948966,1.5707963267948966,1.5707963267948966,1.5707963267948966
1.5707342426559239,-0.5235780808853079,1.5707342426559239,1.5707342426559239,1.5707342426559239,1.5707342426559239
1.5705478758715645,-0.5235159586238548,1.5705478758715645,1.5705478758715645,1.5705478758715645,1.5705478758715645
1.5702370696158174,-0.5234123565386057,1.5702370696158174,1.5702370696158174,1.5702370696158174,1.5702370696158174
1.5698016867708227,-0.5232672289236076,1.5698016867708227,1.5698016867708227,1.5698016867708227,1.5698016867708227
1.5692416100176507,-0.5230805366725503,1.5692416100176507,1.5692416100176507,1.5692416100176507,1.5692416100176507
1.568556741924116,-0.5228522473080386,1.568556741924116,1.568556741924116,1.568556741924116,1.568556741924116
1.5677470050295856,-0.5225823350098618,1.5677470050295856,1.5677470050295856,1.5677470050295856,1.5677470050295856
1.5668123419267543,-0.5222707806422514,1.5668123419267543,1.5668123419267543,1.5668123419267543,1.5668123419267543
1.5657527153403534,-0.5219175717801178,1.5657527153403534,1.5657527153403534,1.5657527153403534,1.5657527153403534
1.564568108202763,-0.5215227027342543,1.564568108202763,1.564568108202763,1.564568108202763,1.564568108202763
1.5632585237264989,-0.5210861745754997,1.5632585237264989,1.5632585237264989,1.5632585237264989,1.5632585237264989
1.5618239854735478,-0.5206079951578493,1.5618239854735478,1.5618239854735478,1.5618239854735478,1.5618239854735478
1.5602645374215158,-0.5200881791405052,1.5602645374215158,1.5602645374215158,1.5602645374215158,1.5602645374215158
1.5585802440265661,-0.5195267480088553,1.5585802440265661,1.5585802440265661,1.5585802440265661,1.5585802440265661
1.556771190283119,-0.518923730094373,1.556771190283119,1.556771190283119,1.556771190283119,1.556771190283119
1.554837481780282,-0.5182791605934273,1.554837481780282,1.554837481780282,1.554837481780282,1.554837481780282
1.552779244754987,-0.5175930815849956,1.552779244754987,1.552779244754987,1.552779244754987,1.552779244754987
1.5505966261418074,-0.5168655420472691,1.5505966261418074,1.5505966261418074,1.5505966261418074,1.5505966261418074
1.548289793619425,-0.5160965978731417,1.548289793619425,1.548289793619425,1.548289793619425,1.548289793619425
1.5458589356537273,-0.5152863118845757,1.5458589356537273,1.5458589356537273,1.5458589356537273,1.5458589356537273
1.5433042615375039,-0.5144347538458346,1.5433042615375039,1.5433042615375039,1.5433042615375039,1.5433042615375039
1.5406260014267212,-0.5135420004755737,1.5406260014267212,1.5406260014267212,1.5406260014267212,1.5406260014267212
1.5378244063733497,-0.5126081354577832,1.5378244063733497,1.5378244063733497,1.5378244063733497,1.5378244063733497
1.5348997483547182,-0.5116332494515727,1.5348997483547182,1.5348997483547182,1.5348997483547182,1.5348997483547182
1.5318523202993768,-0.5106174400997923,1.5318523202993768,1.5318523202993768,1.5318523202993768,1.5318523202993768
1.5286824361094375,-0.5095608120364792,1.5286824361094375,1.5286824361094375,1.5286824361094375,1.5286824361094375
1.5253904306793806,-0.5084634768931268,1.5253904306793806,1.5253904306793806,1.5253904306793806,1.5253904306793806
1.5219766599112936,-0.5073255533037645,1.5219766599112936,1.5219766599112936,1.5219766599112936,1.5219766599112936
1.5184415007265328,-0.5061471669088442,1.5184415007265328,1.5184415007265328,1.5184415007265328,1.5184415007265328
1.5147853510737765,-0.5049284503579254,1.5147853510737765,1.5147853510737765,1.5147853510737765,1.5147853510737765
1.5110086299334582,-0.5036695433111528,1.5110086299334582,1.5110086299334582,1.5110086299334582,1.5110086299334582
1.5071117773185518,-0.5023705924395173,1.5071117773185518,1.5071117773185518,1.5071117773185518,1.5071117773185518
1.5030952542717004,-0.5010317514239001,1.5030952542717004,1.5030952542717004,1.5030952542717004,1.5030952542717004
1.4989595428586575,-0.49965318095288586,1.4989595428586575,1.4989595428586575,1.4989595428586575,1.4989595428586575
1.4947051461580332,-0.4982350487193444,1.4947051461580332,1.4947051461580332,1.4947051461580332,1.4947051461580332
1.4903325882473237,-0.4967775294157745,1.4903325882473237,1.4903325882473237,1.4903325882473237,1.4903325882473237
1.4858424141852056,-0.4952808047284018,1.4858424141852056,1.4858424141852056,1.4858424141852056,1.4858424141852056
1.481235189990083,-0.49374506333002766,1.481235189990083,1.481235189990083,1.481235189990083,1.481235189990083
1.4765115026148692,-0.492170500871623,1.4765115026148692,1.4765115026148692,1.4765115026148692,1.4765115026148692
1.4716719599179875,-0.49055731997266244,1.4716719599179875,1.4716719599179875,1.4716719599179875,1.4716719599179875
1.466717190630579,-0.48890573021019296,1.466717190630579,1.466717190630579,1.466717190630579,1.466717190630579
1.461647844319902,-0.48721594810663393,1.461647844319902,1.461647844319902,1.461647844319902,1.461647844319902
1.4564645913489114,-0.48548819711630375,1.4564645913489114,1.4564645913489114,1.4564645913489114,1.4564645913489114
1.4511681228320028,-0.48372270761066755,1.4511681228320028,1.4511681228320028,1.4511681228320028,1.4511681228320028
1.4457591505869138,-0.4819197168623046,1.4457591505869138,1.4457591505869138,1.4457591505869138,1.4457591505869138
1.4402384070827678,-0.48007946902758925,1.4402384070827678,1.4402384070827678,1.4402384070827678,1.4402384070827678
1.4346066453842496,-0.4782022151280832,1.4346066453842496,1.4346066453842496,1.4346066453842496,1.4346066453842496
1.4288646390919082,-0.47628821303063607,1.4288646390919082,1.4288646390919082,1.4288646390919082,1.4288646390919082
1.4230131822785703,-0.47433772742619007,1.4230131822785703,1.4230131822785703,1.4230131822785703,1.4230131822785703
1.4170530894218616,-0.47235102980728716,1.4170530894218616,1.4170530894218616,1.4170530894218616,1.4170530894218616
1.410985195332825,-0.47032839844427493,1.410985195332825,1.410985195332825,1.410985195332825,1.410985195332825
1.4048103550806315,-0.4682701183602105,1.4048103550806315,1.4048103550806315,1.4048103550806315,1.4048103550806315
1.3985294439133746,-0.4661764813044582,1.3985294439133746,1.3985294439133746,1.3985294439133746,1.3985294439133746
1.392143357174943,-0.46404778572498095,1.392143357174943,1.392143357174943,1.392143357174943,1.392143357174943
1.385653010217968,-0.4618843367393226,1.385653010217968,1.385653010217968,1.385653010217968,1.385653010217968
1.3790593383128422,-0.4596864461042807,1.3790593383128422,1.3790593383128422,1.3790593383128422,1.3790593383128422
1.3723632965528019,-0.45745443218426723,1.3723632965528019,1.3723632965528019,1.3723632965528019,1.3723632965528019
1.3655658597550735,-0.4551886199183578,1.3655658597550735,1.3655658597550735,1.3655658597550735,1.3655658597550735
1.3586680223580823,-0.4528893407860274,1.3586680223580823,1.3586680223580823,1.3586680223580823,1.3586680223580823
1.3516707983147214,-0.4505569327715737,1.3516707983147214,1.3516707983147214,1.3516707983147214,1.3516707983147214
1.344575220981677,-0.4481917403272257,1.344575220981677,1.344575220981677,1.344575220981677,1.344575220981677
1.3373823430048186,-0.44579411433493954,1.3373823430048186,1.3373823430048186,1.3373823430048186,1.3373823430048186
1.3300932362006443,-0.44336441206688143,1.3300932362006443,1.3300932362006443,1.3300932362006443,1.3300932362006443
1.3227089914337904,-0.4409029971445968,1.3227089914337904,1.3227089914337904,1.3227089914337904,1.3227089914337904
1.3152307184906082,-0.43841023949686936,1.3152307184906082,1.3152307184906082,1.3152307184906082,1.3152307184906082
1.3076595459488018,-0.43588651531626726,1.3076595459488018,1.3076595459488018,1.3076595459488018,1.3076595459488018
1.2999966210431468,-0.43333220701438224,1.2999966210431468,1.2999966210431468,1.2999966210431468,1.2999966210431468
1.2922431095272757,-0.4307477031757585,1.2922431095272757,1.2922431095272757,1.2922431095272757,1.2922431095272757
1.284400195531553,-0.4281333985105176,1.284400195531553,1.284400195531553,1.284400195531553,1.284400195531553
1.2764690814170343,-0.425489693805678,1.2764690814170343,1.2764690814170343,1.2764690814170343,1.2764690814170343
1.2684509876255223,-0.4228169958751741,1.2684509876255223,1.2684509876255223,1.2684509876255223,1.2684509876255223
1.2603471525257255,-0.4201157175085751,1.2603471525257255,1.2603471525257255,1.2603471525257255,1.2603471525257255
1.2521588322555286,-0.4173862774185095,1.2521588322555286,1.2521588322555286,1.2521588322555286,1.2521588322555286
1.2438873005603852,-0.414629100186795,1.2438873005603852,1.2438873005603852,1.2438873005603852,1.2438873005603852
1.2355338486278413,-0.4118446162092804,1.2355338486278413,1.2355338486278413,1.2355338486278413,1.2355338486278413
1.227099784918202,-0.40903326163940057,1.227099784918202,1.227099784918202,1.227099784918202,1.227099784918202
1.2185864349913518,-0.40619547833045055,1.2185864349913518,1.2185864349913518,1.2185864349913518,1.2185864349913518
1.2099951413297438,-0.4033317137765812,1.2099951413297438,1.2099951413297438,1.2099951413297438,1.2099951413297438
1.2013272631575693,-0.4004424210525231,1.2013272631575693,1.2013272631575693,1.2013272631575693,1.2013272631575693
1.1925841762561211,-0.39752805875204034,1.1925841762561211,1.1925841762561211,1.1925841762561211,1.1925841762561211
1.1837672727753683,-0.39458909092512273,1.1837672727753683,1.1837672727753683,1.1837672727753683,1.1837672727753683
1.174877961041759,-0.39162598701391965,1.174877961041759,1.174877961041759,1.174877961041759,1.174877961041759
1.1659176653622625,-0.38863922178742083,1.1659176653622625,1.1659176653622625,1.1659176653622625,1.1659176653622625
1.1568878258246749,-0.3856292752748916,1.1568878258246749,1.1568878258246749,1.1568878258246749,1.1568878258246749
1.1477898980942043,-0.3825966326980681,1.1477898980942043,1.1477898980942043,1.1477898980942043,1.1477898980942043
1.1386253532063515,-0.37954178440211717,1.1386253532063515,1.1386253532063515,1.1386253532063515,1.1386253532063515
1.1293956773561127,-0.3764652257853709,1.1293956773561127,1.1293956773561127,1.1293956773561127,1.1293956773561127
1.12010237168352,-0.3733674572278399,1.12010237168352,1.12010237168352,1.12010237168352,1.12010237168352
1.1107469520555426,-0.37024898401851414,1.1107469520555426,1.1107469520555426,1.1107469520555426,1.1107469520555426
1.1013309488443745,-0.3671103162814582,1.1013309488443745,1.1013309488443745,1.1013309488443745,1.1013309488443745
1.0918559067021276,-0.3639519689007092,1.0918559067021276,1.0918559067021276,1.0918559067021276,1.0918559067021276
1.0823233843319562,-0.3607744614439854,1.0823233843319562,1.0823233843319562,1.0823233843319562,1.0823233843319562
1.0727349542556415,-0.3575783180852138,1.0727349542556415,1.0727349542556415,1.0727349542556415,1.0727349542556415
1.0630922025776532,-0.3543640675258844,1.0630922025776532,1.0630922025776532,1.0630922025776532,1.0630922025776532
1.053396728745729,-0.351132242915243,1.053396728745729,1.053396728745729,1.053396728745729,1.053396728745729
1.0436501453079834,-0.3478833817693278,1.0436501453079834,1.0436501453079834,1.0436501453079834,1.0436501453079834
1.0338540776665879,-0.3446180258888626,1.0338540776665879,1.0338540776665879,1.0338540776665879,1.0338540776665879
1.0240101638280432,-0.3413367212760144,1.0240101638280432,1.0240101638280432,1.0240101638280432,1.0240101638280432
1.0141200541500799,-0.3380400180500266,1.0141200541500799,1.0141200541500799,1.0141200541500799,1.0141200541500799
1.0041854110852115,-0.33472847036173714,1.0041854110852115,1.0041854110852115,1.0041854110852115,1.0041854110852115
0.9942079089209797,-0.3314026363069932,0.9942079089209797,0.9942079089209797,0.9942079089209797,0.9942079089209797
0.9841892335169192,-0.32806307783897304,0.9841892335169192,0.9841892335169192,0.9841892335169192,0.9841892335169192
0.9741310820382765,-0.3247103606794255,0.9741310820382765,0.9741310820382765,0.9741310820382765,0.9741310820382765
0.9640351626865172,-0.3213450542288391,0.9640351626865172,0.9640351626865172,0.9640351626865172,0.9640351626865172
0.9539031944266603,-0.3179677314755534,0.9539031944266603,0.9539031944266603,0.9539031944266603,0.9539031944266603
0.9437369067114677,-0.31457896890382253,0.9437369067114677,0.9437369067114677,0.9437369067114677,0.9437369067114677
0.9335380392025369,-0.3111793464008456,0.9335380392025369,0.9335380392025369,0.9335380392025369,0.9335380392025369
0.9233083414883229,-0.30776944716277427,0.9233083414883229,0.9233083414883229,0.9233083414883229,0.9233083414883229
0.9130495727991359,-0.30434985759971195,0.9130495727991359,0.9130495727991359,0.9130495727991359,0.9130495727991359
0.9027635017191523,-0.3009211672397174,0.9027635017191523,0.9027635017191523,0.9027635017191523,0.9027635017191523
0.8924519058954753,-0.2974839686318251,0.8924519058954753,0.8924519058954753,0.8924519058954753,0.8924519058954753
0.8821165717442939,-0.294038857248098,0.8821165717442939,0.8821165717442939,0.8821165717442939,0.8821165717442939
0.8717592941541731,-0.29058643138472434,0.8717592941541731,0.8717592941541731,0.8717592941541731,0.8717592941541731
0.8613818761865232,-0.28712729206217436,0.8613818761865232,0.8613818761865232,0.8613818761865232,0.8613818761865232
0.8509861287732934,-0.2836620429244311,0.8509861287732934,0.8509861287732934,0.8509861287732934,0.8509861287732934
0.8405738704119275,-0.28019129013730915,0.8405738704119275,0.8405738704119275,0.8405738704119275,0.8405738704119275
0.8301469268576328,-0.2767156422858776,0.8301469268576328,0.8301469268576328,0.8301469268576328,0.8301469268576328
0.8197071308130036,-0.2732357102710012,0.8197071308130036,0.8197071308130036,0.8197071308130036,0.8197071308130036
0.8092563216150506,-0.26975210720501686,0.8092563216150506,0.8092563216150506,0.8092563216150506,0.8092563216150506
0.7987963449196782,-0.2662654483065594,0.7987963449196782,0.7987963449196782,0.7987963449196782,0.7987963449196782
0.7883290523836616,-0.26277635079455386,0.7883290523836616,0.7883290523836616,0.7883290523836616,0.7883290523836616
0.7778563013441724,-0.2592854337813908,0.7778563013441724,0.7778563013441724,0.7778563013441724,0.7778563013441724
0.7673799544959014,-0.25579331816530043,0.7673799544959014,0.7673799544959014,0.7673799544959014,0.7673799544959014
0.7569018795658277,-0.2523006265219425,0.7569018795658277,0.7569018795658277,0.7569018795658277,0.7569018795658277
0.7464239489856891,-0.24880798299522966,0.7464239489856891,0.7464239489856891,0.7464239489856891,0.7464239489856891
0.7359480395622037,-0.24531601318740123,0.7359480395622037,0.7359480395622037,0.7359480395622037,0.7359480395622037
0.725476032145094,-0.24182534404836464,0.725476032145094,0.725476032145094,0.725476032145094,0.725476032145094
0.7150098112929698,-0.23833660376432325,0.7150098112929698,0.7150098112929698,0.7150098112929698,0.7150098112929698
0.7045512649371239,-0.23485042164570796,0.7045512649371239,0.7045512649371239,0.7045512649371239,0.7045512649371239
0.6941022840432907,-0.2313674280144302,0.6941022840432907,0.6941022840432907,0.6941022840432907,0.6941022840432907
0.6836647622714331,-0.2278882540904777,0.6836647622714331,0.6836647622714331,0.6836647622714331,0.6836647622714331
0.6732405956336038,-0.22441353187786792,0.6732405956336038,0.6732405956336038,0.6732405956336038,0.6732405956336038
0.6628316821499458,-0.2209438940499819,0.6628316821499458,0.6628316821499458,0.6628316821499458,0.6628316821499458
0.6524399215028841,-0.21747997383429468,0.6524399215028841,0.6524399215028841,0.6524399215028841,0.6524399215028841
0.6420672146895723,-0.21402240489652405,0.6420672146895723,0.6420672146895723,0.6420672146895723,0.6420672146895723
0.6317154636726515,-0.21057182122421716,0.6317154636726515,0.6317154636726515,0.6317154636726515,0.6317154636726515
0.6213865710293782,-0.20712885700979272,0.6213865710293782,0.6213865710293782,0.6213865710293782,0.6213865710293782
0.6110824395991876,-0.20369414653306253,0.6110824395991876,0.6110824395991876,0.6110824395991876,0.6110824395991876
0.6008049721297491,-0.20026832404324968,0.6008049721297491,0.6008049721297491,0.6008049721297491,0.6008049721297491
0.5905560709215775,-0.19685202364052581,0.5905560709215775,0.5905560709215775,0.5905560709215775,0.5905560709215775
0.5803376374712632,-0.19344587915708772,0.5803376374712632,0.5803376374712632,0.5803376374712632,0.5803376374712632
0.5701515721133837,-0.19005052403779457,0.5701515721133837,0.5701515721133837,0.5701515721133837,0.5701515721133837
0.5599997736611594,-0.18666659122038645,0.5599997736611594,0.5599997736611594,0.5599997736611594,0.5599997736611594
0.5498841390459217,-0.18329471301530723,0.5498841390459217,0.5498841390459217,0.5498841390459217,0.5498841390459217
0.539806562955452,-0.17993552098515067,0.539806562955452,0.539806562955452,0.539806562955452,0.539806562955452
0.529768937471267,-0.17658964582375564,0.529768937471267,0.529768937471267,0.529768937471267,0.529768937471267
0.5197731517049045,-0.17325771723496816,0.5197731517049045,0.5197731517049045,0.5197731517049045,0.5197731517049045
0.5098210914332896,-0.1699403638110965,0.5098210914332896,0.5098210914332896,0.5098210914332896,0.5098210914332896
0.49991463873323694,-0.16663821291107897,0.49991463873323694,0.49991463873323694,0.49991463873323694,0.49991463873323694
0.49005567161516506,-0.16335189053838833,0.49005567161516506,0.49005567161516506,0.49005567161516506,0.49005567161516506
0.4802460636560869,-0.16008202121869564,0.4802460636560869,0.4802460636560869,0.4802460636560869,0.4802460636560869
0.4704876836319508,-0.15682922787731693,0.4704876836319508,0.4704876836319508,0.4704876836319508,0.4704876836319508
0.46078239514939306,-0.15359413171646433,0.46078239514939306,0.46078239514939306,0.46078239514939306,0.46078239514939306
0.45113205627698133,-0.1503773520923271,0.45113205627698133,0.45113205627698133,0.45113205627698133,0.45113205627698133
0.44153851917601533,-0.1471795063920051,0.44153851917601533,0.44153851917601533,0.44153851917601533,0.44153851917601533
0.4320036297309514,-0.14400120991031712,0.4320036297309514,0.4320036297309514,0.4320036297309514,0.4320036297309514
0.42252922717953517,-0.14084307572651172,0.42252922717953517,0.42252922717953517,0.42252922717953517,0.42252922717953517
0.41311714374270114,-0.13770571458090036,0.41311714374270114,0.41311714374270114,0.41311714374270114,0.41311714374270114
0.4037692042543183,-0.1345897347514394,0.4037692042543183,0.4037692042543183,0.4037692042543183,0.4037692042543183
0.39448722579085477,-0.1314957419302849,0.39448722579085477,0.39448722579085477,0.39448722579085477,0.39448722579085477
0.3852730173010335,-0.1284243391003445,0.3852730173010335,0.3852730173010335,0.3852730173010335,0.3852730173010335
0.37612837923555364,-0.1253761264118512,0.37612837923555364,0.37612837923555364,0.37612837923555364,0.37612837923555364
0.36705510317695145,-0.12235170105898381,0.36705510317695145,0.36705510317695145,0.36705510317695145,0.36705510317695145
0.35805497146967663,-0.11935165715655886,0.35805497146967663,0.35805497146967663,0.35805497146967663,0.35805497146967663
0.3491297568504558,-0.11637658561681859,0.3491297568504558,0.3491297568504558,0.3491297568504558,0.3491297568504558
0.34028122207902306,-0.11342707402634102,0.34028122207902306,0.34028122207902306,0.34028122207902306,0.34028122207902306
0.33151111956929263,-0.11050370652309753,0.33151111956929263,0.33151111956929263,0.33151111956929263,0.33151111956929263
0.32282119102104395,-0.10760706367368131,0.32282119102104395,0.32282119102104395,0.32282119102104395,0.32282119102104395
0.31421316705220476,-0.1047377223507349,0.31421316705220476,0.31421316705220476,0.31421316705220476,0.31421316705220476
0.30568876683180296,-0.10189625561060098,0.30568876683180296,0.30568876683180296,0.30568876683180296,0.30568876683180296
0.29724969771366383,-0.09908323257122127,0.29724969771366383,0.29724969771366383,0.29724969771366383,0.29724969771366383
0.2888976548709354,-0.0962992182903118,0.2888976548709354,0.2888976548709354,0.2888976548709354,0.2888976548709354
0.28063432093151375,-0.0935447736438379,0.28063432093151375,0.28063432093151375,0.28063432093151375,0.28063432093151375
0.2724613656144492,-0.0908204552048164,0.2724613656144492,0.2724613656144492,0.2724613656144492,0.2724613656144492
0.26438044536741223,-0.08812681512247074,0.26438044536741223,0.26438044536741223,0.26438044536741223,0.26438044536741223
0.2563932030052937,-0.08546440100176457,0.2563932030052937,0.2563932030052937,0.2563932030052937,0.2563932030052937
0.24850126735002284,-0.08283375578334094,0.24850126735002284,0.24850126735002284,0.24850126735002284,0.24850126735002284
0.2407062528716786,-0.08023541762389286,0.2407062528716786,0.2407062528716786,0.2407062528716786,0.2407062528716786
0.23300975933097365,-0.07766991977699121,0.23300975933097365,0.23300975933097365,0.23300975933097365,0.23300975933097365
0.22541337142319132,-0.0751377904743971,0.22541337142319132,0.22541337142319132,0.22541337142319132,0.22541337142319132
0.21791865842365343,-0.07263955280788446,0.21791865842365343,0.21791865842365343,0.21791865842365343,0.21791865842365343
0.21052717383480052,-0.07017572461160017,0.21052717383480052,0.21052717383480052,0.21052717383480052,0.21052717383480052
0.20324045503496124,-0.06774681834498708,0.20324045503496124,0.20324045503496124,0.20324045503496124,0.20324045503496124
0.19606002292889113,-0.06535334097629704,0.19606002292889113,0.19606002292889113,0.19606002292889113,0.19606002292889113
0.18898738160016396,-0.06299579386672131,0.18898738160016396,0.18898738160016396,0.18898738160016396,0.18898738160016396
0.18202401796548845,-0.06067467265516281,0.18202401796548845,0.18202401796548845,0.18202401796548845,0.18202401796548845
0.1751714014310406,-0.0583904671436802,0.1751714014310406,0.1751714014310406,0.1751714014310406,0.1751714014310406
0.16843098355087704,-0.056143661183625675,0.16843098355087704,0.16843098355087704,0.16843098355087704,0.16843098355087704
0.1618041976875255,-0.0539347325625085,0.1618041976875255,0.1618041976875255,0.1618041976875255,0.1618041976875255
0.15529245867481825,-0.05176415289160608,0.15529245867481825,0.15529245867481825,0.15529245867481825,0.15529245867481825
0.14889716248305754,-0.0496323874943525,0.14889716248305754,0.14889716248305754,0.14889716248305754,0.14889716248305754
0.14261968588658874,-0.04753989529552958,0.14261968588658874,0.14261968588658874,0.14261968588658874,0.14261968588658874
0.13646138613386177,-0.04548712871128725,0.13646138613386177,0.13646138613386177,0.13646138613386177,0.13646138613386177
0.13042360062006048,-0.04347453354002015,0.13042360062006048,0.13042360062006048,0.13042360062006048,0.13042360062006048
0.12450764656237895,-0.04150254885412631,0.12450764656237895,0.12450764656237895,0.12450764656237895,0.12450764656237895
0.11871482067802656,-0.03957160689267552,0.11871482067802656,0.11871482067802656,0.11871482067802656,0.11871482067802656
0.1130463988650381,-0.0376821329550127,0.1130463988650381,0.1130463988650381,0.1130463988650381,0.1130463988650381
0.10750363588596953,-0.03583454529532318,0.10750363588596953,0.10750363588596953,0.10750363588596953,0.10750363588596953
0.10208776505455897,-0.03402925501818632,0.10208776505455897,0.10208776505455897,0.10208776505455897,0.10208776505455897
0.09679999792543093,-0.03226666597514364,0.09679999792543093,0.09679999792543093,0.09679999792543093,0.09679999792543093
0.09164152398692178,-0.030547174662307258,0.09164152398692178,0.09164152398692178,0.09164152398692178,0.09164152398692178
0.0866135103571094,-0.028871170119036466,0.0866135103571094,0.0866135103571094,0.0866135103571094,0.0866135103571094
0.08171710148311512,-0.027239033827705036,0.08171710148311512,0.08171710148311512,0.08171710148311512,0.08171710148311512
0.07695341884376972,-0.025651139614589903,0.07695341884376972,0.07695341884376972,0.07695341884376972,0.07695341884376972
0.07232356065570919,-0.024107853551903063,0.07232356065570919,0.07232356065570919,0.07232356065570919,0.07232356065570919
0.06782860158298368,-0.022609533860994555,0.06782860158298368,0.06782860158298368,0.06782860158298368,0.06782860158298368
0.0634695924502555,-0.021156530816751836,0.0634695924502555,0.0634695924502555,0.0634695924502555,0.0634695924502555
0.05924755995966292,-0.019749186653220972,0.05924755995966292,0.05924755995966292,0.05924755995966292,0.05924755995966292
0.05516350641142618,-0.018387835470475393,0.05516350641142618,0.05516350641142618,0.05516350641142618,0.05516350641142618
0.051218409428271,-0.017072803142756998,0.051218409428271,0.051218409428271,0.051218409428271,0.051218409428271
0.04741322168374654,-0.01580440722791551,0.04741322168374654,0.04741322168374654,0.04741322168374654,0.04741322168374654
0.043748870634511466,-0.014582956878170489,0.043748870634511466,0.043748870634511466,0.043748870634511466,0.043748870634511466
0.04022625825666621,-0.013408752752222069,0.04022625825666621,0.04022625825666621,0.04022625825666621,0.04022625825666621
0.036846260786200215,-0.012282086928733404,0.036846260786200215,0.036846260786200215,0.036846260786200215,0.036846260786200215
0.033609728463633255,-0.011203242821211086,0.033609728463633255,0.033609728463633255,0.033609728463633255,0.033609728463633255
0.030517485282922654,-0.010172495094307551,0.030517485282922654,0.030517485282922654,0.030517485282922654,0.030517485282922654
0.027570328744708078,-0.009190109581569359,0.027570328744708078,0.027570328744708078,0.027570328744708078,0.027570328744708078
0.02476902961396765,-0.008256343204655882,0.02476902961396765,0.02476902961396765,0.02476902961396765,0.02476902961396765
0.022114331682156194,-0.007371443894052064,0.022114331682156194,0.022114331682156194,0.022114331682156194,0.022114331682156194
0.01960695153389913,-0.00653565051129971,0.01960695153389913,0.01960695153389913,0.01960695153389913,0.01960695153389913
0.017247578318309652,-0.005749192772769883,0.017247578318309652,0.017247578318309652,0.017247578318309652,0.017247578318309652
0.015036873525002,-0.005012291175000666,0.015036873525002,0.015036873525002,0.015036873525002,0.015036873525002
0.012975470764867688,-0.004325156921622562,0.012975470764867688,0.012975470764867688,0.012975470764867688,0.012975470764867688
0.011063975555687207,-0.003687991851895735,0.011063975555687207,0.011063975555687207,0.011063975555687207,0.011063975555687207
0.009302965112641668,-0.0031009883708805557,0.009302965112641668,0.009302965112641668,0.009302965112641668,0.009302965112641668
0.007692988143794486,-0.0025643293812648285,0.007692988143794486,0.007692988143794486,0.007692988143794486,0.007692988143794486
0.006234564650607967,-0.0020781882168693223,0.006234564650607967,0.006234564650607967,0.006234564650607967,0.006234564650607967
0.00492818573356379,-0.0016427285778545968,0.00492818573356379,0.00492818573356379,0.00492818573356379,0.00492818573356379
0.003774313402949107,-0.001258104467649702,0.003774313402949107,0.003774313402949107,0.003774313402949107,0.003774313402949107
0.0027733803948764442,-0.0009244601316254815,0.0027733803948764442,0.0027733803948764442,0.0027733803948764442,0.0027733803948764442
0.001925789992598289,-0.000641929997532763,0.001925789992598289,0.001925789992598289,0.001925789992598289,0.001925789992598289
0.0012319158531820782,-0.0004106386177273594,0.0012319158531820782,0.0012319158531820782,0.0012319158531820782,0.0012319158531820782
0.0006921018396058711,-0.00023070061320195704,0.0006921018396058711,0.0006921018396058711,0.0006921018396058711,0.0006921018396058711
0.0003066618583370297,-0.00010222061944567656,0.0003066618583370297,0.0003066618583370297,0.0003066618583370297,0.0003066618583370297
7.58797024546095e-05,-2.5293234151536498e-05,7.58797024546095e-05,7.58797024546095e-05,7.58797024546095e-05,7.58797024546095e-05
8.90037500880532e-09,-2.9667916696017734e-09,8.90037500880532e-09,8.90037500880532e-09,8.90037500880532e-09,8.90037500880532e-09
7.927257023956285e-05,-2.6424190079854285e-05,7.927257023956285e-05,7.927257023956285e-05,7.927257023956285e-05,7.927257023956285e-05
0.0003138632800219805,-0.00010462109334066015,0.0003138632800219805,0.0003138632800219805,0.0003138632800219805,0.0003138632800219805
0.0007039429134136094,-0.00023464763780453644,0.0007039429134136094,0.0007039429134136094,0.0007039429134136094,0.0007039429134136094
0.0012496425415411151,-0.0004165475138470384,0.0012496425415411151,0.0012496425415411151,0.0012496425415411151,0.0012496425415411151
0.0019510623005727288,-0.0006503541001909095,0.0019510623005727288,0.0019510623005727288,0.0019510623005727288,0.0019510623005727288
0.0028082712752669496,-0.0009360904250889831,0.0028082712752669496,0.0028082712752669496,0.0028082712752669496,0.0028082712752669496
0.0038213073885171563,-0.0012737691295057185,0.0038213073885171563,0.0038213073885171563,0.0038213073885171563,0.0038213073885171563
0.004990177296942962,-0.0016633924323143203,0.004990177296942962,0.004990177296942962,0.004990177296942962,0.004990177296942962
0.006314856292581847,-0.002104952097527282,0.006314856292581847,0.006314856292581847,0.006314856292581847,0.006314856292581847
0.007795288210728344,-0.002598429403576114,0.007795288210728344,0.007795288210728344,0.007795288210728344,0.007795288210728344
0.009431385343971848,-0.0031437951146572824,0.009431385343971848,0.009431385343971848,0.009431385343971848,0.009431385343971848
0.011223028362479733,-0.003741009454159911,0.011223028362479733,0.011223028362479733,0.011223028362479733,0.011223028362479733
0.013170066240574142,-0.00439002208019138,0.013170066240574142,0.013170066240574142,0.013170066240574142,0.013170066240574142
0.015272316189644575,-0.005090772063214858,0.015272316189644575,0.015272316189644575,0.015272316189644575,0.015272316189644575
0.017529563597446434,-0.005843187865815478,0.017529563597446434,0.017529563597446434,0.017529563597446434,0.017529563597446434
0.019941561973823237,-0.006647187324607745,0.019941561973823237,0.019941561973823237,0.019941561973823237,0.019941561973823237
0.022508032902897445,-0.007502677634299148,0.022508032902897445,0.022508032902897445,0.022508032902897445,0.022508032902897445
0.025228666001772107,-0.008409555333924035,0.025228666001772107,0.025228666001772107,0.025228666001772107,0.025228666001772107
0.028103118885780598,-0.0093677062952602,0.028103118885780598,0.028103118885780598,0.028103118885780598,0.028103118885780598
0.031131017140323236,-0.010377005713441077,0.031131017140323236,0.031131017140323236,0.031131017140323236,0.031131017140323236
0.034311954299330975,-0.01143731809977699,0.034311954299330975,0.034311954299330975,0.034311954299330975,0.034311954299330975
0.03764549183038827,-0.01254849727679609,0.03764549183038827,0.03764549183038827,0.03764549183038827,0.03764549183038827
0.041131159126553414,-0.013710386375517804,0.041131159126553414,0.041131159126553414,0.041131159126553414,0.041131159126553414
0.044768453504907234,-0.014922817834969076,0.044768453504907234,0.044768453504907234,0.044768453504907234,0.044768453504907234
0.04855684021186406,-0.016185613403954684,0.04855684021186406,0.04855684021186406,0.04855684021186406,0.04855684021186406
0.052495752435274184,-0.017498584145091395,0.052495752435274184,0.052495752435274184,0.052495752435274184,0.052495752435274184
0.05658459132335153,-0.018861530441117175,0.05658459132335153,0.05658459132335153,0.05658459132335153,0.05658459132335153
0.06082272601044719,-0.020274242003482396,0.06082272601044719,0.06082272601044719,0.06082272601044719,0.06082272601044719
0.06520949364970384,-0.02173649788323461,0.06520949364970384,0.06520949364970384,0.06520949364970384,0.06520949364970384
0.06974419945261018,-0.02324806648420339,0.06974419945261018,0.06974419945261018,0.06974419945261018,0.06974419945261018
0.07442611673548487,-0.024808705578494954,0.07442611673548487,0.07442611673548487,0.07442611673548487,0.07442611673548487
0.0792544869729073,-0.02641816232430243,0.0792544869729073,0.0792544869729073,0.0792544869729073,0.0792544869729073
0.08422851985812005,-0.028076173286040014,0.08422851985812005,0.08422851985812005,0.08422851985812005,0.08422851985812005
0.08934739337042155,-0.029782464456807184,0.08934739337042155,0.08934739337042155,0.08934739337042155,0.08934739337042155
0.09461025384956856,-0.031536751283189515,0.09461025384956856,0.09461025384956856,0.09461025384956856,0.09461025384956856
0.10001621607720204,-0.03333873869240068,0.10001621607720204,0.10001621607720204,0.10001621607720204,0.10001621607720204
0.10556436336531641,-0.03518812112177214,0.10556436336531641,0.10556436336531641,0.10556436336531641,0.10556436336531641
0.1112537476517827,-0.03708458255059423,0.1112537476517827,0.1112537476517827,0.1112537476517827,0.1112537476517827
0.11708338960293976,-0.03902779653431325,0.11708338960293976,0.11708338960293976,0.11708338960293976,0.11708338960293976
0.1230522787232618,-0.041017426241087264,0.1230522787232618,0.1230522787232618,0.1230522787232618,0.1230522787232618
0.12915937347211687,-0.04305312449070562,0.12915937347211687,0.12915937347211687,0.12915937347211687,0.12915937347211687
0.1354036013876189,-0.045134533795872955,0.1354036013876189,0.1354036013876189,0.1354036013876189,0.1354036013876189
0.1417838592175812,-0.047261286405860393,0.1417838592175812,0.1417838592175812,0.1417838592175812,0.1417838592175812
0.1482990130575788,-0.04943300435252626,0.1482990130575788,0.1482990130575788,0.1482990130575788,0.1482990130575788
0.1549478984961168,-0.05164929949870559,0.1549478984961168,0.1549478984961168,0.1549478984961168,0.1549478984961168
0.16172932076691438,-0.05390977358897145,0.16172932076691438,0.16172932076691438,0.16172932076691438,0.16172932076691438
0.16864205490829778,-0.05621401830276592,0.16864205490829778,0.16864205490829778,0.16864205490829778,0.16864205490829778
0.17568484592970396,-0.05856161530990131,0.17568484592970396,0.17568484592970396,0.17568484592970396,0.17568484592970396
0.18285640898528774,-0.060952136328429246,0.18285640898528774,0.18285640898528774,0.18285640898528774,0.18285640898528774
0.1901554295546365,-0.06338514318487883,0.1901554295546365,0.1901554295546365,0.1901554295546365,0.1901554295546365
0.19758056363057483,-0.06586018787685827,0.19758056363057483,0.19758056363057483,0.19758056363057483,0.19758056363057483
0.20513043791405952,-0.06837681263801984,0.20513043791405952,0.20513043791405952,0.20513043791405952,0.20513043791405952
0.2128036500161504,-0.07093455000538347,0.2128036500161504,0.2128036500161504,0.2128036500161504,0.2128036500161504
0.2205987686670461,-0.07353292288901538,0.2205987686670461,0.2205987686670461,0.2205987686670461,0.2205987686670461
0.2285143339321767,-0.0761714446440589,0.2285143339321767,0.2285143339321767,0.2285143339321767,0.2285143339321767
0.23654885743533102,-0.07884961914511034,0.23654885743533102,0.23654885743533102,0.23654885743533102,0.23654885743533102
0.244700822588806,-0.08156694086293532,0.244700822588806,0.244700822588806,0.244700822588806,0.244700822588806
0.2529686848305604,-0.08432289494352013,0.2529686848305604,0.2529686848305604,0.2529686848305604,0.2529686848305604
0.2613508718683567,-0.08711695728945223,0.2613508718683567,0.2613508718683567,0.2613508718683567,0.2613508718683567
0.2698457839308558,-0.0899485946436186,0.2698457839308558,0.2698457839308558,0.2698457839308558,0.2698457839308558
0.2784517940256595,-0.09281726467521983,0.2784517940256595,0.2784517940256595,0.2784517940256595,0.2784517940256595
0.2871672482042638,-0.09572241606808793,0.2871672482042638,0.2871672482042638,0.2871672482042638,0.2871672482042638
0.29599046583390365,-0.09866348861130121,0.29599046583390365,0.29599046583390365,0.29599046583390365,0.29599046583390365
0.3049197398762501,-0.10163991329208336,0.3049197398762501,0.3049197398762501,0.3049197398762501,0.3049197398762501
0.3139533371729418,-0.1046511123909806,0.3139533371729418,0.3139533371729418,0.3139533371729418,0.3139533371729418
0.3230894987379177,-0.1076964995793059,0.3230894987379177,0.3230894987379177,0.3230894987379177,0.3230894987379177
0.33232644005650674,-0.11077548001883558,0.33232644005650674,0.33232644005650674,0.33232644005650674,0.33232644005650674
0.3416623513912503,-0.11388745046375008,0.3416623513912503,0.3416623513912503,0.3416623513912503,0.3416623513912503
0.3510953980944188,-0.11703179936480626,0.3510953980944188,0.3510953980944188,0.3510953980944188,0.3510953980944188
0.36062372092717615,-0.12020790697572536,0.36062372092717615,0.36062372092717615,0.36062372092717615,0.36062372092717615
0.37024543638536533,-0.12341514546178844,0.37024543638536533,0.37024543638536533,0.37024543638536533,0.37024543638536533
0.379958637031858,-0.1266528790106193,0.379958637031858,0.379958637031858,0.379958637031858,0.379958637031858
0.3897613918354343,-0.12992046394514475,0.3897613918354343,0.3897613918354343,0.3897613918354343,0.3897613918354343
0.3996517465161434,-0.13321724883871444,0.3996517465161434,0.3996517465161434,0.3996517465161434,0.3996517465161434
0.409627723897103,-0.13654257463236766,0.409627723897103,0.409627723897103,0.409627723897103,0.409627723897103
0.41968732426267447,-0.13989577475422482,0.41968732426267447,0.41968732426267447,0.41968732426267447,0.41968732426267447
0.4298285257229807,-0.14327617524099356,0.4298285257229807,0.4298285257229807,0.4298285257229807,0.4298285257229807
0.44004928458470427,-0.14668309486156808,0.44004928458470427,0.44004928458470427,0.44004928458470427,0.44004928458470427
0.4503475357281103,-0.1501158452427034,0.4503475357281103,0.4503475357281103,0.4503475357281103,0.4503475357281103
0.4607211929902454,-0.15357373099674845,0.4607211929902454,0.4607211929902454,0.4607211929902454,0.4607211929902454
0.47116814955424263,-0.1570560498514142,0.47116814955424263,0.47116814955424263,0.47116814955424263,0.47116814955424263
0.4816862783446931,-0.16056209278156436,0.4816862783446931,0.4816862783446931,0.4816862783446931,0.4816862783446931
0.4922734324290007,-0.16409114414300022,0.4922734324290007,0.4922734324290007,0.4922734324290007,0.4922734324290007
0.5029274454246727,-0.16764248180822422,0.5029274454246727,0.5029274454246727,0.5029274454246727,0.5029274454246727
0.5136461319124718,-0.17121537730415723,0.5136461319124718,0.5136461319124718,0.5136461319124718,0.5136461319124718
0.524427287855371,-0.17480909595179034,0.524427287855371,0.524427287855371,0.524427287855371,0.524427287855371
0.535268691023242,-0.17842289700774733,0.535268691023242,0.535268691023242,0.535268691023242,0.535268691023242
0.5461681014232024,-0.18205603380773414,0.5461681014232024,0.5461681014232024,0.5461681014232024,0.5461681014232024
0.5571232617355509,-0.1857077539118503,0.5571232617355509,0.5571232617355509,0.5571232617355509,0.5571232617355509
0.5681318977552258,-0.1893772992517419,0.5681318977552258,0.5681318977552258,0.5681318977552258,0.5681318977552258
0.5791917188387037,-0.19306390627956788,0.5791917188387037,0.5791917188387037,0.5791917188387037,0.5791917188387037
0.5903004183562646,-0.19676680611875483,0.5903004183562646,0.5903004183562646,0.5903004183562646,0.5903004183562646
0.6014556741495438,-0.2004852247165146,0.6014556741495438,0.6014556741495438,0.6014556741495438,0.6014556741495438
0.6126551489942941,-0.204218382998098,0.6126551489942941,0.6126551489942941,0.6126551489942941,0.6126551489942941
0.6238964910682752,-0.20796549702275838,0.6238964910682752,0.6238964910682752,0.6238964910682752,0.6238964910682752
0.6351773344241889,-0.2117257781413963,0.6351773344241889,0.6351773344241889,0.6351773344241889,0.6351773344241889
0.6464952994675651,-0.215498433155855,0.6464952994675651,0.6464952994675651,0.6464952994675651,0.6464952994675651
0.657847993439536,-0.21928266447984532,0.657847993439536,0.657847993439536,0.657847993439536,0.657847993439536
0.6692330109043834,-0.2230776703014611,0.6692330109043834,0.6692330109043834,0.6692330109043834,0.6692330109043834
0.6806479342417863,-0.22688264474726208,0.6806479342417863,0.6806479342417863,0.6806479342417863,0.6806479342417863
0.6920903341436742,-0.23069677804789135,0.6920903341436742,0.6920903341436742,0.6920903341436742,0.6920903341436742
0.703557770115593,-0.23451925670519763,0.703557770115593,0.703557770115593,0.703557770115593,0.703557770115593
0.7150477909824888,-0.2383492636608296,0.7150477909824888,0.7150477909824888,0.7150477909824888,0.7150477909824888
0.7265579353988133,-0.24218597846627107,0.7265579353988133,0.7265579353988133,0.7265579353988133,0.7265579353988133
0.7380857323628551,-0.24602857745428502,0.7380857323628551,0.7380857323628551,0.7380857323628551,0.7380857323628551
0.7496287017351991,-0.24987623391173303,0.7496287017351991,0.7496287017351991,0.7496287017351991,0.7496287017351991
0.7611843547612122,-0.25372811825373737,0.7611843547612122,0.7611843547612122,0.7611843547612122,0.7611843547612122
0.7727501945974543,-0.25758339819915144,0.7727501945974543,0.7727501945974543,0.7727501945974543,0.7727501945974543
0.7843237168419069,-0.26144123894730226,0.7843237168419069,0.7843237168419069,0.7843237168419069,0.7843237168419069
0.7959024100679238,-0.2653008033559746,0.7959024100679238,0.7959024100679238,0.7959024100679238,0.7959024100679238
0.8074837563617919,-0.2691612521205973,0.8074837563617919,0.8074837563617919,0.8074837563617919,0.8074837563617919
0.8190652318637964,-0.2730217439545988,0.8190652318637964,0.8190652318637964,0.8190652318637964,0.8190652318637964
0.8306443073126732,-0.2768814357708911,0.8306443073126732,0.8306443073126732,0.8306443073126732,0.8306443073126732
0.8422184485933576,-0.28073948286445255,0.8422184485933576,0.8422184485933576,0.8422184485933576,0.8422184485933576
0.8537851172878987,-0.28459503909596623,0.8537851172878987,0.8537851172878987,0.8537851172878987,0.8537851172878987
0.8653417712294332,-0.2884472570764777,0.8653417712294332,0.8653417712294332,0.8653417712294332,0.8653417712294332
0.8768858650591076,-0.29229528835303586,0.8768858650591076,0.8768858650591076,0.8768858650591076,0.8768858650591076
0.8884148507858288,-0.2961382835952763,0.8884148507858288,0.8884148507858288,0.8884148507858288,0.8884148507858288
0.8999261783487299,-0.29997539278290997,0.8999261783487299,0.8999261783487299,0.8999261783487299,0.8999261783487299
0.911417296182227,-0.3038057653940756,0.911417296182227,0.911417296182227,0.911417296182227,0.911417296182227
0.922885651783557,-0.307628550594519,0.922885651783557,0.922885651783557,0.922885651783557,0.922885651783557
0.9343286922826616,-0.3114428974275538,0.9343286922826616,0.9343286922826616,0.9343286922826616,0.9343286922826616
0.945743865014318,-0.31524795500477265,0.945743865014318,0.945743865014318,0.945743865014318,0.945743865014318
0.9571286180923624,-0.3190428726974541,0.9571286180923624,0.9571286180923624,0.9571286180923624,0.9571286180923624
0.968480400985918,-0.3228268003286393,0.968480400985918,0.968480400985918,0.968480400985918,0.968480400985918
0.9797966650974637,-0.3265988883658212,0.9797966650974637,0.9797966650974637,0.9797966650974637,0.9797966650974637
0.9910748643426568,-0.3303582881142189,0.9910748643426568,0.9910748643426568,0.9910748643426568,0.9910748643426568
1.002312455731747,-0.33410415191058235,1.002312455731747,1.002312455731747,1.002312455731747,1.002312455731747
1.0135068999524768,-0.3378356333174923,1.0135068999524768,1.0135068999524768,1.0135068999524768,1.0135068999524768
1.0246556619543257,-0.34155188731810854,1.0246556619543257,1.0246556619543257,1.0246556619543257,1.0246556619543257
1.035756211533977,-0.3452520705113256,1.035756211533977,1.035756211533977,1.035756211533977,1.035756211533977
1.0468060239218668,-0.3489353413072889,1.0468060239218668,1.0468060239218668,1.0468060239218668,1.0468060239218668
1.0578025803696907,-0.35260086012323016,1.0578025803696907,1.0578025803696907,1.0578025803696907,1.0578025803696907
1.0687433687387213,-0.35624778957957376,1.0687433687387213,1.0687433687387213,1.0687433687387213,1.0687433687387213
1.0796258840888284,-0.35987529469627616,1.0796258840888284,1.0796258840888284,1.0796258840888284,1.0796258840888284
1.0904476292680327,-0.3634825430893442,1.0904476292680327,1.0904476292680327,1.0904476292680327,1.0904476292680327
1.1012061155024835,-0.36706870516749446,1.1012061155024835,1.1012061155024835,1.1012061155024835,1.1012061155024835
1.1118988629867101,-0.37063295432890336,1.1118988629867101,1.1118988629867101,1.1118988629867101,1.1118988629867101
1.1225234014740177,-0.3741744671580059,1.1225234014740177,1.1225234014740177,1.1225234014740177,1.1225234014740177
1.133077270866879,-0.377692423622293,1.133077270866879,1.133077270866879,1.133077270866879,1.133077270866879
1.1435580218071881,-0.38118600726906265,1.1435580218071881,1.1435580218071881,1.1435580218071881,1.1435580218071881
1.1539632162662414,-0.3846544054220804,1.1539632162662414,1.1539632162662414,1.1539632162662414,1.1539632162662414
1.1642904281342985,-0.3880968093780994,1.1642904281342985,1.1642904281342985,1.1642904281342985,1.1642904281342985
1.1745372438095794,-0.39151241460319314,1.1745372438095794,1.1745372438095794,1.1745372438095794,1.1745372438095794
1.184701262786562,-0.39490042092885397,1.184701262786562,1.184701262786562,1.184701262786562,1.184701262786562
1.1947800982434387,-0.39826003274781285,1.1947800982434387,1.1947800982434387,1.1947800982434387,1.1947800982434387
1.2047713776285833,-0.4015904592095278,1.2047713776285833,1.2047713776285833,1.2047713776285833,1.2047713776285833
1.2146727432458868,-0.40489091441529557,1.2146727432458868,1.2146727432458868,1.2146727432458868,1.2146727432458868
1.22448185283882,-0.40816061761294,1.22448185283882,1.22448185283882,1.22448185283882,1.22448185283882
1.2341963801730764,-0.4113987933910255,1.2341963801730764,1.2341963801730764,1.2341963801730764,1.2341963801730764
1.2438140156176534,-0.41460467187255107,1.2438140156176534,1.2438140156176534,1.2438140156176534,1.2438140156176534
1.2533324667242207,-0.41777748890807354,1.2533324667242207,1.2533324667242207,1.2533324667242207,1.2533324667242207
1.2627494588046375,-0.4209164862682125,1.2627494588046375,1.2627494588046375,1.2627494588046375,1.2627494588046375
1.272062735506468,-0.4240209118354893,1.272062735506468,1.272062735506468,1.272062735506468,1.272062735506468
1.2812700593863502,-0.4270900197954501,1.2812700593863502,1.2812700593863502,1.2812700593863502,1.2812700593863502
1.2903692124810715,-0.4301230708270238,1.2903692124810715,1.2903692124810715,1.2903692124810715,1.2903692124810715
1.2993579968762032,-0.4331193322920677,1.2993579968762032,1.2993579968762032,1.2993579968762032,1.2993579968762032
1.3082342352721525,-0.43607807842405083,1.3082342352721525,1.3082342352721525,1.3082342352721525,1.3082342352721525
1.3169957715474758,-0.43899859051582524,1.3169957715474758,1.3169957715474758,1.3169957715474758,1.3169957715474758
1.3256404713193162,-0.44188015710643874,1.3256404713193162,1.3256404713193162,1.3256404713193162,1.3256404713193162
1.3341662225008117,-0.4447220741669372,1.3341662225008117,1.3341662225008117,1.3341662225008117,1.3341662225008117
1.3425709358553228,-0.4475236452851076,1.3425709358553228,1.3425709358553228,1.3425709358553228,1.3425709358553228
1.350852545547349,-0.45028418184911634,1.350852545547349,1.350852545547349,1.350852545547349,1.350852545547349
1.3590090096899692,-0.4530030032299897,1.3590090096899692,1.3590090096899692,1.3590090096899692,1.3590090096899692
1.3670383108886646,-0.45567943696288815,1.3670383108886646,1.3670383108886646,1.3670383108886646,1.3670383108886646
1.3749384567813834,-0.4583128189271278,1.3749384567813834,1.3749384567813834,1.3749384567813834,1.3749384567813834
1.3827074805746908,-0.46090249352489693,1.3827074805746908,1.3827074805746908,1.3827074805746908,1.3827074805746908
1.3903434415758702,-0.4634478138586234,1.3903434415758702,1.3903434415758702,1.3903434415758702,1.3903434415758702
1.39784442572081,-0.4659481419069366,1.39784442572081,1.39784442572081,1.39784442572081,1.39784442572081
1.4052085460975514,-0.46840284869918375,1.4052085460975514,1.4052085460975514,1.4052085460975514,1.4052085460975514
1.4124339434653403,-0.47081131448844676,1.4124339434653403,1.4124339434653403,1.4124339434653403,1.4124339434653403
1.419518786769032,-0.4731729289230106,1.419518786769032,1.419518786769032,1.419518786769032,1.419518786769032
1.4264612736487206,-0.4754870912162401,1.4264612736487206,1.4264612736487206,1.4264612736487206,1.4264612736487206
1.4332596309444299,-0.47775321031480994,1.4332596309444299,1.4332596309444299,1.4332596309444299,1.4332596309444299
1.4399121151957388,-0.47997070506524625,1.4399121151957388,1.4399121151957388,1.4399121151957388,1.4399121151957388
1.4464170131361824,-0.4821390043787275,1.4464170131361824,1.4464170131361824,1.4464170131361824,1.4464170131361824
1.4527726421822944,-0.4842575473940981,1.4527726421822944,1.4527726421822944,1.4527726421822944,1.4527726421822944
1.458977350917148,-0.48632578363904927,1.458977350917148,1.458977350917148,1.458977350917148,1.458977350917148
1.4650295195682528,-0.48834317318941756,1.4650295195682528,1.4650295195682528,1.4650295195682528,1.4650295195682528
1.4709275604796586,-0.49030918682655283,1.4709275604796586,1.4709275604796586,1.4709275604796586,1.4709275604796586
1.4766699185781402,-0.49222330619271343,1.4766699185781402,1.4766699185781402,1.4766699185781402,1.4766699185781402
1.482255071833311,-0.49408502394443693,1.482255071833311,1.482255071833311,1.482255071833311,1.482255071833311
1.4876815317115326,-0.49589384390384417,1.4876815317115326,1.4876815317115326,1.4876815317115326,1.4876815317115326
1.49294784362348,-0.49764928120782664,1.49294784362348,1.49294784362348,1.49294784362348,1.49294784362348
1.4980525873652246,-0.4993508624550748,1.4980525873652246,1.4980525873652246,1.4980525873652246,1.4980525873652246
1.5029943775526986,-0.5009981258508995,1.5029943775526986,1.5029943775526986,1.5029943775526986,1.5029943775526986
1.5077718640494115,-0.5025906213498038,1.5077718640494115,1.5077718640494115,1.5077718640494115,1.5077718640494115
1.5123837323872709,-0.5041279107957569,1.5123837323872709,1.5123837323872709,1.5123837323872709,1.5123837323872709
1.5168287041803865,-0.5056095680601288,1.5168287041803865,1.5168287041803865,1.5168287041803865,1.5168287041803865
1.52110553753172,-0.50703517917724,1.52110553753172,1.52110553753172,1.52110553753172,1.52110553753172
1.525213027432448,-0.5084043424774826,1.525213027432448,1.525213027432448,1.525213027432448,1.525213027432448
1.529150006153912,-0.5097166687179706,1.529150006153912,1.529150006153912,1.529150006153912,1.529150006153912
1.5329153436320204,-0.5109717812106734,1.5329153436320204,1.5329153436320204,1.5329153436320204,1.5329153436320204
1.5365079478439796,-0.5121693159479932,1.5365079478439796,1.5365079478439796,1.5365079478439796,1.5365079478439796
1.5399267651772282,-0.5133089217257427,1.5399267651772282,1.5399267651772282,1.5399267651772282,1.5399267651772282
1.543170780790443,-0.5143902602634809,1.543170780790443,1.543170780790443,1.543170780790443,1.543170780790443
1.5462390189664992,-0.5154130063221664,1.5462390189664992,1.5462390189664992,1.5462390189664992,1.5462390189664992
1.5491305434572598,-0.5163768478190865,1.5491305434572598,1.5491305434572598,1.5491305434572598,1.5491305434572598
1.551844457820072,-0.517281485940024,1.551844457820072,1.551844457820072,1.551844457820072,1.551844457820072
1.5543799057458536,-0.5181266352486178,1.5543799057458536,1.5543799057458536,1.5543799057458536,1.5543799057458536
1.5567360713786464,-0.5189120237928821,1.5567360713786464,1.5567360713786464,1.5567360713786464,1.5567360713786464
1.558912179626527,-0.5196373932088423,1.558912179626527,1.558912179626527,1.558912179626527,1.558912179626527
1.5609074964637537,-0.5203024988212511,1.5609074964637537,1.5609074964637537,1.5609074964637537,1.5609074964637537
1.5627213292240378,-0.5209071097413459,1.5627213292240378,1.5627213292240378,1.5627213292240378,1.5627213292240378
1.5643530268848305,-0.5214510089616101,1.5643530268848305,1.5643530268848305,1.5643530268848305,1.5643530268848305
1.565801980342511,-0.5219339934475036,1.565801980342511,1.565801980342511,1.565801980342511,1.565801980342511
1.5670676226783682,-0.5223558742261227,1.5670676226783682,1.5670676226783682,1.5670676226783682,1.5670676226783682
1.5681494294152751,-0.5227164764717583,1.5681494294152751,1.5681494294152751,1.5681494294152751,1.5681494294152751
1.5690469187649392,-0.523015639588313,1.5690469187649392,1.5690469187649392,1.5690469187649392,1.5690469187649392
1.569759651865639,-0.5232532172885462,1.569759651865639,1.569759651865639,1.569759651865639,1.569759651865639
1.570287233010338,-0.5234290776701126,1.570287233010338,1.570287233010338,1.570287233010338,1.570287233010338
1.5706293098650776,-0.5235431032883592,1.5706293098650776,1.5706293098650776,1.5706293098650776,1.5706293098650776
1.570785573677553,-0.523595191225851,1.570785573677553,1.570785573677553,1.570785573677553,1.570785573677553
1.5707557594757777,-0.5235852531585925,1.5707557594757777,1.5707557594757777,1.5707557594757777,1.5707557594757777
1.570539646256741,-0.5235132154189136,1.570539646256741,1.570539646256741,1.570539646256741,1.570539646256741
1.570137057164969,-0.5233790190549896,1.570137057164969,1.570137057164969,1.570137057164969,1.570137057164969
1.5695478596609016,-0.5231826198869671,1.5695478596609016,1.5695478596609016,1.5695478596609016,1.5695478596609016
1.5687719656789922,-0.522923988559664,1.5687719656789922,1.5687719656789922,1.5687719656789922,1.5687719656789922
1.5678093317754556,-0.5226031105918185,1.5678093317754556,1.5678093317754556,1.5678093317754556,1.5678093317754556
1.5666599592655706,-0.5222199864218567,1.5666599592655706,1.5666599592655706,1.5666599592655706,1.5666599592655706
1.565323894350467,-0.5217746314501557,1.565323894350467,1.565323894350467,1.565323894350467,1.565323894350467
1.5638012282333107,-0.5212670760777702,1.5638012282333107,1.5638012282333107,1.5638012282333107,1.5638012282333107
1.5620920972248158,-0.5206973657416052,1.5620920972248158,1.5620920972248158,1.5620920972248158,1.5620920972248158
1.560196682838011,-0.5200655609460036,1.560196682838011,1.560196682838011,1.560196682838011,1.560196682838011
1.5581152118721853,-0.5193717372907284,1.5581152118721853,1.5581152118721853,1.5581152118721853,1.5581152118721853
1.555847956485949,-0.5186159854953164,1.555847956485949,1.555847956485949,1.555847956485949,1.555847956485949
1.553395234259339,-0.5177984114197796,1.553395234259339,1.553395234259339,1.553395234259339,1.553395234259339
1.5507574082449096,-0.5169191360816365,1.5507574082449096,1.5507574082449096,1.5507574082449096,1.5507574082449096
1.5479348870077465,-0.5159782956692488,1.5479348870077465,1.5479348870077465,1.5479348870077465,1.5479348870077465
1.5449281246543394,-0.5149760415514465,1.5449281246543394,1.5449281246543394,1.5449281246543394,1.5449281246543394
1.5417376208502682,-0.5139125402834227,1.5417376208502682,1.5417376208502682,1.5417376208502682,1.5417376208502682
1.5383639208266386,-0.5127879736088795,1.5383639208266386,1.5383639208266386,1.5383639208266386,1.5383639208266386
1.5348076153752221,-0.5116025384584073,1.5348076153752221,1.5348076153752221,1.5348076153752221,1.5348076153752221
1.5310693408322538,-0.5103564469440846,1.5310693408322538,1.5310693408322538,1.5310693408322538,1.5310693408322538
1.5271497790508337,-0.5090499263502778,1.5271497790508337,1.5271497790508337,1.5271497790508337,1.5271497790508337
1.5230496573619003,-0.5076832191206334,1.5230496573619003,1.5230496573619003,1.5230496573619003,1.5230496573619003
1.5187697485237277,-0.5062565828412425,1.5187697485237277,1.5187697485237277,1.5187697485237277,1.5187697485237277
1.5143108706599129,-0.5047702902199709,1.5143108706599129,1.5143108706599129,1.5143108706599129,1.5143108706599129
1.5096738871858169,-0.5032246290619389,1.5096738871858169,1.5096738871858169,1.5096738871858169,1.5096738871858169
1.5048597067234275,-0.5016199022411425,1.5048597067234275,1.5048597067234275,1.5048597067234275,1.5048597067234275
1.4998692830046223,-0.49995642766820736,1.4998692830046223,1.4998692830046223,1.4998692830046223,1.4998692830046223
1.4947036147627908,-0.49823453825426356,1.4947036147627908,1.4947036147627908,1.4947036147627908,1.4947036147627908
1.489363745612807,-0.49645458187093566,1.489363745612807,1.489363745612807,1.489363745612807,1.489363745612807
1.4838507639193275,-0.4946169213064424,1.4838507639193275,1.4838507639193275,1.4838507639193275,1.4838507639193275
1.4781658026533895,-0.4927219342177965,1.4781658026533895,1.4781658026533895,1.4781658026533895,1.4781658026533895
1.4723100392373123,-0.49077001307910406,1.4723100392373123,1.4723100392373123,1.4723100392373123,1.4723100392373123
1.4662846953778723,-0.4887615651259574,1.4662846953778723,1.4662846953778723,1.4662846953778723,1.4662846953778723
1.4600910368877529,-0.48669701229591755,1.4600910368877529,1.4600910368877529,1.4600910368877529,1.4600910368877529
1.4537303734952636,-0.48457679116508784,1.4537303734952636,1.4537303734952636,1.4537303734952636,1.4537303734952636
1.4472040586423258,-0.4824013528807752,1.4472040586423258,1.4472040586423258,1.4472040586423258,1.4472040586423258
1.4405134892707174,-0.4801711630902391,1.4405134892707174,1.4405134892707174,1.4405134892707174,1.4405134892707174
1.4336601055965965,-0.4778867018655321,1.4336601055965965,1.4336601055965965,1.4336601055965965,1.4336601055965965
1.426645390873297,-0.4755484636244323,1.426645390873297,1.426645390873297,1.426645390873297,1.426645390873297
1.4194708711424098,-0.47315695704746985,1.4194708711424098,1.4194708711424098,1.4194708711424098,1.4194708711424098
1.4121381149731669,-0.47071270499105555,1.4121381149731669,1.4121381149731669,1.4121381149731669,1.4121381149731669
1.4046487331901332,-0.468216244396711,1.4046487331901332,1.4046487331901332,1.4046487331901332,1.4046487331901332
1.3970043785892499,-0.4656681261964166,1.3970043785892499,1.3970043785892499,1.3970043785892499,1.3970043785892499
1.3892067456422164,-0.4630689152140721,1.3892067456422164,1.3892067456422164,1.3892067456422164,1.3892067456422164
1.3812575701892675,-0.4604191900630891,1.3812575701892675,1.3812575701892675,1.3812575701892675,1.3812575701892675
1.3731586291203568,-0.4577195430401189,1.3731586291203568,1.3731586291203568,1.3731586291203568,1.3731586291203568
1.3649117400447899,-0.4549705800149299,1.3649117400447899,1.3649117400447899,1.3649117400447899,1.3649117400447899
1.3565187609493308,-0.45217292031644357,1.3565187609493308,1.3565187609493308,1.3565187609493308,1.3565187609493308
1.3479815898448266,-0.4493271966149422,1.3479815898448266,1.3479815898448266,1.3479815898448266,1.3479815898448266
1.3393021644013965,-0.44643405480046544,1.3393021644013965,1.3393021644013965,1.3393021644013965,1.3393021644013965
1.3304824615722188,-0.44349415385740626,1.3304824615722188,1.3304824615722188,1.3304824615722188,1.3304824615722188
1.3215244972059774,-0.44050816573532575,1.3215244972059774,1.3215244972059774,1.3215244972059774,1.3215244972059774
1.3124303256479957,-0.43747677521599854,1.3124303256479957,1.3124303256479957,1.3124303256479957,1.3124303256479957
1.303202039330156,-0.4344006797767186,1.303202039330156,1.303202039330156,1.303202039330156,1.303202039330156
1.293841768349603,-0.4312805894498677,1.293841768349603,1.293841768349603,1.293841768349603,1.293841768349603
1.284351680036351,-0.42811722667878366,1.284351680036351,1.284351680036351,1.284351680036351,1.284351680036351
1.2747339785098162,-0.4249113261699387,1.2747339785098162,1.2747339785098162,1.2747339785098162,1.2747339785098162
1.264990904224358,-0.42166363474145263,1.264990904224358,1.264990904224358,1.264990904224358,1.264990904224358
1.2551247335039162,-0.41837491116797204,1.2551247335039162,1.2551247335039162,1.2551247335039162,1.2551247335039162
1.245137778065777,-0.4150459260219257,1.245137778065777,1.245137778065777,1.245137778065777,1.245137778065777
1.2350323845335904,-0.4116774615111968,1.2350323845335904,1.2350323845335904,1.2350323845335904,1.2350323845335904
1.2248109339396867,-0.40827031131322883,1.2248109339396867,1.2248109339396867,1.2248109339396867,1.2248109339396867
1.2144758412168015,-0.40482528040560045,1.2144758412168015,1.2144758412168015,1.2144758412168015,1.2144758412168015
1.2040295546792614,-0.40134318489308707,1.2040295546792614,1.2040295546792614,1.2040295546792614,1.2040295546792614
1.1934745554937634,-0.39782485183125443,1.1934745554937634,1.1934745554937634,1.1934745554937634,1.1934745554937634
1.1828133571398114,-0.3942711190466038,1.1828133571398114,1.1828133571398114,1.1828133571398114,1.1828133571398114
1.172048504859912,-0.39068283495330397,1.172048504859912,1.172048504859912,1.172048504859912,1.172048504859912
1.1611825750996445,-0.38706085836654813,1.1611825750996445,1.1611825750996445,1.1611825750996445,1.1611825750996445
1.1502181749376772,-0.38340605831255903,1.1502181749376772,1.1502181749376772,1.1502181749376772,1.1502181749376772
1.1391579415058817,-0.37971931383529384,1.1391579415058817,1.1391579415058817,1.1391579415058817,1.1391579415058817
1.1280045413996036,-0.37600151379986785,1.1280045413996036,1.1280045413996036,1.1280045413996036,1.1280045413996036
1.1167606700782482,-0.3722535566927494,1.1167606700782482,1.1167606700782482,1.1167606700782482,1.1167606700782482
1.1054290512562583,-0.36847635041875276,1.1054290512562583,1.1054290512562583,1.1054290512562583,1.1054290512562583
1.094012436284639,-0.36467081209487967,1.094012436284639,1.094012436284639,1.094012436284639,1.094012436284639
1.082513603523118,-0.36083786784103933,1.082513603523118,1.082513603523118,1.082513603523118,1.082513603523118
1.0709353577030967,-0.3569784525676989,1.0709353577030967,1.0709353577030967,1.0709353577030967,1.0709353577030967
1.05928052928149,-0.3530935097604966,1.05928052928149,1.05928052928149,1.05928052928149,1.05928052928149
1.047551973785623,-0.3491839912618743,1.047551973785623,1.047551973785623,1.047551973785623,1.047551973785623
1.0357525711492834,-0.3452508570497611,1.0357525711492834,1.0357525711492834,1.0357525711492834,1.0357525711492834
1.0238852250400827,-0.34129507501336087,1.0238852250400827,1.0238852250400827,1.0238852250400827,1.0238852250400827
1.0119528621782774,-0.33731762072609245,1.0119528621782774,1.0119528621782774,1.0119528621782774,1.0119528621782774
0.9999584316471694,-0.3333194772157231,0.9999584316471694,0.9999584316471694,0.9999584316471694,0.9999584316471694
0.987904904195263,-0.32930163473175433,0.987904904195263,0.987904904195263,0.987904904195263,0.987904904195263
0.975795271530289,-0.32526509051009633,0.975795271530289,0.975795271530289,0.975795271530289,0.975795271530289
0.9636325456052908,-0.3212108485350969,0.9636325456052908,0.9636325456052908,0.9636325456052908,0.9636325456052908
0.951419757896894,-0.3171399192989646,0.951419757896894,0.951419757896894,0.951419757896894,0.951419757896894
0.939159958675932,-0.313053319558644,0.939159958675932,0.939159958675932,0.939159958675932,0.939159958675932
0.9268562162706023,-0.30895207209020076,0.9268562162706023,0.9268562162706023,0.9268562162706023,0.9268562162706023
0.914511616322279,-0.3048372054407596,0.914511616322279,0.914511616322279,0.914511616322279,0.914511616322279
0.9021292610341922,-0.3007097536780641,0.9021292610341922,0.9021292610341922,0.9021292610341922,0.9021292610341922
0.8897122684131151,-0.296570756137705,0.8897122684131151,0.8897122684131151,0.8897122684131151,0.8897122684131151
0.8772637715042424,-0.29242125716808076,0.8772637715042424,0.8772637715042424,0.8772637715042424,0.8772637715042424
0.8647869176194226,-0.28826230587314083,0.8647869176194226,0.8647869176194226,0.8647869176194226,0.8647869176194226
0.8522848675589555,-0.2840949558529851,0.8522848675589555,0.8522848675589555,0.8522848675589555,0.8522848675589555
0.8397607948270825,-0.27992026494236083,0.8397607948270825,0.8397607948270825,0.8397607948270825,0.8397607948270825
0.827217884841401,-0.2757392949471336,0.827217884841401,0.827217884841401,0.827217884841401,0.827217884841401
0.814659334136363,-0.2715531113787876,0.814659334136363,0.814659334136363,0.814659334136363,0.814659334136363
0.8020883495610424,-0.2673627831870141,0.8020883495610424,0.8020883495610424,0.8020883495610424,0.8020883495610424
0.7895081474713959,-0.26316938249046523,0.7895081474713959,0.7895081474713959,0.7895081474713959,0.7895081474713959
0.7769219529171527,-0.25897398430571755,0.7769219529171527,0.7769219529171527,0.7769219529171527,0.7769219529171527
0.7643329988235839,-0.2547776662745279,0.7643329988235839,0.7643329988235839,0.7643329988235839,0.7643329988235839
0.7517445251683189,-0.25058150838943966,0.7517445251683189,0.7517445251683189,0.7517445251683189,0.7517445251683189
0.7391597781534207,-0.2463865927178069,0.7391597781534207,0.7391597781534207,0.7391597781534207,0.7391597781534207
0.7265820093729034,-0.24219400312430112,0.7265820093729034,0.7265820093729034,0.7265820093729034,0.7265820093729034
0.7140144749759335,-0.2380048249919778,0.7140144749759335,0.7140144749759335,0.7140144749759335,0.7140144749759335
0.7014604348258783,-0.2338201449419594,0.7014604348258783,0.7014604348258783,0.7014604348258783,0.7014604348258783
0.6889231516554468,-0.22964105055181558,0.6889231516554468,0.6889231516554468,0.6889231516554468,0.6889231516554468
0.6764058902181175,-0.22546863007270582,0.6764058902181175,0.6764058902181175,0.6764058902181175,0.6764058902181175
0.6639119164360442,-0.22130397214534805,0.6639119164360442,0.6639119164360442,0.6639119164360442,0.6639119164360442
0.6514444965447233,-0.21714816551490773,0.6514444965447233,0.6514444965447233,0.6514444965447233,0.6514444965447233
0.6390068962345467,-0.21300229874484888,0.6390068962345467,0.6390068962345467,0.6390068962345467,0.6390068962345467
0.6266023797895452,-0.2088674599298484,0.6266023797895452,0.6266023797895452,0.6266023797895452,0.6266023797895452
0.6142342092234809,-0.20474473640782698,0.6142342092234809,0.6142342092234809,0.6142342092234809,0.6142342092234809
0.6019056434135445,-0.20063521447118146,0.6019056434135445,0.6019056434135445,0.6019056434135445,0.6019056434135445
0.5896199372318826,-0.19653997907729415,0.5896199372318826,0.5896199372318826,0.5896199372318826,0.5896199372318826
0.5773803406751542,-0.19246011355838472,0.5773803406751542,0.5773803406751542,0.5773803406751542,0.5773803406751542
0.5651900979923765,-0.18839669933079217,0.5651900979923765,0.5651900979923765,0.5651900979923765,0.5651900979923765
0.5530524468112675,-0.18435081560375585,0.5530524468112675,0.5530524468112675,0.5530524468112675,0.5530524468112675
0.5409706172633334,-0.1803235390877778,0.5409706172633334,0.5409706172633334,0.5409706172633334,0.5409706172633334
0.5289478311079014,-0.17631594370263381,0.5289478311079014,0.5289478311079014,0.5289478311079014,0.5289478311079014
0.516987300855393,-0.172329100285131,0.516987300855393,0.516987300855393,0.516987300855393,0.516987300855393
0.5050922288899846,-0.16836407629666153,0.5050922288899846,0.5050922288899846,0.5050922288899846,0.5050922288899846
0.49326580659199315,-0.16442193553066436,0.49326580659199315,0.49326580659199315,0.49326580659199315,0.49326580659199315
0.4815112134601337,-0.16050373782004454,0.4815112134601337,0.4815112134601337,0.4815112134601337,0.4815112134601337
0.46983161623395014,-0.15661053874465003,0.46983161623395014,0.46983161623395014,0.46983161623395014,0.46983161623395014
0.45823016801662364,-0.15274338933887455,0.45823016801662364,0.45823016801662364,0.45823016801662364,0.45823016801662364
0.44671000739842726,-0.14890333579947573,0.44671000739842726,0.44671000739842726,0.44671000739842726,0.44671000739842726
0.43527425758104327,-0.14509141919368107,0.43527425758104327,0.43527425758104327,0.43527425758104327,0.43527425758104327
0.4239260255030001,-0.14130867516766668,0.4239260255030001,0.4239260255030001,0.4239260255030001,0.4239260255030001
0.4126684009664771,-0.13755613365549238,0.4126684009664771,0.4126684009664771,0.4126684009664771,0.4126684009664771
0.4015044557657117,-0.13383481858857055,0.4015044557657117,0.4015044557657117,0.4015044557657117,0.4015044557657117
0.3904372428172609,-0.13014574760575362,0.3904372428172609,0.3904372428172609,0.3904372428172609,0.3904372428172609
0.37946979529235786,-0.1264899317641193,0.37946979529235786,0.37946979529235786,0.37946979529235786,0.37946979529235786
0.36860512575162124,-0.12286837525054041,0.36860512575162124,0.36860512575162124,0.36860512575162124,0.36860512575162124
0.3578462252823525,-0.11928207509411748,0.3578462252823525,0.3578462252823525,0.3578462252823525,0.3578462252823525
0.347196062638682,-0.11573202087956067,0.347196062638682,0.347196062638682,0.347196062638682,0.347196062638682
0.33665758338479596,-0.11221919446159866,0.33665758338479596,0.33665758338479596,0.33665758338479596,0.33665758338479596
0.3262337090415016,-0.10874456968050054,0.3262337090415016,0.3262337090415016,0.3262337090415016,0.3262337090415016
0.31592733623640473,-0.10530911207880157,0.31592733623640473,0.31592733623640473,0.31592733623640473,0.31592733623640473
0.3057413358578872,-0.10191377861929572,0.3057413358578872,0.3057413358578872,0.3057413358578872,0.3057413358578872
0.29567855221320116,-0.09855951740440037,0.29567855221320116,0.29567855221320116,0.29567855221320116,0.29567855221320116
0.2857418021908868,-0.09524726739696225,0.2857418021908868,0.2857418021908868,0.2857418021908868,0.2857418021908868
0.2759338744277848,-0.09197795814259492,0.2759338744277848,0.2759338744277848,0.2759338744277848,0.2759338744277848
0.2662575284808698,-0.08875250949362326,0.2662575284808698,0.2662575284808698,0.2662575284808698,0.2662575284808698
0.2567154940041871,-0.08557183133472902,0.2567154940041871,0.2567154940041871,0.2567154940041871,0.2567154940041871
0.2473104699311116,-0.08243682331037053,0.2473104699311116,0.2473104699311116,0.2473104699311116,0.2473104699311116
0.2380451236621994,-0.07934837455406646,0.2380451236621994,0.2380451236621994,0.2380451236621994,0.2380451236621994
0.22892209025886018,-0.07630736341962005,0.22892209025886018,0.22892209025886018,0.22892209025886018,0.22892209025886018
0.2199439716431165,-0.07331465721437215,0.2199439716431165,0.2199439716431165,0.2199439716431165,0.2199439716431165
0.21111333580369546,-0.07037111193456515,0.21111333580369546,0.21111333580369546,0.21111333580369546,0.21111333580369546
0.2024327160086821,-0.06747757200289403,0.2024327160086821,0.2024327160086821,0.2024327160086821,0.2024327160086821
0.19390461002500822,-0.06463487000833606,0.19390461002500822,0.19390461002500822,0.19390461002500822,0.19390461002500822
0.1855314793449987,-0.061843826448332896,0.1855314793449987,0.1855314793449987,0.1855314793449987,0.1855314793449987
0.1773157484202272,-0.05910524947340907,0.1773157484202272,0.1773157484202272,0.1773157484202272,0.1773157484202272
0.16925980390293996,-0.056419934634313315,0.16925980390293996,0.16925980390293996,0.16925980390293996,0.16925980390293996
0.16136599389526765,-0.05378866463175588,0.16136599389526765,0.16136599389526765,0.16136599389526765,0.16136599389526765
0.15363662720647497,-0.05121220906882499,0.15363662720647497,0.15363662720647497,0.15363662720647497,0.15363662720647497
0.14607397261850874,-0.048691324206169576,0.14607397261850874,0.14607397261850874,0.14607397261850874,0.14607397261850874
0.13868025816004628,-0.046226752720015425,0.13868025816004628,0.13868025816004628,0.13868025816004628,0.13868025816004628
0.1314576703893182,-0.04381922346310606,0.1314576703893182,0.1314576703893182,0.1314576703893182,0.1314576703893182
0.12440835368592244,-0.04146945122864081,0.12440835368592244,0.12440835368592244,0.12440835368592244,0.12440835368592244
0.11753440955186957,-0.03917813651728985,0.11753440955186957,0.11753440955186957,0.11753440955186957,0.11753440955186957
0.11083789592210097,-0.03694596530736699,0.11083789592210097,0.11083789592210097,0.11083789592210097,0.11083789592210097
0.10432082648470163,-0.034773608828233875,0.10432082648470163,0.10432082648470163,0.10432082648470163,0.10432082648470163
0.09798517001104043,-0.032661723337013476,0.09798517001104043,0.09798517001104043,0.09798517001104043,0.09798517001104043
0.09183284969608117,-0.030610949898693722,0.09183284969608117,0.09183284969608117,0.09183284969608117,0.09183284969608117
0.08586574250907221,-0.028621914169690735,0.08586574250907221,0.08586574250907221,0.08586574250907221,0.08586574250907221
0.08008567855484967,-0.02669522618494989,0.08008567855484967,0.08008567855484967,0.08008567855484967,0.08008567855484967
0.07449444044598486,-0.024831480148661614,0.07449444044598486,0.07449444044598486,0.07449444044598486,0.07449444044598486
0.0690937626859812,-0.023031254228660397,0.0690937626859812,0.0690937626859812,0.0690937626859812,0.0690937626859812
0.06388533106375664,-0.021295110354585544,0.06388533106375664,0.06388533106375664,0.06388533106375664,0.06388533106375664
0.058870782059619306,-0.0196235940198731,0.058870782059619306,0.058870782059619306,0.058870782059619306,0.058870782059619306
0.054051702262952646,-0.01801723408765088,0.054051702262952646,0.054051702262952646,0.054051702262952646,0.054051702262952646
0.04942962780183052,-0.016476542600610173,0.04942962780183052,0.04942962780183052,0.04942962780183052,0.04942962780183052
0.04500604378475882,-0.015002014594919606,0.04500604378475882,0.04500604378475882,0.04500604378475882,0.04500604378475882
0.04078238375476841,-0.013594127918256137,0.04078238375476841,0.04078238375476841,0.04078238375476841,0.04078238375476841
0.036760029156048986,-0.012253343052016327,0.036760029156048986,0.036760029156048986,0.036760029156048986,0.036760029156048986
0.03294030881333932,-0.010980102937779774,0.03294030881333932,0.03294030881333932,0.03294030881333932,0.03294030881333932
0.029324498424267275,-0.009774832808089091,0.029324498424267275,0.029324498424267275,0.029324498424267275,0.029324498424267275
0.025913820064837657,-0.008637940021612552,0.025913820064837657,0.025913820064837657,0.025913820064837657,0.025913820064837657
0.022709441708265717,-0.007569813902755238,0.022709441708265717,0.022709441708265717,0.022709441708265717,0.022709441708265717
0.019712476757344635,-0.0065708255857815446,0.019712476757344635,0.019712476757344635,0.019712476757344635,0.019712476757344635
0.016923983590539402,-0.005641327863513133,0.016923983590539402,0.016923983590539402,0.016923983590539402,0.016923983590539402
0.014344965121984857,-0.004781655040661619,0.014344965121984857,0.014344965121984857,0.014344965121984857,0.014344965121984857
0.011976368375585139,-0.003992122791861712,0.011976368375585139,0.011976368375585139,0.011976368375585139,0.011976368375585139
0.009819084073374293,-0.0032730280244580973,0.009819084073374293,0.009819084073374293,0.009819084073374293,0.009819084073374293
0.00787394623833535,-0.0026246487461117833,0.00787394623833535,0.00787394623833535,0.00787394623833535,0.00787394623833535
0.006141731811831455,-0.0020472439372771515,0.006141731811831455,0.006141731811831455,0.006141731811831455,0.006141731811831455
0.004623160285831935,-0.0015410534286106447,0.004623160285831935,0.004623160285831935,0.004623160285831935,0.004623160285831935
0.0033188933500930377,-0.0011062977833643458,0.0033188933500930377,0.0033188933500930377,0.0033188933500930377,0.0033188933500930377
0.0022295345544569244,-0.0007431781848189747,0.0022295345544569244,0.0022295345544569244,0.0022295345544569244,0.0022295345544569244
0.0013556289864272608,-0.00045187632880908687,0.0013556289864272608,0.0013556289864272608,0.0013556289864272608,0.0013556289864272608
0.0006976629641775854,-0.00023255432139252845,0.0006976629641775854,0.0006976629641775854,0.0006976629641775854,0.0006976629641775854
0.00025606374514312115,-8.53545817143737e-05,0.00025606374514312115,0.00025606374514312115,0.00025606374514312115,0.00025606374514312115
3.1199250343225e-05,-1.0399750114408333e-05,3.1199250343225e-05,3.1199250343225e-05,3.1199250343225e-05,3.1199250343225e-05
2.3377804578783172e-05,-7.792601526261057e-06,2.3377804578783172e-05,2.3377804578783172e-05,2.3377804578783172e-05,2.3377804578783172e-05
0.00023284789264406725,-7.761596421468907e-05,0.00023284789264406725,0.00023284789264406725,0.00023284789264406725,0.00023284789264406725
0.0006597979316880321,-0.00021993264389601067,0.0006597979316880321,0.0006597979316880321,0.0006597979316880321,0.0006597979316880321
0.0013043560598582915,-0.0004347853532860972,0.0013043560598582915,0.0013043560598582915,0.0013043560598582915,0.0013043560598582915
0.002166589941353598,-0.0007221966471178658,0.002166589941353598,0.002166589941353598,0.002166589941353598,0.002166589941353598
0.0032465065880094264,-0.0010821688626698087,0.0032465065880094264,0.0032465065880094264,0.0032465065880094264,0.0032465065880094264
0.004544052197535519,-0.001514684065845173,0.004544052197535519,0.004544052197535519,0.004544052197535519,0.004544052197535519
0.006059112008518826,-0.002019704002839608,0.006059112008518826,0.006059112008518826,0.006059112008518826,0.006059112008518826
0.0077915101723044985,-0.0025971700574348327,0.0077915101723044985,0.0077915101723044985,0.0077915101723044985,0.0077915101723044985
0.009741009641861073,-0.003247003213953691,0.009741009641861073,0.009741009641861073,0.009741009641861073,0.009741009641861073
0.011907312077726951,-0.0039691040259089835,0.011907312077726951,0.011907312077726951,0.011907312077726951,0.011907312077726951
0.014290057771140828,-0.004763352590380275,0.014290057771140828,0.014290057771140828,0.014290057771140828,0.014290057771140828
0.01688882558444763,-0.005629608528149209,0.01688882558444763,0.01688882558444763,0.01688882558444763,0.01688882558444763
0.019703132908862248,-0.006567710969620748,0.019703132908862248,0.019703132908862248,0.019703132908862248,0.019703132908862248
0.022732435639682313,-0.00757747854656077,0.022732435639682313,0.022732435639682313,0.022732435639682313,0.022732435639682313
0.025976128169022786,-0.008658709389674262,0.025976128169022786,0.025976128169022786,0.025976128169022786,0.025976128169022786
0.029433543396145456,-0.009811181132048485,0.029433543396145456,0.029433543396145456,0.029433543396145456,0.029433543396145456
0.03310395275546068,-0.011034650918486892,0.03310395275546068,0.03310395275546068,0.03310395275546068,0.03310395275546068
0.03698656626225073,-0.012328855420750242,0.03698656626225073,0.03698656626225073,0.03698656626225073,0.03698656626225073
0.0410805325761877,-0.013693510858729233,0.0410805325761877,0.0410805325761877,0.0410805325761877,0.0410805325761877
0.04538493908269328,-0.015128313027564427,0.04538493908269328,0.04538493908269328,0.04538493908269328,0.04538493908269328
0.049898811992186515,-0.016632937330728837,0.049898811992186515,0.049898811992186515,0.049898811992186515,0.049898811992186515
0.05462111645727447,-0.018207038819091487,0.05462111645727447,0.05462111645727447,0.05462111645727447,0.05462111645727447
0.05955075670790859,-0.019850252235969527,0.05955075670790859,0.05955075670790859,0.05955075670790859,0.05955075670790859
0.06468657620455745,-0.021562192068185815,0.06468657620455745,0.06468657620455745,0.06468657620455745,0.06468657620455745
0.07002735780941136,-0.02334245260313712,0.07002735780941136,0.07002735780941136,0.07002735780941136,0.07002735780941136
0.0755718239756467,-0.02519060799188223,0.0755718239756467,0.0755718239756467,0.0755718239756467,0.0755718239756467
0.08131863695477405,-0.027106212318258015,0.08131863695477405,0.08131863695477405,0.08131863695477405,0.08131863695477405
0.08726639902206912,-0.029088799674023037,0.08726639902206912,0.08726639902206912,0.08726639902206912,0.08726639902206912
0.09341365272010899,-0.03113788424003633,0.09341365272010899,0.09341365272010899,0.09341365272010899,0.09341365272010899
0.09975888112041009,-0.033252960373470024,0.09975888112041009,0.09975888112041009,0.09975888112041009,0.09975888112041009
0.10630050810314928,-0.03543350270104976,0.10630050810314928,0.10630050810314928,0.10630050810314928,0.10630050810314928
0.11303689865499511,-0.0376789662183317,0.11303689865499511,0.11303689865499511,0.11303689865499511,0.11303689865499511
0.11996635918500012,-0.03998878639500004,0.11996635918500012,0.11996635918500012,0.11996635918500012,0.11996635918500012
0.12708713785854492,-0.04236237928618163,0.12708713785854492,0.12708713785854492,0.12708713785854492,0.12708713785854492
0.13439742494932827,-0.04479914164977609,0.13439742494932827,0.13439742494932827,0.13439742494932827,0.13439742494932827
0.14189535320933988,-0.04729845106977996,0.14189535320933988,0.14189535320933988,0.14189535320933988,0.14189535320933988
0.1495789982568063,-0.0498596660856021,0.1495789982568063,0.1495789982568063,0.1495789982568063,0.1495789982568063
0.1574463789820577,-0.052482126327352566,0.1574463789820577,0.1574463789820577,0.1574463789820577,0.1574463789820577
0.16549545797127144,-0.055165152657090474,0.16549545797127144,0.16549545797127144,0.16549545797127144,0.16549545797127144
0.1737241419480224,-0.05790804731600746,0.1737241419480224,0.1737241419480224,0.1737241419480224,0.1737241419480224
0.18213028223262992,-0.0607100940775433,0.18213028223262992,0.18213028223262992,0.18213028223262992,0.18213028223262992
0.1907116752191666,-0.06357055840638885,0.1907116752191666,0.1907116752191666,0.1907116752191666,0.1907116752191666
0.19946606287012772,-0.0664886876233759,0.19946606287012772,0.19946606287012772,0.19946606287012772,0.19946606287012772
0.20839113322863673,-0.06946371107621224,0.20839113322863673,0.20839113322863673,0.20839113322863673,0.20839113322863673
0.21748452094813858,-0.07249484031604618,0.21748452094813858,0.21748452094813858,0.21748452094813858,0.21748452094813858
0.22674380783947612,-0.07558126927982536,0.22674380783947612,0.22674380783947612,0.22674380783947612,0.22674380783947612
0.2361665234352583,-0.07872217447841942,0.2361665234352583,0.2361665234352583,0.2361665234352583,0.2361665234352583
0.24575014557143457,-0.08191671519047819,0.24575014557143457,0.24575014557143457,0.24575014557143457,0.24575014557143457
0.2554921009859634,-0.0851640336619878,0.2554921009859634,0.2554921009859634,0.2554921009859634,0.2554921009859634
0.2653897659344646,-0.0884632553114882,0.2653897659344646,0.2653897659344646,0.2653897659344646,0.2653897659344646
0.27544046682274115,-0.09181348894091372,0.27544046682274115,0.27544046682274115,0.27544046682274115,0.27544046682274115
0.2856414808560618,-0.09521382695202059,0.2856414808560618,0.2856414808560618,0.2856414808560618,0.2856414808560618
0.29599003670506313,-0.09866334556835438,0.29599003670506313,0.29599003670506313,0.29599003670506313,0.29599003670506313
0.3064833151881455,-0.10216110506271515,0.3064833151881455,0.3064833151881455,0.3064833151881455,0.3064833151881455
0.3171184499702299,-0.10570614999007664,0.3171184499702299,0.3171184499702299,0.3171184499702299,0.3171184499702299
0.3278925282777232,-0.10929750942590771,0.3278925282777232,0.3278925282777232,0.3278925282777232,0.3278925282777232
0.3388025916295658,-0.11293419720985524,0.3388025916295658,0.3388025916295658,0.3388025916295658,0.3388025916295658
0.34984563658416634,-0.1166152121947221,0.34984563658416634,0.34984563658416634,0.34984563658416634,0.34984563658416634
0.3610186155021166,-0.12033953850070553,0.3610186155021166,0.3610186155021166,0.3610186155021166,0.3610186155021166
0.3723184373244761,-0.12410614577482536,0.3723184373244761,0.3723184373244761,0.3723184373244761,0.3723184373244761
0.3837419683664864,-0.12791398945549545,0.3837419683664864,0.3837419683664864,0.3837419683664864,0.3837419683664864
0.3952860331265197,-0.13176201104217322,0.3952860331265197,0.3952860331265197,0.3952860331265197,0.3952860331265197
0.40694741511009175,-0.13564913837003056,0.40694741511009175,0.40694741511009175,0.40694741511009175,0.40694741511009175
0.4187228576687539,-0.13957428588958462,0.4187228576687539,0.4187228576687539,0.4187228576687539,0.4187228576687539
0.43060906485365447,-0.14353635495121814,0.43060906485365447,0.43060906485365447,0.43060906485365447,0.43060906485365447
0.44260270228360155,-0.14753423409453384,0.44260270228360155,0.44260270228360155,0.44260270228360155,0.44260270228360155
0.45470039802739015,-0.15156679934246337,0.45470039802739015,0.45470039802739015,0.45470039802739015,0.45470039802739015
0.46689874350021976,-0.15563291450007324,0.46689874350021976,0.46689874350021976,0.46689874350021976,0.46689874350021976
0.47919429437395167,-0.15973143145798388,0.47919429437395167,0.47919429437395167,0.47919429437395167,0.47919429437395167
0.4915835715010387,-0.16386119050034623,0.4915835715010387,0.4915835715010387,0.4915835715010387,0.4915835715010387
0.5040630618518319,-0.16802102061727728,0.5040630618518319,0.5040630618518319,0.5040630618518319,0.5040630618518319
0.5166292194651061,-0.17220973982170204,0.5166292194651061,0.5166292194651061,0.5166292194651061,0.5166292194651061
0.5292784664115365,-0.17642615547051216,0.5292784664115365,0.5292784664115365,0.5292784664115365,0.5292784664115365
0.5420071937698726,-0.18066906458995752,0.5420071937698726,0.5420071937698726,0.5420071937698726,0.5420071937698726
0.5548117626156014,-0.18493725420520044,0.5548117626156014,0.5548117626156014,0.5548117626156014,0.5548117626156014
0.5676885050218178,-0.18922950167393926,0.5676885050218178,0.5676885050218178,0.5676885050218178,0.5676885050218178
0.5806337250720822,-0.1935445750240274,0.5806337250720822,0.5806337250720822,0.5806337250720822,0.5806337250720822
0.5936436998849574,-0.19788123329498578,0.5936436998849574,0.5936436998849574,0.5936436998849574,0.5936436998849574
0.6067146806500244,-0.20223822688334148,0.6067146806500244,0.6067146806500244,0.6067146806500244,0.6067146806500244
0.6198428936750359,-0.2066142978916786,0.6198428936750359,0.6198428936750359,0.6198428936750359,0.6198428936750359
0.6330245414440117,-0.2110081804813372,0.6330245414440117,0.6330245414440117,0.6330245414440117,0.6330245414440117
0.6462558036859268,-0.21541860122864226,0.6462558036859268,0.6462558036859268,0.6462558036859268,0.6462558036859268
0.6595328384537592,-0.21984427948458637,0.6595328384537592,0.6595328384537592,0.6595328384537592,0.6595328384537592
0.6728517832135934,-0.22428392773786443,0.6728517832135934,0.6728517832135934,0.6728517832135934,0.6728517832135934
0.6862087559434719,-0.22873625198115727,0.6862087559434719,0.6862087559434719,0.6862087559434719,0.6862087559434719
0.6995998562417434,-0.2331999520805811,0.6995998562417434,0.6995998562417434,0.6995998562417434,0.6995998562417434
0.7130211664445405,-0.23767372214818017,0.7130211664445405,0.7130211664445405,0.7130211664445405,0.7130211664445405
0.7264687527521625,-0.24215625091738746,0.7264687527521625,0.7264687527521625,0.7264687527521625,0.7264687527521625
0.7399386663639815,-0.24664622212132714,0.7399386663639815,0.7399386663639815,0.7399386663639815,0.7399386663639815
0.7534269446216081,-0.25114231487386934,0.7534269446216081,0.7534269446216081,0.7534269446216081,0.7534269446216081
0.7669296121599734,-0.25564320405332447,0.7669296121599734,0.7669296121599734,0.7669296121599734,0.7669296121599734
0.7804426820660223,-0.2601475606886741,0.7804426820660223,0.7804426820660223,0.7804426820660223,0.7804426820660223
0.7939621570446943,-0.2646540523482314,0.7939621570446943,0.7939621570446943,0.7939621570446943,0.7939621570446943
0.8074840305918422,-0.26916134353061405,0.8074840305918422,0.8074840305918422,0.8074840305918422,0.8074840305918422
0.8210042881737781,-0.273668096057926,0.8210042881737781,0.8210042881737781,0.8210042881737781,0.8210042881737781
0.8345189084131085,-0.27817296947103615,0.8345189084131085,0.8345189084131085,0.8345189084131085,0.8345189084131085
0.8480238642805225,-0.2826746214268408,0.8480238642805225,0.8480238642805225,0.8480238642805225,0.8480238642805225
0.8615151242921569,-0.2871717080973856,0.8615151242921569,0.8615151242921569,0.8615151242921569,0.8615151242921569
0.8749886537122598,-0.29166288457075323,0.8749886537122598,0.8749886537122598,0.8749886537122598,0.8749886537122598
0.888440415760727,-0.2961468052535756,0.888440415760727,0.888440415760727,0.888440415760727,0.888440415760727
0.9018663728252174,-0.30062212427507246,0.9018663728252174,0.9018663728252174,0.9018663728252174,0.9018663728252174
0.9152624876774678,-0.30508749589248924,0.9152624876774678,0.9152624876774678,0.9152624876774678,0.9152624876774678
0.9286247246934438,-0.3095415748978146,0.9286247246934438,0.9286247246934438,0.9286247246934438,0.9286247246934438
0.9419490510769805,-0.31398301702566017,0.9419490510769805,0.9419490510769805,0.9419490510769805,0.9419490510769805
0.9552314380865454,-0.3184104793621818,0.9552314380865454,0.9552314380865454,0.9552314380865454,0.9552314380865454
0.9684678622647412,-0.32282262075491375,0.9684678622647412,0.9684678622647412,0.9684678622647412,0.9684678622647412
0.9816543066702067,-0.3272181022234022,0.9816543066702067,0.9816543066702067,0.9816543066702067,0.9816543066702067
0.9947867621115264,-0.33159558737050876,0.9947867621115264,0.9947867621115264,0.9947867621115264,0.9947867621115264
1.0078612283827677,-0.3359537427942558,1.0078612283827677,1.0078612283827677,1.0078612283827677,1.0078612283827677
1.0208737155003034,-0.34029123850010107,1.0208737155003034,1.0208737155003034,1.0208737155003034,1.0208737155003034
1.0338202449404923,-0.34460674831349736,1.0338202449404923,1.0338202449404923,1.0338202449404923,1.0338202449404923
1.0466968508778811,-0.348898950292627,1.0466968508778811,1.0466968508778811,1.0466968508778811,1.0466968508778811
1.0594995814235264,-0.3531665271411754,1.0594995814235264,1.0594995814235264,1.0594995814235264,1.0594995814235264
1.072224499863048,-0.35740816662101593,1.072224499863048,1.072224499863048,1.072224499863048,1.072224499863048
1.0848676858940405,-0.3616225619646801,1.0848676858940405,1.0848676858940405,1.0848676858940405,1.0848676858940405
1.0974252368624429,-0.36580841228748096,1.0974252368624429,1.0974252368624429,1.0974252368624429,1.0974252368624429
1.1098932689974996,-0.3699644229991665,1.1098932689974996,1.1098932689974996,1.1098932689974996,1.1098932689974996
1.122267918644889,-0.374089306214963,1.122267918644889,1.122267918644889,1.122267918644889,1.122267918644889
1.134545343497662,-0.3781817811658873,1.134545343497662,1.134545343497662,1.134545343497662,1.134545343497662
1.1467217238245646,-0.38224057460818817,1.1467217238245646,1.1467217238245646,1.1467217238245646,1.1467217238245646
1.1587932636954033,-0.38626442123180105,1.1587932636954033,1.1587932636954033,1.1587932636954033,1.1587932636954033
1.1707561922029854,-0.3902520640676618,1.1707561922029854,1.1707561922029854,1.1707561922029854,1.1707561922029854
1.1826067646813114,-0.3942022548937704,1.1826067646813114,1.1826067646813114,1.1826067646813114,1.1826067646813114
1.194341263919569,-0.3981137546398563,1.194341263919569,1.194341263919569,1.194341263919569,1.194341263919569
1.2059560013715702,-0.40198533379052337,1.2059560013715702,1.2059560013715702,1.2059560013715702,1.2059560013715702
1.2174473183602215,-0.4058157727867404,1.2174473183602215,1.2174473183602215,1.2174473183602215,1.2174473183602215
1.2288115872766079,-0.409603862425536,1.2288115872766079,1.2288115872766079,1.2288115872766079,1.2288115872766079
1.2400452127733446,-0.4133484042577815,1.2400452127733446,1.2400452127733446,1.2400452127733446,1.2400452127733446
1.2511446329517488,-0.41704821098391626,1.2511446329517488,1.2511446329517488,1.2511446329517488,1.2511446329517488
1.2621063205424656,-0.4207021068474885,1.2621063205424656,1.2621063205424656,1.2621063205424656,1.2621063205424656
1.2729267840791345,-0.42430892802637815,1.2729267840791345,1.2729267840791345,1.2729267840791345,1.2729267840791345
1.2836025690647146,-0.42786752302157155,1.2836025690647146,1.2836025690647146,1.2836025690647146,1.2836025690647146
1.2941302591300707,-0.4313767530433569,1.2941302591300707,1.2941302591300707,1.2941302591300707,1.2941302591300707
1.3045064771844026,-0.4348354923948008,1.3045064771844026,1.3045064771844026,1.3045064771844026,1.3045064771844026
1.3147278865571645,-0.4382426288523881,1.3147278865571645,1.3147278865571645,1.3147278865571645,1.3147278865571645
1.3247911921310338,-0.4415970640436779,1.3247911921310338,1.3247911921310338,1.3247911921310338,1.3247911921310338
1.334693141465592,-0.44489771382186394,1.334693141465592,1.334693141465592,1.334693141465592,1.334693141465592
1.344430525911265,-0.4481435086370883,1.344430525911265,1.344430525911265,1.344430525911265,1.344430525911265
1.3540001817131875,-0.4513333939043958,1.3540001817131875,1.3540001817131875,1.3540001817131875,1.3540001817131875
1.3633989911045643,-0.45446633036818807,1.3633989911045643,1.3633989911045643,1.3633989911045643,1.3633989911045643
1.372623883389174,-0.45754129446305797,1.372623883389174,1.372623883389174,1.372623883389174,1.372623883389174
1.3816718360125995,-0.46055727867086643,1.3816718360125995,1.3816718360125995,1.3816718360125995,1.3816718360125995
1.3905398756218226,-0.4635132918739408,1.3905398756218226,1.3905398756218226,1.3905398756218226,1.3905398756218226
1.3992250791127947,-0.46640835970426486,1.3992250791127947,1.3992250791127947,1.3992250791127947,1.3992250791127947
1.407724574665607,-0.46924152488853565,1.407724574665607,1.407724574665607,1.407724574665607,1.407724574665607
1.416035542766878,-0.4720118475889593,1.416035542766878,1.416035542766878,1.416035542766878,1.416035542766878
1.4241552172189902,-0.47471840573966334,1.4241552172189902,1.4241552172189902,1.4241552172189902,1.4241552172189902
1.4320808861358043,-0.4773602953786014,1.4320808861358043,1.4320808861358043,1.4320808861358043,1.4320808861358043
1.4398098929244683,-0.47993663097482275,1.4398098929244683,1.4398098929244683,1.4398098929244683,1.4398098929244683
1.447339637252982,-0.482446545750994,1.447339637252982,1.447339637252982,1.447339637252982,1.447339637252982
1.4546675760031176,-0.48488919200103914,1.4546675760031176,1.4546675760031176,1.4546675760031176,1.4546675760031176
1.4617912242083742,-0.4872637414027914,1.4617912242083742,1.4617912242083742,1.4617912242083742,1.4617912242083742
1.4687081559765747,-0.48956938532552485,1.4687081559765747,1.4687081559765747,1.4687081559765747,1.4687081559765747
1.4754160053967775,-0.49180533513225916,1.4754160053967775,1.4754160053967775,1.4754160053967775,1.4754160053967775
1.4819124674301312,-0.4939708224767103,1.4819124674301312,1.4819124674301312,1.4819124674301312,1.4819124674301312
1.4881952987843472,-0.49606509959478234,1.4881952987843472,1.4881952987843472,1.4881952987843472,1.4881952987843472
1.4942623187714215,-0.4980874395904738,1.4942623187714215,1.4942623187714215,1.4942623187714215,1.4942623187714215
1.500111410148296,-0.5000371367160986,1.500111410148296,1.500111410148296,1.500111410148296,1.500111410148296
1.5057405199400904,-0.5019135066466968,1.5057405199400904,1.5057405199400904,1.5057405199400904,1.5057405199400904
1.511147660245608,-0.503715886748536,1.511147660245608,1.511147660245608,1.511147660245608,1.511147660245608
1.5163309090247619,-0.5054436363415872,1.5163309090247619,1.5163309090247619,1.5163309090247619,1.5163309090247619
1.5212884108676052,-0.5070961369558683,1.5212884108676052,1.5212884108676052,1.5212884108676052,1.5212884108676052
1.5260183777446636,-0.5086727925815545,1.5260183777446636,1.5260183777446636,1.5260183777446636,1.5260183777446636
1.5305190897382317,-0.5101730299127439,1.5305190897382317,1.5305190897382317,1.5305190897382317,1.5305190897382317
1.534788895754338,-0.5115962985847793,1.534788895754338,1.534788895754338,1.534788895754338,1.534788895754338
1.5388262142150817,-0.5129420714050272,1.5388262142150817,1.5388262142150817,1.5388262142150817,1.5388262142150817
1.542629533731023,-0.5142098445770077,1.542629533731023,1.542629533731023,1.542629533731023,1.542629533731023
1.5461974137533485,-0.5153991379177828,1.5461974137533485,1.5461974137533485,1.5461974137533485,1.5461974137533485
1.5495284852055229,-0.5165094950685076,1.5495284852055229,1.5495284852055229,1.5495284852055229,1.5495284852055229
1.5526214510941303,-0.5175404836980434,1.5526214510941303,1.5526214510941303,1.5526214510941303,1.5526214510941303
1.555475087098648,-0.5184916956995493,1.555475087098648,1.555475087098648,1.555475087098648,1.555475087098648
1.5580882421398614,-0.5193627473799538,1.5580882421398614,1.5580882421398614,1.5580882421398614,1.5580882421398614
1.5604598389266664,-0.5201532796422221,1.5604598389266664,1.5604598389266664,1.5604598389266664,1.5604598389266664
1.5625888744809948,-0.5208629581603316,1.5625888744809948,1.5625888744809948,1.5625888744809948,1.5625888744809948
1.5644744206406076,-0.5214914735468692,1.5644744206406076,1.5644744206406076,1.5644744206406076,1.5644744206406076
1.5661156245395096,-0.5220385415131699,1.5661156245395096,1.5661156245395096,1.5661156245395096,1.5661156245395096
1.5675117090657433,-0.5225039030219144,1.5675117090657433,1.5675117090657433,1.5675117090657433,1.5675117090657433
1.5686619732963234,-0.5228873244321077,1.5686619732963234,1.5686619732963234,1.5686619732963234,1.5686619732963234
1.5695657929090883,-0.5231885976363627,1.5695657929090883,1.5695657929090883,1.5695657929090883,1.5695657929090883
1.57022262057124,-0.5234075401904132,1.57022262057124,1.57022262057124,1.57022262057124,1.57022262057124
1.5706319863043605,-0.5235439954347868,1.5706319863043605,1.5706319863043605,1.5706319863043605,1.5706319863043605
1.5707934978256928,-0.5235978326085643,1.5707934978256928,1.5707934978256928,1.5707934978256928,1.5707934978256928
1.570706840865487,-0.5235689469551623,1.570706840865487,1.570706840865487,1.570706840865487,1.570706840865487
1.5703717794602101,-0.5234572598200701,1.5703717794602101,1.5703717794602101,1.5703717794602101,1.5703717794602101
1.5697881562214415,-0.5232627187404805,1.5697881562214415,1.5697881562214415,1.5697881562214415,1.5697881562214415
1.5689558925802594,-0.5229852975267532,1.5689558925802594,1.5689558925802594,1.5689558925802594,1.5689558925802594
1.5678749890069588,-0.5226249963356528,1.5678749890069588,1.5678749890069588,1.5678749890069588,1.5678749890069588
1.5665455252059193,-0.5221818417353065,1.5665455252059193,1.5665455252059193,1.5665455252059193,1.5665455252059193
1.5649676602854805,-0.5216558867618268,1.5649676602854805,1.5649676602854805,1.5649676602854805,1.5649676602854805
1.5631416329026537,-0.5210472109675512,1.5631416329026537,1.5631416329026537,1.5631416329026537,1.5631416329026537
1.5610677613825468,-0.5203559204608489,1.5610677613825468,1.5610677613825468,1.5610677613825468,1.5610677613825468
1.5587464438123482,-0.5195821479374493,1.5587464438123482,1.5587464438123482,1.5587464438123482,1.5587464438123482
1.5561781581097522,-0.5187260527032507,1.5561781581097522,1.5561781581097522,1.5561781581097522,1.5561781581097522
1.5533634620657053,-0.5177878206885684,1.5533634620657053,1.5533634620657053,1.5533634620657053,1.5533634620657053
1.5503029933613475,-0.5167676644537824,1.5503029933613475,1.5503029933613475,1.5503029933613475,1.5503029933613475
1.5469974695590676,-0.5156658231863558,1.5469974695590676,1.5469974695590676,1.5469974695590676,1.5469974695590676
1.5434476880675536,-0.5144825626891845,1.5434476880675536,1.5434476880675536,1.5434476880675536,1.5434476880675536
1.5396545260807621,-0.513218175360254,1.5396545260807621,1.5396545260807621,1.5396545260807621,1.5396545260807621
1.5356189404907221,-0.511872980163574,1.5356189404907221,1.5356189404907221,1.5356189404907221,1.5356189404907221
