liuyurong129/figaroh_kinova/examples/kinova_gen3/data/identification/trapezoidal_motion_6dof/identification_q_simulation.csv
q1,q2,q3,q4,q5,q6
-3.000000000000000000e+00,-2.000000000000000000e+00,-2.500000000000000000e+00,-3.000000000000000000e+00,-2.000000000000000000e+00,-3.000000000000000000e+00
-2.999990995498311719e+00,-1.999993996998874701e+00,-2.499992496248593099e+00,-2.999990995498311719e+00,-1.999993996998874701e+00,-2.999990995498311719e+00
-2.999963981993247764e+00,-1.999975987995498583e+00,-2.499969984994373284e+00,-2.999963981993247764e+00,-1.999975987995498583e+00,-2.999963981993247764e+00
-2.999918959484807246e+00,-1.999945972989871645e+00,-2.499932466237339668e+00,-2.999918959484807246e+00,-1.999945972989871645e+00,-2.999918959484807246e+00
-2.999855927972991054e+00,-1.999903951981993888e+00,-2.499879939977492693e+00,-2.999855927972991054e+00,-1.999903951981993888e+00,-2.999855927972991054e+00
-2.999774887457798300e+00,-1.999849924971865534e+00,-2.499812406214831917e+00,-2.999774887457798300e+00,-1.999849924971865534e+00,-2.999774887457798300e+00
-2.999675837939229872e+00,-1.999783891959486581e+00,-2.499729864949358227e+00,-2.999675837939229872e+00,-1.999783891959486581e+00,-2.999675837939229872e+00
-2.999558779417284882e+00,-1.999705852944856588e+00,-2.499632316181070735e+00,-2.999558779417284882e+00,-1.999705852944856588e+00,-2.999558779417284882e+00
-2.999423711891963773e+00,-1.999615807927975997e+00,-2.499519759909969885e+00,-2.999423711891963773e+00,-1.999615807927975997e+00,-2.999423711891963773e+00
-2.999270635363266990e+00,-1.999513756908844586e+00,-2.499392196136055677e+00,-2.999270635363266990e+00,-1.999513756908844586e+00,-2.999270635363266990e+00
-2.999099549831193645e+00,-1.999399699887462578e+00,-2.499249624859328112e+00,-2.999099549831193645e+00,-1.999399699887462578e+00,-2.999099549831193645e+00
-2.998910455295744626e+00,-1.999273636863829529e+00,-2.499092046079787188e+00,-2.998910455295744626e+00,-1.999273636863829529e+00,-2.998910455295744626e+00
-2.998703351756919044e+00,-1.999135567837945882e+00,-2.498919459797432463e+00,-2.998703351756919044e+00,-1.999135567837945882e+00,-2.998703351756919044e+00
-2.998478239214717345e+00,-1.998985492809811637e+00,-2.498731866012264380e+00,-2.998478239214717345e+00,-1.998985492809811637e+00,-2.998478239214717345e+00
-2.998235117669139527e+00,-1.998823411779426573e+00,-2.498529264724282939e+00,-2.998235117669139527e+00,-1.998823411779426573e+00,-2.998235117669139527e+00
-2.997973987120186035e+00,-1.998649324746790690e+00,-2.498311655933488140e+00,-2.997973987120186035e+00,-1.998649324746790690e+00,-2.997973987120186035e+00
-2.997694847567855980e+00,-1.998463231711903987e+00,-2.498079039639879984e+00,-2.997694847567855980e+00,-1.998463231711903987e+00,-2.997694847567855980e+00
-2.997397699012149808e+00,-1.998265132674766686e+00,-2.497831415843458025e+00,-2.997397699012149808e+00,-1.998265132674766686e+00,-2.997397699012149808e+00
-2.997082541453067517e+00,-1.998055027635378567e+00,-2.497568784544223153e+00,-2.997082541453067517e+00,-1.998055027635378567e+00,-2.997082541453067517e+00
-2.996749374890609552e+00,-1.997832916593739627e+00,-2.497291145742174479e+00,-2.996749374890609552e+00,-1.997832916593739627e+00,-2.996749374890609552e+00
-2.996398199324775025e+00,-1.997598799549849868e+00,-2.496998499437312447e+00,-2.996398199324775025e+00,-1.997598799549849868e+00,-2.996398199324775025e+00
-2.996029014755564379e+00,-1.997352676503709512e+00,-2.496690845629637057e+00,-2.996029014755564379e+00,-1.997352676503709512e+00,-2.996029014755564379e+00
-2.995641821182977615e+00,-1.997094547455318336e+00,-2.496368184319147865e+00,-2.995641821182977615e+00,-1.997094547455318336e+00,-2.995641821182977615e+00
-2.995236618607014734e+00,-1.996824412404676563e+00,-2.496030515505845759e+00,-2.995236618607014734e+00,-1.996824412404676563e+00,-2.995236618607014734e+00
-2.994813407027675733e+00,-1.996542271351783970e+00,-2.495677839189729852e+00,-2.994813407027675733e+00,-1.996542271351783970e+00,-2.994813407027675733e+00
-2.994372186444960615e+00,-1.996248124296640558e+00,-2.495310155370800587e+00,-2.994372186444960615e+00,-1.996248124296640558e+00,-2.994372186444960615e+00
-2.993912956858869823e+00,-1.995941971239246326e+00,-2.494927464049057964e+00,-2.993912956858869823e+00,-1.995941971239246326e+00,-2.993912956858869823e+00
-2.993435718269402468e+00,-1.995623812179601497e+00,-2.494529765224501983e+00,-2.993435718269402468e+00,-1.995623812179601497e+00,-2.993435718269402468e+00
-2.992940470676558995e+00,-1.995293647117705849e+00,-2.494117058897132200e+00,-2.992940470676558995e+00,-1.995293647117705849e+00,-2.992940470676558995e+00
-2.992427214080339404e+00,-1.994951476053559603e+00,-2.493689345066949503e+00,-2.992427214080339404e+00,-1.994951476053559603e+00,-2.992427214080339404e+00
-2.991895948480743694e+00,-1.994597298987162315e+00,-2.493246623733953005e+00,-2.991895948480743694e+00,-1.994597298987162315e+00,-2.991895948480743694e+00
-2.991346673877771867e+00,-1.994231115918514430e+00,-2.492788894898143148e+00,-2.991346673877771867e+00,-1.994231115918514430e+00,-2.991346673877771867e+00
-2.990779390271423921e+00,-1.993852926847615947e+00,-2.492316158559519934e+00,-2.990779390271423921e+00,-1.993852926847615947e+00,-2.990779390271423921e+00
-2.990194097661699857e+00,-1.993462731774466423e+00,-2.491828414718082918e+00,-2.990194097661699857e+00,-1.993462731774466423e+00,-2.990194097661699857e+00
-2.989590796048599675e+00,-1.993060530699066302e+00,-2.491325663373832988e+00,-2.989590796048599675e+00,-1.993060530699066302e+00,-2.989590796048599675e+00
-2.988969485432123374e+00,-1.992646323621415583e+00,-2.490807904526769256e+00,-2.988969485432123374e+00,-1.992646323621415583e+00,-2.988969485432123374e+00
-2.988330165812270955e+00,-1.992220110541513822e+00,-2.490275138176892167e+00,-2.988330165812270955e+00,-1.992220110541513822e+00,-2.988330165812270955e+00
-2.987672837189042419e+00,-1.991781891459361464e+00,-2.489727364324201719e+00,-2.987672837189042419e+00,-1.991781891459361464e+00,-2.987672837189042419e+00
-2.986997499562437319e+00,-1.991331666374958287e+00,-2.489164582968697914e+00,-2.986997499562437319e+00,-1.991331666374958287e+00,-2.986997499562437319e+00
-2.986304152932456546e+00,-1.990869435288304512e+00,-2.488586794110380751e+00,-2.986304152932456546e+00,-1.990869435288304512e+00,-2.986304152932456546e+00
-2.985592797299099654e+00,-1.990395198199399918e+00,-2.487993997749249786e+00,-2.985592797299099654e+00,-1.990395198199399918e+00,-2.985592797299099654e+00
-2.984863432662366645e+00,-1.989908955108244504e+00,-2.487386193885305463e+00,-2.984863432662366645e+00,-1.989908955108244504e+00,-2.984863432662366645e+00
-2.984116059022257517e+00,-1.989410706014838270e+00,-2.486763382518547782e+00,-2.984116059022257517e+00,-1.989410706014838270e+00,-2.984116059022257517e+00
-2.983350676378772270e+00,-1.988900450919181440e+00,-2.486125563648976744e+00,-2.983350676378772270e+00,-1.988900450919181440e+00,-2.983350676378772270e+00
-2.982567284731910462e+00,-1.988378189821273789e+00,-2.485472737276592348e+00,-2.982567284731910462e+00,-1.988378189821273789e+00,-2.982567284731910462e+00
-2.981765884081672979e+00,-1.987843922721115320e+00,-2.484804903401394149e+00,-2.981765884081672979e+00,-1.987843922721115320e+00,-2.981765884081672979e+00
-2.980946474428059378e+00,-1.987297649618706252e+00,-2.484122062023383037e+00,-2.980946474428059378e+00,-1.987297649618706252e+00,-2.980946474428059378e+00
-2.980109055771069659e+00,-1.986739370514046366e+00,-2.483424213142558123e+00,-2.980109055771069659e+00,-1.986739370514046366e+00,-2.980109055771069659e+00
-2.979253628110703378e+00,-1.986169085407135659e+00,-2.482711356758919852e+00,-2.979253628110703378e+00,-1.986169085407135659e+00,-2.979253628110703378e+00
-2.978380191446961422e+00,-1.985586794297974356e+00,-2.481983492872467778e+00,-2.978380191446961422e+00,-1.985586794297974356e+00,-2.978380191446961422e+00
-2.977488745779843349e+00,-1.984992497186562233e+00,-2.481240621483202791e+00,-2.977488745779843349e+00,-1.984992497186562233e+00,-2.977488745779843349e+00
-2.976579291109349157e+00,-1.984386194072899290e+00,-2.480482742591124001e+00,-2.976579291109349157e+00,-1.984386194072899290e+00,-2.976579291109349157e+00
-2.975651827435478403e+00,-1.983767884956985750e+00,-2.479709856196232298e+00,-2.975651827435478403e+00,-1.983767884956985750e+00,-2.975651827435478403e+00
-2.974706354758231974e+00,-1.983137569838821390e+00,-2.478921962298526793e+00,-2.974706354758231974e+00,-1.983137569838821390e+00,-2.974706354758231974e+00
-2.973742873077609428e+00,-1.982495248718406211e+00,-2.478119060898007486e+00,-2.973742873077609428e+00,-1.982495248718406211e+00,-2.973742873077609428e+00
-2.972761382393610319e+00,-1.981840921595740213e+00,-2.477301151994675266e+00,-2.972761382393610319e+00,-1.981840921595740213e+00,-2.972761382393610319e+00
-2.971761882706235536e+00,-1.981174588470823617e+00,-2.476468235588529687e+00,-2.971761882706235536e+00,-1.981174588470823617e+00,-2.971761882706235536e+00
-2.970744374015484190e+00,-1.980496249343656201e+00,-2.475620311679570307e+00,-2.970744374015484190e+00,-1.980496249343656201e+00,-2.970744374015484190e+00
-2.969708856321357171e+00,-1.979805904214238188e+00,-2.474757380267797569e+00,-2.969708856321357171e+00,-1.979805904214238188e+00,-2.969708856321357171e+00
-2.968655329623854033e+00,-1.979103553082569134e+00,-2.473879441353211472e+00,-2.968655329623854033e+00,-1.979103553082569134e+00,-2.968655329623854033e+00
-2.967583793922974333e+00,-1.978389195948649482e+00,-2.472986494935812019e+00,-2.967583793922974333e+00,-1.978389195948649482e+00,-2.967583793922974333e+00
-2.966494249218718959e+00,-1.977662832812479232e+00,-2.472078541015599207e+00,-2.966494249218718959e+00,-1.977662832812479232e+00,-2.966494249218718959e+00
-2.965386695511087023e+00,-1.976924463674057941e+00,-2.471155579592572593e+00,-2.965386695511087023e+00,-1.976924463674057941e+00,-2.965386695511087023e+00
-2.964261132800079412e+00,-1.976174088533386275e+00,-2.470217610666732622e+00,-2.964261132800079412e+00,-1.976174088533386275e+00,-2.964261132800079412e+00
-2.963117561085695240e+00,-1.975411707390463567e+00,-2.469264634238079292e+00,-2.963117561085695240e+00,-1.975411707390463567e+00,-2.963117561085695240e+00
-2.961955980367935393e+00,-1.974637320245290040e+00,-2.468296650306612605e+00,-2.961955980367935393e+00,-1.974637320245290040e+00,-2.961955980367935393e+00
-2.960776390646798983e+00,-1.973850927097865915e+00,-2.467313658872332560e+00,-2.960776390646798983e+00,-1.973850927097865915e+00,-2.960776390646798983e+00
-2.959578791922286456e+00,-1.973052527948191193e+00,-2.466315659935238713e+00,-2.959578791922286456e+00,-1.973052527948191193e+00,-2.959578791922286456e+00
-2.958363184194398254e+00,-1.972242122796265429e+00,-2.465302653495331953e+00,-2.958363184194398254e+00,-1.972242122796265429e+00,-2.958363184194398254e+00
-2.957129567463133490e+00,-1.971419711642089068e+00,-2.464274639552611390e+00,-2.957129567463133490e+00,-1.971419711642089068e+00,-2.957129567463133490e+00
-2.955877941728493052e+00,-1.970585294485661887e+00,-2.463231618107077470e+00,-2.955877941728493052e+00,-1.970585294485661887e+00,-2.955877941728493052e+00
-2.954608306990476052e+00,-1.969738871326984109e+00,-2.462173589158730191e+00,-2.954608306990476052e+00,-1.969738871326984109e+00,-2.954608306990476052e+00
-2.953320663249082934e+00,-1.968880442166055289e+00,-2.461100552707569111e+00,-2.953320663249082934e+00,-1.968880442166055289e+00,-2.953320663249082934e+00
-2.952015010504314141e+00,-1.968010007002876094e+00,-2.460012508753595117e+00,-2.952015010504314141e+00,-1.968010007002876094e+00,-2.952015010504314141e+00
-2.950691348756168786e+00,-1.967127565837445857e+00,-2.458909457296807322e+00,-2.950691348756168786e+00,-1.967127565837445857e+00,-2.950691348756168786e+00
-2.949349678004647313e+00,-1.966233118669765023e+00,-2.457791398337206168e+00,-2.949349678004647313e+00,-1.966233118669765023e+00,-2.949349678004647313e+00
-2.947989998249750165e+00,-1.965326665499833370e+00,-2.456658331874791656e+00,-2.947989998249750165e+00,-1.965326665499833370e+00,-2.947989998249750165e+00
-2.946612309491476456e+00,-1.964408206327650896e+00,-2.455510257909563787e+00,-2.946612309491476456e+00,-1.964408206327650896e+00,-2.946612309491476456e+00
-2.945216611729826628e+00,-1.963477741153217826e+00,-2.454347176441522116e+00,-2.945216611729826628e+00,-1.963477741153217826e+00,-2.945216611729826628e+00
-2.943802904964800682e+00,-1.962535269976533936e+00,-2.453169087470667531e+00,-2.943802904964800682e+00,-1.962535269976533936e+00,-2.943802904964800682e+00
-2.942371189196399062e+00,-1.961580792797599226e+00,-2.451975990996999144e+00,-2.942371189196399062e+00,-1.961580792797599226e+00,-2.942371189196399062e+00
-2.940921464424620879e+00,-1.960614309616413919e+00,-2.450767887020517399e+00,-2.940921464424620879e+00,-1.960614309616413919e+00,-2.940921464424620879e+00
-2.939453730649466578e+00,-1.959635820432977793e+00,-2.449544775541222297e+00,-2.939453730649466578e+00,-1.959635820432977793e+00,-2.939453730649466578e+00
-2.937967987870936160e+00,-1.958645325247290847e+00,-2.448306656559113392e+00,-2.937967987870936160e+00,-1.958645325247290847e+00,-2.937967987870936160e+00
-2.936464236089029622e+00,-1.957642824059353082e+00,-2.447053530074191574e+00,-2.936464236089029622e+00,-1.957642824059353082e+00,-2.936464236089029622e+00
-2.934942475303746967e+00,-1.956628316869164719e+00,-2.445785396086455954e+00,-2.934942475303746967e+00,-1.956628316869164719e+00,-2.934942475303746967e+00
-2.933402705515088638e+00,-1.955601803676725536e+00,-2.444502254595906976e+00,-2.933402705515088638e+00,-1.955601803676725536e+00,-2.933402705515088638e+00
-2.931844926723053746e+00,-1.954563284482035757e+00,-2.443204105602544640e+00,-2.931844926723053746e+00,-1.954563284482035757e+00,-2.931844926723053746e+00
-2.930269138927642736e+00,-1.953512759285095157e+00,-2.441890949106368947e+00,-2.930269138927642736e+00,-1.953512759285095157e+00,-2.930269138927642736e+00
-2.928675342128855608e+00,-1.952450228085903738e+00,-2.440562785107379451e+00,-2.928675342128855608e+00,-1.952450228085903738e+00,-2.928675342128855608e+00
-2.927063536326692361e+00,-1.951375690884461500e+00,-2.439219613605577042e+00,-2.927063536326692361e+00,-1.951375690884461500e+00,-2.927063536326692361e+00
-2.925433721521152997e+00,-1.950289147680768664e+00,-2.437861434600960830e+00,-2.925433721521152997e+00,-1.950289147680768664e+00,-2.925433721521152997e+00
-2.923785897712237514e+00,-1.949190598474825009e+00,-2.436488248093531261e+00,-2.923785897712237514e+00,-1.949190598474825009e+00,-2.923785897712237514e+00
-2.922120064899945913e+00,-1.948080043266630534e+00,-2.435100054083288335e+00,-2.922120064899945913e+00,-1.948080043266630534e+00,-2.922120064899945913e+00
-2.920436223084278193e+00,-1.946957482056185462e+00,-2.433696852570232050e+00,-2.920436223084278193e+00,-1.946957482056185462e+00,-2.920436223084278193e+00
-2.918734372265234356e+00,-1.945822914843489571e+00,-2.432278643554361963e+00,-2.918734372265234356e+00,-1.945822914843489571e+00,-2.918734372265234356e+00
-2.917014512442814400e+00,-1.944676341628542859e+00,-2.430845427035678519e+00,-2.917014512442814400e+00,-1.944676341628542859e+00,-2.917014512442814400e+00
-2.915276643617018326e+00,-1.943517762411345551e+00,-2.429397203014181716e+00,-2.915276643617018326e+00,-1.943517762411345551e+00,-2.915276643617018326e+00
-2.913520765787846134e+00,-1.942347177191897423e+00,-2.427933971489871556e+00,-2.913520765787846134e+00,-1.942347177191897423e+00,-2.913520765787846134e+00
-2.911746878955297824e+00,-1.941164585970198475e+00,-2.426455732462748038e+00,-2.911746878955297824e+00,-1.941164585970198475e+00,-2.911746878955297824e+00
-2.909954983119373395e+00,-1.939969988746248930e+00,-2.424962485932811163e+00,-2.909954983119373395e+00,-1.939969988746248930e+00,-2.909954983119373395e+00
-2.908145078280072404e+00,-1.938763385520048343e+00,-2.423454231900060485e+00,-2.908145078280072404e+00,-1.938763385520048343e+00,-2.908145078280072404e+00
-2.906317164437395739e+00,-1.937544776291597382e+00,-2.421930970364496449e+00,-2.906317164437395739e+00,-1.937544776291597382e+00,-2.906317164437395739e+00
-2.904471241591342956e+00,-1.936314161060895378e+00,-2.420392701326119056e+00,-2.904471241591342956e+00,-1.936314161060895378e+00,-2.904471241591342956e+00
-2.902607309741914055e+00,-1.935071539827942777e+00,-2.418839424784928305e+00,-2.902607309741914055e+00,-1.935071539827942777e+00,-2.902607309741914055e+00
-2.900725368889109035e+00,-1.933816912592739357e+00,-2.417271140740924196e+00,-2.900725368889109035e+00,-1.933816912592739357e+00,-2.900725368889109035e+00
-2.898825419032927897e+00,-1.932550279355285117e+00,-2.415687849194106285e+00,-2.898825419032927897e+00,-1.932550279355285117e+00,-2.898825419032927897e+00
-2.896907460173370197e+00,-1.931271640115580279e+00,-2.414089550144475460e+00,-2.896907460173370197e+00,-1.931271640115580279e+00,-2.896907460173370197e+00
-2.894971492310436822e+00,-1.929980994873624622e+00,-2.412476243592030833e+00,-2.894971492310436822e+00,-1.929980994873624622e+00,-2.894971492310436822e+00
-2.893017515444127330e+00,-1.928678343629418146e+00,-2.410847929536772849e+00,-2.893017515444127330e+00,-1.928678343629418146e+00,-2.893017515444127330e+00
-2.891045529574441719e+00,-1.927363686382961072e+00,-2.409204607978701507e+00,-2.891045529574441719e+00,-1.927363686382961072e+00,-2.891045529574441719e+00
-2.889055534701379546e+00,-1.926037023134253179e+00,-2.407546278917816363e+00,-2.889055534701379546e+00,-1.926037023134253179e+00,-2.889055534701379546e+00
-2.887047530824941699e+00,-1.924698353883294466e+00,-2.405872942354118305e+00,-2.887047530824941699e+00,-1.924698353883294466e+00,-2.887047530824941699e+00
-2.885021517945127734e+00,-1.923347678630085156e+00,-2.404184598287606445e+00,-2.885021517945127734e+00,-1.923347678630085156e+00,-2.885021517945127734e+00
-2.882977496061937650e+00,-1.921984997374625026e+00,-2.402481246718281227e+00,-2.882977496061937650e+00,-1.921984997374625026e+00,-2.882977496061937650e+00
-2.880915465175371004e+00,-1.920610310116914077e+00,-2.400762887646142651e+00,-2.880915465175371004e+00,-1.920610310116914077e+00,-2.880915465175371004e+00
-2.878835425285428684e+00,-1.919223616856952308e+00,-2.399029521071190718e+00,-2.878835425285428684e+00,-1.919223616856952308e+00,-2.878835425285428684e+00
-2.876737376392109802e+00,-1.917824917594739942e+00,-2.397281146993424983e+00,-2.876737376392109802e+00,-1.917824917594739942e+00,-2.876737376392109802e+00
-2.874621318495415245e+00,-1.916414212330276978e+00,-2.395517765412845890e+00,-2.874621318495415245e+00,-1.916414212330276978e+00,-2.874621318495415245e+00
-2.872487251595344571e+00,-1.914991501063562973e+00,-2.393739376329453883e+00,-2.872487251595344571e+00,-1.914991501063562973e+00,-2.872487251595344571e+00
-2.870335175691897334e+00,-1.913556783794598370e+00,-2.391945979743248074e+00,-2.870335175691897334e+00,-1.913556783794598370e+00,-2.870335175691897334e+00
-2.868165090785074423e+00,-1.912110060523382948e+00,-2.390137575654228463e+00,-2.868165090785074423e+00,-1.912110060523382948e+00,-2.868165090785074423e+00
-2.865976996874874949e+00,-1.910651331249916707e+00,-2.388314164062395939e+00,-2.865976996874874949e+00,-1.910651331249916707e+00,-2.865976996874874949e+00
-2.863770893961299802e+00,-1.909180595974199868e+00,-2.386475744967749613e+00,-2.863770893961299802e+00,-1.909180595974199868e+00,-2.863770893961299802e+00
-2.861546782044348092e+00,-1.907697854696232209e+00,-2.384622318370290373e+00,-2.861546782044348092e+00,-1.907697854696232209e+00,-2.861546782044348092e+00
-2.859304661124020708e+00,-1.906203107416013731e+00,-2.382753884270017330e+00,-2.859304661124020708e+00,-1.906203107416013731e+00,-2.859304661124020708e+00
-2.857044531200316761e+00,-1.904696354133544656e+00,-2.380870442666930931e+00,-2.857044531200316761e+00,-1.904696354133544656e+00,-2.857044531200316761e+00
-2.854766392273237141e+00,-1.903177594848824761e+00,-2.378971993561030729e+00,-2.854766392273237141e+00,-1.903177594848824761e+00,-2.854766392273237141e+00
-2.852470244342780958e+00,-1.901646829561854046e+00,-2.377058536952317613e+00,-2.852470244342780958e+00,-1.901646829561854046e+00,-2.852470244342780958e+00
-2.850156087408949102e+00,-1.900104058272632734e+00,-2.375130072840790696e+00,-2.850156087408949102e+00,-1.900104058272632734e+00,-2.850156087408949102e+00
-2.847823921471740682e+00,-1.898549280981160603e+00,-2.373186601226450865e+00,-2.847823921471740682e+00,-1.898549280981160603e+00,-2.847823921471740682e+00
-2.845473746531156589e+00,-1.896982497687437652e+00,-2.371228122109297232e+00,-2.845473746531156589e+00,-1.896982497687437652e+00,-2.845473746531156589e+00
-2.843105562587195934e+00,-1.895403708391463882e+00,-2.369254635489329797e+00,-2.843105562587195934e+00,-1.895403708391463882e+00,-2.843105562587195934e+00
-2.840719369639859160e+00,-1.893812913093239514e+00,-2.367266141366549448e+00,-2.840719369639859160e+00,-1.893812913093239514e+00,-2.840719369639859160e+00
-2.838315167689146712e+00,-1.892210111792764327e+00,-2.365262639740955741e+00,-2.838315167689146712e+00,-1.892210111792764327e+00,-2.838315167689146712e+00
-2.835892956735057702e+00,-1.890595304490038542e+00,-2.363244130612548233e+00,-2.835892956735057702e+00,-1.890595304490038542e+00,-2.835892956735057702e+00
-2.833452736777592573e+00,-1.888968491185061938e+00,-2.361210613981327366e+00,-2.833452736777592573e+00,-1.888968491185061938e+00,-2.833452736777592573e+00
-2.830994507816751771e+00,-1.887329671877834514e+00,-2.359162089847293142e+00,-2.830994507816751771e+00,-1.887329671877834514e+00,-2.830994507816751771e+00
-2.828518269852534406e+00,-1.885678846568356271e+00,-2.357098558210445560e+00,-2.828518269852534406e+00,-1.885678846568356271e+00,-2.828518269852534406e+00
-2.826024022884940923e+00,-1.884016015256627430e+00,-2.355020019070784176e+00,-2.826024022884940923e+00,-1.884016015256627430e+00,-2.826024022884940923e+00
-2.823511766913971321e+00,-1.882341177942647770e+00,-2.352926472428309879e+00,-2.823511766913971321e+00,-1.882341177942647770e+00,-2.823511766913971321e+00
-2.820981501939626046e+00,-1.880654334626417290e+00,-2.350817918283021779e+00,-2.820981501939626046e+00,-1.880654334626417290e+00,-2.820981501939626046e+00
-2.818433227961904208e+00,-1.878955485307936213e+00,-2.348694356634920322e+00,-2.818433227961904208e+00,-1.878955485307936213e+00,-2.818433227961904208e+00
-2.815866944980806252e+00,-1.877244629987204316e+00,-2.346555787484005506e+00,-2.815866944980806252e+00,-1.877244629987204316e+00,-2.815866944980806252e+00
-2.813282652996332178e+00,-1.875521768664221600e+00,-2.344402210830276889e+00,-2.813282652996332178e+00,-1.875521768664221600e+00,-2.813282652996332178e+00
-2.810680352008482430e+00,-1.873786901338988287e+00,-2.342233626673735358e+00,-2.810680352008482430e+00,-1.873786901338988287e+00,-2.810680352008482430e+00
-2.808060042017256119e+00,-1.872040028011503932e+00,-2.340050035014380025e+00,-2.808060042017256119e+00,-1.872040028011503932e+00,-2.808060042017256119e+00
-2.805421723022653691e+00,-1.870281148681769201e+00,-2.337851435852211335e+00,-2.805421723022653691e+00,-1.870281148681769201e+00,-2.805421723022653691e+00
-2.802765395024675144e+00,-1.868510263349783429e+00,-2.335637829187229286e+00,-2.802765395024675144e+00,-1.868510263349783429e+00,-2.802765395024675144e+00
-2.800091058023320478e+00,-1.866727372015547060e+00,-2.333409215019433880e+00,-2.800091058023320478e+00,-1.866727372015547060e+00,-2.800091058023320478e+00
-2.797398712018589695e+00,-1.864932474679059871e+00,-2.331165593348824672e+00,-2.797398712018589695e+00,-1.864932474679059871e+00,-2.797398712018589695e+00
-2.794688357010482793e+00,-1.863125571340322084e+00,-2.328906964175402550e+00,-2.794688357010482793e+00,-1.863125571340322084e+00,-2.794688357010482793e+00
-2.791959992998999773e+00,-1.861306661999333256e+00,-2.326633327499166626e+00,-2.791959992998999773e+00,-1.861306661999333256e+00,-2.791959992998999773e+00
-2.789213619984140635e+00,-1.859475746656093831e+00,-2.324344683320117344e+00,-2.789213619984140635e+00,-1.859475746656093831e+00,-2.789213619984140635e+00
-2.786449237965905823e+00,-1.857632825310603808e+00,-2.322041031638254704e+00,-2.786449237965905823e+00,-1.857632825310603808e+00,-2.786449237965905823e+00
-2.783666846944294448e+00,-1.855777897962862744e+00,-2.319722372453578707e+00,-2.783666846944294448e+00,-1.855777897962862744e+00,-2.783666846944294448e+00
-2.780866446919306512e+00,-1.853910964612871082e+00,-2.317388705766088908e+00,-2.780866446919306512e+00,-1.853910964612871082e+00,-2.780866446919306512e+00
-2.778048037890942901e+00,-1.852032025260628822e+00,-2.315040031575785751e+00,-2.778048037890942901e+00,-1.852032025260628822e+00,-2.778048037890942901e+00
-2.775211619859203172e+00,-1.850141079906135522e+00,-2.312676349882669680e+00,-2.775211619859203172e+00,-1.850141079906135522e+00,-2.775211619859203172e+00
-2.772357192824087324e+00,-1.848238128549391623e+00,-2.310297660686739807e+00,-2.772357192824087324e+00,-1.848238128549391623e+00,-2.772357192824087324e+00
-2.769484756785595359e+00,-1.846323171190397128e+00,-2.307903963987996132e+00,-2.769484756785595359e+00,-1.846323171190397128e+00,-2.769484756785595359e+00
-2.766594311743727275e+00,-1.844396207829151590e+00,-2.305495259786439544e+00,-2.766594311743727275e+00,-1.844396207829151590e+00,-2.766594311743727275e+00
-2.763685857698483073e+00,-1.842457238465655456e+00,-2.303071548082069153e+00,-2.763685857698483073e+00,-1.842457238465655456e+00,-2.763685857698483073e+00
-2.760759394649862752e+00,-1.840506263099908502e+00,-2.300632828874885405e+00,-2.760759394649862752e+00,-1.840506263099908502e+00,-2.760759394649862752e+00
-2.757814922597866314e+00,-1.838543281731910728e+00,-2.298179102164888743e+00,-2.757814922597866314e+00,-1.838543281731910728e+00,-2.757814922597866314e+00
-2.754852441542493757e+00,-1.836568294361662357e+00,-2.295710367952077835e+00,-2.754852441542493757e+00,-1.836568294361662357e+00,-2.754852441542493757e+00
-2.751871951483745082e+00,-1.834581300989163388e+00,-2.293226626236454013e+00,-2.751871951483745082e+00,-1.834581300989163388e+00,-2.751871951483745082e+00
-2.748873452421619845e+00,-1.832582301614413378e+00,-2.290727877018016834e+00,-2.748873452421619845e+00,-1.832582301614413378e+00,-2.748873452421619845e+00
-2.745856944356118934e+00,-1.830571296237412771e+00,-2.288214120296765852e+00,-2.745856944356118934e+00,-1.830571296237412771e+00,-2.745856944356118934e+00
-2.742822427287241904e+00,-1.828548284858161344e+00,-2.285685356072701513e+00,-2.742822427287241904e+00,-1.828548284858161344e+00,-2.742822427287241904e+00
-2.739769901214988757e+00,-1.826513267476659097e+00,-2.283141584345823816e+00,-2.739769901214988757e+00,-1.826513267476659097e+00,-2.739769901214988757e+00
-2.736699366139359491e+00,-1.824466244092906253e+00,-2.280582805116132761e+00,-2.736699366139359491e+00,-1.824466244092906253e+00,-2.736699366139359491e+00
-2.733610822060353662e+00,-1.822407214706902590e+00,-2.278009018383628348e+00,-2.733610822060353662e+00,-1.822407214706902590e+00,-2.733610822060353662e+00
-2.730504268977972160e+00,-1.820336179318648107e+00,-2.275420224148310133e+00,-2.730504268977972160e+00,-1.820336179318648107e+00,-2.730504268977972160e+00
-2.727379706892214539e+00,-1.818253137928143026e+00,-2.272816422410178561e+00,-2.727379706892214539e+00,-1.818253137928143026e+00,-2.727379706892214539e+00
-2.724237135803080356e+00,-1.816158090535387126e+00,-2.270197613169233630e+00,-2.724237135803080356e+00,-1.816158090535387126e+00,-2.724237135803080356e+00
-2.721076555710570499e+00,-1.814051037140380407e+00,-2.267563796425475342e+00,-2.721076555710570499e+00,-1.814051037140380407e+00,-2.721076555710570499e+00
-2.717897966614684524e+00,-1.811931977743122868e+00,-2.264914972178903696e+00,-2.717897966614684524e+00,-1.811931977743122868e+00,-2.717897966614684524e+00
-2.714701368515422431e+00,-1.809800912343614732e+00,-2.262251140429518692e+00,-2.714701368515422431e+00,-1.809800912343614732e+00,-2.714701368515422431e+00
-2.711486761412783775e+00,-1.807657840941855776e+00,-2.259572301177319886e+00,-2.711486761412783775e+00,-1.807657840941855776e+00,-2.711486761412783775e+00
-2.708254145306769445e+00,-1.805502763537846223e+00,-2.256878454422307723e+00,-2.708254145306769445e+00,-1.805502763537846223e+00,-2.708254145306769445e+00
-2.705003520197378553e+00,-1.803335680131585850e+00,-2.254169600164482201e+00,-2.705003520197378553e+00,-1.803335680131585850e+00,-2.705003520197378553e+00
-2.701734886084611986e+00,-1.801156590723074657e+00,-2.251445738403843322e+00,-2.701734886084611986e+00,-1.801156590723074657e+00,-2.701734886084611986e+00
-2.698448242968469302e+00,-1.798965495312312646e+00,-2.248706869140391085e+00,-2.698448242968469302e+00,-1.798965495312312646e+00,-2.698448242968469302e+00
-2.695143590848950055e+00,-1.796762393899300037e+00,-2.245952992374125046e+00,-2.695143590848950055e+00,-1.796762393899300037e+00,-2.695143590848950055e+00
-2.691820929726055134e+00,-1.794547286484036608e+00,-2.243184108105045649e+00,-2.691820929726055134e+00,-1.794547286484036608e+00,-2.691820929726055134e+00
-2.688480259599783651e+00,-1.792320173066522582e+00,-2.240400216333152894e+00,-2.688480259599783651e+00,-1.792320173066522582e+00,-2.688480259599783651e+00
-2.685121580470136493e+00,-1.790081053646757514e+00,-2.237601317058446782e+00,-2.685121580470136493e+00,-1.790081053646757514e+00,-2.685121580470136493e+00
-2.681744892337112773e+00,-1.787829928224741849e+00,-2.234787410280927311e+00,-2.681744892337112773e+00,-1.787829928224741849e+00,-2.681744892337112773e+00
-2.678350195200713380e+00,-1.785566796800475364e+00,-2.231958496000594483e+00,-2.678350195200713380e+00,-1.785566796800475364e+00,-2.678350195200713380e+00
-2.674937489060937423e+00,-1.783291659373958282e+00,-2.229114574217447853e+00,-2.674937489060937423e+00,-1.783291659373958282e+00,-2.674937489060937423e+00
-2.671506773917785793e+00,-1.781004515945190381e+00,-2.226255644931487865e+00,-2.671506773917785793e+00,-1.781004515945190381e+00,-2.671506773917785793e+00
-2.668058049771257600e+00,-1.778705366514171660e+00,-2.223381708142714519e+00,-2.668058049771257600e+00,-1.778705366514171660e+00,-2.668058049771257600e+00
-2.664591316621353290e+00,-1.776394211080902341e+00,-2.220492763851127815e+00,-2.664591316621353290e+00,-1.776394211080902341e+00,-2.664591316621353290e+00
-2.661106574468073305e+00,-1.774071049645382203e+00,-2.217588812056727754e+00,-2.661106574468073305e+00,-1.774071049645382203e+00,-2.661106574468073305e+00
-2.657603823311416757e+00,-1.771735882207611246e+00,-2.214669852759513891e+00,-2.657603823311416757e+00,-1.771735882207611246e+00,-2.657603823311416757e+00
-2.654083063151384092e+00,-1.769388708767589469e+00,-2.211735885959487113e+00,-2.654083063151384092e+00,-1.769388708767589469e+00,-2.654083063151384092e+00
-2.650544293987975752e+00,-1.767029529325317094e+00,-2.208786911656646534e+00,-2.650544293987975752e+00,-1.767029529325317094e+00,-2.650544293987975752e+00
-2.646987515821190851e+00,-1.764658343880793900e+00,-2.205822929850992598e+00,-2.646987515821190851e+00,-1.764658343880793900e+00,-2.646987515821190851e+00
-2.643412728651029830e+00,-1.762275152434019887e+00,-2.202843940542524859e+00,-2.643412728651029830e+00,-1.762275152434019887e+00,-2.643412728651029830e+00
-2.639819932477492692e+00,-1.759879954984995276e+00,-2.199849943731244206e+00,-2.639819932477492692e+00,-1.759879954984995276e+00,-2.639819932477492692e+00
-2.636209127300579880e+00,-1.757472751533719846e+00,-2.196840939417149752e+00,-2.636209127300579880e+00,-1.757472751533719846e+00,-2.636209127300579880e+00
-2.632580313120290505e+00,-1.755053542080193596e+00,-2.193816927600241939e+00,-2.632580313120290505e+00,-1.755053542080193596e+00,-2.632580313120290505e+00
-2.628933489936625012e+00,-1.752622326624416749e+00,-2.190777908280520769e+00,-2.628933489936625012e+00,-1.752622326624416749e+00,-2.628933489936625012e+00
-2.625268657749583845e+00,-1.750179105166389082e+00,-2.187723881457986241e+00,-2.625268657749583845e+00,-1.750179105166389082e+00,-2.625268657749583845e+00
-2.621585816559166116e+00,-1.747723877706110818e+00,-2.184654847132638356e+00,-2.621585816559166116e+00,-1.747723877706110818e+00,-2.621585816559166116e+00
-2.617884966365372268e+00,-1.745256644243581512e+00,-2.181570805304477112e+00,-2.617884966365372268e+00,-1.745256644243581512e+00,-2.617884966365372268e+00
-2.614166107168202302e+00,-1.742777404778801609e+00,-2.178471755973502066e+00,-2.614166107168202302e+00,-1.742777404778801609e+00,-2.614166107168202302e+00
-2.610429238967656218e+00,-1.740286159311770886e+00,-2.175357699139713663e+00,-2.610429238967656218e+00,-1.740286159311770886e+00,-2.610429238967656218e+00
-2.606674361763734460e+00,-1.737782907842489566e+00,-2.172228634803111902e+00,-2.606674361763734460e+00,-1.737782907842489566e+00,-2.606674361763734460e+00
-2.602901475556436139e+00,-1.735267650370957426e+00,-2.169084562963696783e+00,-2.602901475556436139e+00,-1.735267650370957426e+00,-2.602901475556436139e+00
-2.599110580345761701e+00,-1.732740386897174467e+00,-2.165925483621467862e+00,-2.599110580345761701e+00,-1.732740386897174467e+00,-2.599110580345761701e+00
-2.595301676131711144e+00,-1.730201117421140689e+00,-2.162751396776426027e+00,-2.595301676131711144e+00,-1.730201117421140689e+00,-2.595301676131711144e+00
-2.591474762914284469e+00,-1.727649841942856312e+00,-2.159562302428570391e+00,-2.591474762914284469e+00,-1.727649841942856312e+00,-2.591474762914284469e+00
-2.587629840693481675e+00,-1.725086560462321117e+00,-2.156358200577901396e+00,-2.587629840693481675e+00,-1.725086560462321117e+00,-2.587629840693481675e+00
-2.583766909469302764e+00,-1.722511272979535324e+00,-2.153139091224419044e+00,-2.583766909469302764e+00,-1.722511272979535324e+00,-2.583766909469302764e+00
-2.579885969241747734e+00,-1.719923979494498489e+00,-2.149904974368123334e+00,-2.579885969241747734e+00,-1.719923979494498489e+00,-2.579885969241747734e+00
-2.575987020010816586e+00,-1.717324680007211057e+00,-2.146655850009013822e+00,-2.575987020010816586e+00,-1.717324680007211057e+00,-2.575987020010816586e+00
-2.572070061776509320e+00,-1.714713374517673028e+00,-2.143391718147090952e+00,-2.572070061776509320e+00,-1.714713374517673028e+00,-2.572070061776509320e+00
-2.568135094538825935e+00,-1.712090063025883957e+00,-2.140112578782355168e+00,-2.568135094538825935e+00,-1.712090063025883957e+00,-2.568135094538825935e+00
-2.564182118297766433e+00,-1.709454745531844289e+00,-2.136818431914805583e+00,-2.564182118297766433e+00,-1.709454745531844289e+00,-2.564182118297766433e+00
-2.560211133053330812e+00,-1.706807422035554023e+00,-2.133509277544442639e+00,-2.560211133053330812e+00,-1.706807422035554023e+00,-2.560211133053330812e+00
-2.556222138805519073e+00,-1.704148092537012715e+00,-2.130185115671265894e+00,-2.556222138805519073e+00,-1.704148092537012715e+00,-2.556222138805519073e+00
-2.552215135554331216e+00,-1.701476757036220810e+00,-2.126845946295276235e+00,-2.552215135554331216e+00,-1.701476757036220810e+00,-2.552215135554331216e+00
-2.548190123299767240e+00,-1.698793415533178086e+00,-2.123491769416472774e+00,-2.548190123299767240e+00,-1.698793415533178086e+00,-2.548190123299767240e+00
-2.544147102041827146e+00,-1.696098068027884764e+00,-2.120122585034855955e+00,-2.544147102041827146e+00,-1.696098068027884764e+00,-2.544147102041827146e+00
-2.540086071780510935e+00,-1.693390714520340623e+00,-2.116738393150425779e+00,-2.540086071780510935e+00,-1.693390714520340623e+00,-2.540086071780510935e+00
-2.536007032515818604e+00,-1.690671355010545662e+00,-2.113339193763182244e+00,-2.536007032515818604e+00,-1.690671355010545662e+00,-2.536007032515818604e+00
-2.531909984247749712e+00,-1.687939989498499882e+00,-2.109924986873124908e+00,-2.531909984247749712e+00,-1.687939989498499882e+00,-2.531909984247749712e+00
-2.527794926976305145e+00,-1.685196617984203504e+00,-2.106495772480254658e+00,-2.527794926976305145e+00,-1.685196617984203504e+00,-2.527794926976305145e+00
-2.523661860701484461e+00,-1.682441240467656307e+00,-2.103051550584570606e+00,-2.523661860701484461e+00,-1.682441240467656307e+00,-2.523661860701484461e+00
-2.519510785423287658e+00,-1.679673856948858290e+00,-2.099592321186073196e+00,-2.519510785423287658e+00,-1.679673856948858290e+00,-2.519510785423287658e+00
-2.515341701141714736e+00,-1.676894467427809676e+00,-2.096118084284761984e+00,-2.515341701141714736e+00,-1.676894467427809676e+00,-2.515341701141714736e+00
-2.511154607856765253e+00,-1.674103071904510465e+00,-2.092628839880637859e+00,-2.511154607856765253e+00,-1.674103071904510465e+00,-2.511154607856765253e+00
-2.506949505568440095e+00,-1.671299670378960212e+00,-2.089124587973699931e+00,-2.506949505568440095e+00,-1.671299670378960212e+00,-2.506949505568440095e+00
-2.502726394276738819e+00,-1.668484262851159361e+00,-2.085605328563949090e+00,-2.502726394276738819e+00,-1.668484262851159361e+00,-2.502726394276738819e+00
-2.498485273981660981e+00,-1.665656849321107469e+00,-2.082071061651384447e+00,-2.498485273981660981e+00,-1.665656849321107469e+00,-2.498485273981660981e+00
-2.494226144683207469e+00,-1.662817429788804979e+00,-2.078521787236006446e+00,-2.494226144683207469e+00,-1.662817429788804979e+00,-2.494226144683207469e+00
-2.489949006381377838e+00,-1.659966004254251892e+00,-2.074957505317814643e+00,-2.489949006381377838e+00,-1.659966004254251892e+00,-2.489949006381377838e+00
-2.485653859076172090e+00,-1.657102572717447986e+00,-2.071378215896809927e+00,-2.485653859076172090e+00,-1.657102572717447986e+00,-2.485653859076172090e+00
-2.481340702767589779e+00,-1.654227135178393260e+00,-2.067783918972991408e+00,-2.481340702767589779e+00,-1.654227135178393260e+00,-2.481340702767589779e+00
-2.477009537455631794e+00,-1.651339691637087936e+00,-2.064174614546359976e+00,-2.477009537455631794e+00,-1.651339691637087936e+00,-2.477009537455631794e+00
-2.472660363140297246e+00,-1.648440242093531793e+00,-2.060550302616914742e+00,-2.472660363140297246e+00,-1.648440242093531793e+00,-2.472660363140297246e+00
-2.468293179821587024e+00,-1.645528786547724831e+00,-2.056910983184656150e+00,-2.468293179821587024e+00,-1.645528786547724831e+00,-2.468293179821587024e+00
-2.463907987499500685e+00,-1.642605324999667049e+00,-2.053256656249583756e+00,-2.463907987499500685e+00,-1.642605324999667049e+00,-2.463907987499500685e+00
-2.459504786174037783e+00,-1.639669857449358670e+00,-2.049587321811698448e+00,-2.459504786174037783e+00,-1.639669857449358670e+00,-2.459504786174037783e+00
-2.455083575845199206e+00,-1.636722383896799471e+00,-2.045902979870999339e+00,-2.455083575845199206e+00,-1.636722383896799471e+00,-2.455083575845199206e+00
-2.450644356512984068e+00,-1.633762904341989675e+00,-2.042203630427486871e+00,-2.450644356512984068e+00,-1.633762904341989675e+00,-2.450644356512984068e+00
-2.446187128177393255e+00,-1.630791418784928837e+00,-2.038489273481161046e+00,-2.446187128177393255e+00,-1.630791418784928837e+00,-2.446187128177393255e+00
-2.441711890838425880e+00,-1.627807927225617401e+00,-2.034759909032021863e+00,-2.441711890838425880e+00,-1.627807927225617401e+00,-2.441711890838425880e+00
-2.437218644496082831e+00,-1.624812429664055147e+00,-2.031015537080068878e+00,-2.437218644496082831e+00,-1.624812429664055147e+00,-2.437218644496082831e+00
-2.432707389150363220e+00,-1.621804926100242294e+00,-2.027256157625302979e+00,-2.432707389150363220e+00,-1.621804926100242294e+00,-2.432707389150363220e+00
-2.428178124801267934e+00,-1.618785416534178623e+00,-2.023481770667723278e+00,-2.428178124801267934e+00,-1.618785416534178623e+00,-2.428178124801267934e+00
-2.423630851448796086e+00,-1.615753900965864132e+00,-2.019692376207330220e+00,-2.423630851448796086e+00,-1.615753900965864132e+00,-2.423630851448796086e+00
-2.419065569092948564e+00,-1.612710379395299043e+00,-2.015887974244123804e+00,-2.419065569092948564e+00,-1.612710379395299043e+00,-2.419065569092948564e+00
-2.414482277733724480e+00,-1.609654851822483135e+00,-2.012068564778104030e+00,-2.414482277733724480e+00,-1.609654851822483135e+00,-2.414482277733724480e+00
-2.409880977371124722e+00,-1.606587318247416407e+00,-2.008234147809270453e+00,-2.409880977371124722e+00,-1.606587318247416407e+00,-2.409880977371124722e+00
-2.405261668005148401e+00,-1.603507778670098860e+00,-2.004384723337623520e+00,-2.405261668005148401e+00,-1.603507778670098860e+00,-2.405261668005148401e+00
-2.400624349635795962e+00,-1.600416233090530715e+00,-2.000520291363163228e+00,-2.400624349635795962e+00,-1.600416233090530715e+00,-2.400624349635795962e+00
-2.395969022263067405e+00,-1.597312681508711751e+00,-1.996640851885889578e+00,-2.395969022263067405e+00,-1.597312681508711751e+00,-2.395969022263067405e+00
-2.391295685886963174e+00,-1.594197123924642190e+00,-1.992746404905802571e+00,-2.391295685886963174e+00,-1.594197123924642190e+00,-2.391295685886963174e+00
-2.386604340507482380e+00,-1.591069560338321587e+00,-1.988836950422902206e+00,-2.386604340507482380e+00,-1.591069560338321587e+00,-2.386604340507482380e+00
-2.381894986124625468e+00,-1.587929990749750608e+00,-1.984912488437188038e+00,-2.381894986124625468e+00,-1.587929990749750608e+00,-2.381894986124625468e+00
-2.377167622738392438e+00,-1.584778415158928588e+00,-1.980973018948660513e+00,-2.377167622738392438e+00,-1.584778415158928588e+00,-2.377167622738392438e+00
-2.372422250348783734e+00,-1.581614833565855971e+00,-1.977018541957319853e+00,-2.372422250348783734e+00,-1.581614833565855971e+00,-2.372422250348783734e+00
-2.367658868955798468e+00,-1.578439245970532312e+00,-1.973049057463165390e+00,-2.367658868955798468e+00,-1.578439245970532312e+00,-2.367658868955798468e+00
-2.362877478559437527e+00,-1.575251652372958278e+00,-1.969064565466197791e+00,-2.362877478559437527e+00,-1.575251652372958278e+00,-2.362877478559437527e+00
-2.358078079159700025e+00,-1.572052052773133202e+00,-1.965065065966416391e+00,-2.358078079159700025e+00,-1.572052052773133202e+00,-2.358078079159700025e+00
-2.353260670756586403e+00,-1.568840447171057750e+00,-1.961050558963822077e+00,-2.353260670756586403e+00,-1.568840447171057750e+00,-2.353260670756586403e+00
-2.348425253350096664e+00,-1.565616835566731035e+00,-1.957021044458413961e+00,-2.348425253350096664e+00,-1.565616835566731035e+00,-2.348425253350096664e+00
-2.343571826940230807e+00,-1.562381217960153945e+00,-1.952976522450192487e+00,-2.343571826940230807e+00,-1.562381217960153945e+00,-2.343571826940230807e+00
-2.338700391526988831e+00,-1.559133594351326035e+00,-1.948916992939157655e+00,-2.338700391526988831e+00,-1.559133594351326035e+00,-2.338700391526988831e+00
-2.333810947110371181e+00,-1.555873964740247306e+00,-1.944842455925309244e+00,-2.333810947110371181e+00,-1.555873964740247306e+00,-2.333810947110371181e+00
-2.328903493690376525e+00,-1.552602329126917979e+00,-1.940752911408647474e+00,-2.328903493690376525e+00,-1.552602329126917979e+00,-2.328903493690376525e+00
-2.323978031267006639e+00,-1.549318687511337833e+00,-1.936648359389172125e+00,-2.323978031267006639e+00,-1.549318687511337833e+00,-2.323978031267006639e+00
-2.319034559840260190e+00,-1.546023039893506645e+00,-1.932528799866883418e+00,-2.319034559840260190e+00,-1.546023039893506645e+00,-2.319034559840260190e+00
-2.314073079410137623e+00,-1.542715386273425082e+00,-1.928394232841781353e+00,-2.314073079410137623e+00,-1.542715386273425082e+00,-2.314073079410137623e+00
-2.309093589976638938e+00,-1.539395726651092700e+00,-1.924244658313865930e+00,-2.309093589976638938e+00,-1.539395726651092700e+00,-2.309093589976638938e+00
-2.304096091539764135e+00,-1.536064061026509497e+00,-1.920080076283136927e+00,-2.304096091539764135e+00,-1.536064061026509497e+00,-2.304096091539764135e+00
-2.299080584099513214e+00,-1.532720389399675476e+00,-1.915900486749594345e+00,-2.299080584099513214e+00,-1.532720389399675476e+00,-2.299080584099513214e+00
-2.294047067655886174e+00,-1.529364711770590857e+00,-1.911705889713238626e+00,-2.294047067655886174e+00,-1.529364711770590857e+00,-2.294047067655886174e+00
-2.288995542208883016e+00,-1.525997028139255418e+00,-1.907496285174069328e+00,-2.288995542208883016e+00,-1.525997028139255418e+00,-2.288995542208883016e+00
-2.283926007758503740e+00,-1.522617338505669160e+00,-1.903271673132086672e+00,-2.283926007758503740e+00,-1.522617338505669160e+00,-2.283926007758503740e+00
-2.278838464304748346e+00,-1.519225642869832305e+00,-1.899032053587290214e+00,-2.278838464304748346e+00,-1.519225642869832305e+00,-2.278838464304748346e+00
-2.273732911847616833e+00,-1.515821941231744630e+00,-1.894777426539680842e+00,-2.273732911847616833e+00,-1.515821941231744630e+00,-2.273732911847616833e+00
-2.268609350387109203e+00,-1.512406233591406135e+00,-1.890507791989257669e+00,-2.268609350387109203e+00,-1.512406233591406135e+00,-2.268609350387109203e+00
-2.263467779923225454e+00,-1.508978519948817043e+00,-1.886223149936021137e+00,-2.263467779923225454e+00,-1.508978519948817043e+00,-2.263467779923225454e+00
-2.258308200455965142e+00,-1.505538800303976910e+00,-1.881923500379971248e+00,-2.258308200455965142e+00,-1.505538800303976910e+00,-2.258308200455965142e+00
-2.253130611985329601e+00,-1.502087074656886401e+00,-1.877608843321108001e+00,-2.253130611985329601e+00,-1.502087074656886401e+00,-2.253130611985329601e+00
-2.247935014511317053e+00,-1.498623343007544850e+00,-1.873279178759430952e+00,-2.247935014511317053e+00,-1.498623343007544850e+00,-2.247935014511317053e+00
-2.242721408033928832e+00,-1.495147605355952702e+00,-1.868934506694940989e+00,-2.242721408033928832e+00,-1.495147605355952702e+00,-2.242721408033928832e+00
-2.237489792553164492e+00,-1.491659861702109513e+00,-1.864574827127637224e+00,-2.237489792553164492e+00,-1.491659861702109513e+00,-2.237489792553164492e+00
-2.232240168069024033e+00,-1.488160112046016170e+00,-1.860200140057520102e+00,-2.232240168069024033e+00,-1.488160112046016170e+00,-2.232240168069024033e+00
-2.226972534581507013e+00,-1.484648356387671564e+00,-1.855810445484589621e+00,-2.226972534581507013e+00,-1.484648356387671564e+00,-2.226972534581507013e+00
-2.221686892090614762e+00,-1.481124594727076360e+00,-1.851405743408845783e+00,-2.221686892090614762e+00,-1.481124594727076360e+00,-2.221686892090614762e+00
-2.216383240596345505e+00,-1.477588827064230337e+00,-1.846986033830288143e+00,-2.216383240596345505e+00,-1.477588827064230337e+00,-2.216383240596345505e+00
-2.211061580098700574e+00,-1.474041053399133716e+00,-1.842551316748917145e+00,-2.211061580098700574e+00,-1.474041053399133716e+00,-2.211061580098700574e+00
-2.205721910597679525e+00,-1.470481273731786276e+00,-1.838101592164732789e+00,-2.205721910597679525e+00,-1.470481273731786276e+00,-2.205721910597679525e+00
-2.200364232093281913e+00,-1.466909488062188238e+00,-1.833636860077735298e+00,-2.200364232093281913e+00,-1.466909488062188238e+00,-2.200364232093281913e+00
-2.194988544585508627e+00,-1.463325696390339159e+00,-1.829157120487924004e+00,-2.194988544585508627e+00,-1.463325696390339159e+00,-2.194988544585508627e+00
-2.189594848074359223e+00,-1.459729898716239482e+00,-1.824662373395299575e+00,-2.189594848074359223e+00,-1.459729898716239482e+00,-2.189594848074359223e+00
-2.184183142559833257e+00,-1.456122095039888986e+00,-1.820152618799861344e+00,-2.184183142559833257e+00,-1.456122095039888986e+00,-2.184183142559833257e+00
-2.178753428041931617e+00,-1.452502285361287893e+00,-1.815627856701609977e+00,-2.178753428041931617e+00,-1.452502285361287893e+00,-2.178753428041931617e+00
-2.173305704520653414e+00,-1.448870469680435979e+00,-1.811088087100544808e+00,-2.173305704520653414e+00,-1.448870469680435979e+00,-2.173305704520653414e+00
-2.167839971995999981e+00,-1.445226647997333247e+00,-1.806533309996666503e+00,-2.167839971995999981e+00,-1.445226647997333247e+00,-2.167839971995999981e+00
-2.162356230467969542e+00,-1.441570820311979695e+00,-1.801963525389974619e+00,-2.162356230467969542e+00,-1.441570820311979695e+00,-2.162356230467969542e+00
-2.156854479936563429e+00,-1.437902986624375767e+00,-1.797378733280469376e+00,-2.156854479936563429e+00,-1.437902986624375767e+00,-2.156854479936563429e+00
-2.151334720401780753e+00,-1.434223146934520576e+00,-1.792778933668150776e+00,-2.151334720401780753e+00,-1.434223146934520576e+00,-2.151334720401780753e+00
-2.145796951863622404e+00,-1.430531301242415010e+00,-1.788164126553018818e+00,-2.145796951863622404e+00,-1.430531301242415010e+00,-2.145796951863622404e+00
-2.140241174322087492e+00,-1.426827449548058624e+00,-1.783534311935073280e+00,-2.140241174322087492e+00,-1.426827449548058624e+00,-2.140241174322087492e+00
-2.134667387777176906e+00,-1.423111591851451418e+00,-1.778889489814314162e+00,-2.134667387777176906e+00,-1.423111591851451418e+00,-2.134667387777176906e+00
-2.129075592228889757e+00,-1.419383728152593172e+00,-1.774229660190741686e+00,-2.129075592228889757e+00,-1.419383728152593172e+00,-2.129075592228889757e+00
-2.123465787677226935e+00,-1.415643858451484771e+00,-1.769554823064355853e+00,-2.123465787677226935e+00,-1.415643858451484771e+00,-2.123465787677226935e+00
-2.117837974122187550e+00,-1.411891982748125329e+00,-1.764864978435156662e+00,-2.117837974122187550e+00,-1.411891982748125329e+00,-2.117837974122187550e+00
-2.112192151563772491e+00,-1.408128101042515068e+00,-1.760160126303143890e+00,-2.112192151563772491e+00,-1.408128101042515068e+00,-2.112192151563772491e+00
-2.106528320001980870e+00,-1.404352213334653987e+00,-1.755440266668317539e+00,-2.106528320001980870e+00,-1.404352213334653987e+00,-2.106528320001980870e+00
-2.100846479436813574e+00,-1.400564319624542531e+00,-1.750705399530677830e+00,-2.100846479436813574e+00,-1.400564319624542531e+00,-2.100846479436813574e+00
-2.095146629868269716e+00,-1.396764419912179811e+00,-1.745955524890224986e+00,-2.095146629868269716e+00,-1.396764419912179811e+00,-2.095146629868269716e+00
-2.089428771296350185e+00,-1.392952514197566716e+00,-1.741190642746958339e+00,-2.089428771296350185e+00,-1.392952514197566716e+00,-2.089428771296350185e+00
-2.083692903721053646e+00,-1.389128602480702801e+00,-1.736410753100878335e+00,-2.083692903721053646e+00,-1.389128602480702801e+00,-2.083692903721053646e+00
-2.077939027142382322e+00,-1.385292684761588067e+00,-1.731615855951985194e+00,-2.077939027142382322e+00,-1.385292684761588067e+00,-2.077939027142382322e+00
-2.072167141560333548e+00,-1.381444761040222513e+00,-1.726805951300278252e+00,-2.072167141560333548e+00,-1.381444761040222513e+00,-2.072167141560333548e+00
-2.066377246974909543e+00,-1.377584831316606362e+00,-1.721981039145757730e+00,-2.066377246974909543e+00,-1.377584831316606362e+00,-2.066377246974909543e+00
-2.060569343386108976e+00,-1.373712895590739391e+00,-1.717141119488424295e+00,-2.060569343386108976e+00,-1.373712895590739391e+00,-2.060569343386108976e+00
-2.054743430793932735e+00,-1.369828953862621823e+00,-1.712286192328277057e+00,-2.054743430793932735e+00,-1.369828953862621823e+00,-2.054743430793932735e+00
-2.048899509198379931e+00,-1.365933006132253213e+00,-1.707416257665316461e+00,-2.048899509198379931e+00,-1.365933006132253213e+00,-2.048899509198379931e+00
-2.043037578599451010e+00,-1.362025052399634006e+00,-1.702531315499542508e+00,-2.043037578599451010e+00,-1.362025052399634006e+00,-2.043037578599451010e+00
-2.037157638997145970e+00,-1.358105092664763980e+00,-1.697631365830955197e+00,-2.037157638997145970e+00,-1.358105092664763980e+00,-2.037157638997145970e+00
-2.031259690391465256e+00,-1.354173126927643356e+00,-1.692716408659554084e+00,-2.031259690391465256e+00,-1.354173126927643356e+00,-2.031259690391465256e+00
-2.025343732782407979e+00,-1.350229155188271912e+00,-1.687786443985340057e+00,-2.025343732782407979e+00,-1.350229155188271912e+00,-2.025343732782407979e+00
-2.019409766169974585e+00,-1.346273177446649649e+00,-1.682841471808312228e+00,-2.019409766169974585e+00,-1.346273177446649649e+00,-2.019409766169974585e+00
-2.013457790554165072e+00,-1.342305193702776789e+00,-1.677881492128471042e+00,-2.013457790554165072e+00,-1.342305193702776789e+00,-2.013457790554165072e+00
-2.007487805934979441e+00,-1.338325203956653109e+00,-1.672906504945816497e+00,-2.007487805934979441e+00,-1.338325203956653109e+00,-2.007487805934979441e+00
-2.001499812312418136e+00,-1.334333208208278609e+00,-1.667916510260348373e+00,-2.001499812312418136e+00,-1.334333208208278609e+00,-2.001499812312418136e+00
-1.995498874718679705e+00,-1.330332583145786396e+00,-1.662915728932232939e+00,-1.995498874718679705e+00,-1.330332583145786396e+00,-1.995498874718679705e+00
-1.989497374343585756e+00,-1.326331582895724059e+00,-1.657914478619654908e+00,-1.989497374343585756e+00,-1.326331582895724059e+00,-1.989497374343585756e+00
-1.983495873968492251e+00,-1.322330582645661279e+00,-1.652913228307076654e+00,-1.983495873968492251e+00,-1.322330582645661279e+00,-1.983495873968492251e+00
-1.977494373593398302e+00,-1.318329582395598942e+00,-1.647911977994498622e+00,-1.977494373593398302e+00,-1.318329582395598942e+00,-1.977494373593398302e+00
-1.971492873218304576e+00,-1.314328582145536384e+00,-1.642910727681920369e+00,-1.971492873218304576e+00,-1.314328582145536384e+00,-1.971492873218304576e+00
-1.965491372843210627e+00,-1.310327581895473825e+00,-1.637909477369342337e+00,-1.965491372843210627e+00,-1.310327581895473825e+00,-1.965491372843210627e+00
-1.959489872468117122e+00,-1.306326581645411267e+00,-1.632908227056764083e+00,-1.959489872468117122e+00,-1.306326581645411267e+00,-1.959489872468117122e+00
-1.953488372093023173e+00,-1.302325581395348930e+00,-1.627906976744186052e+00,-1.953488372093023173e+00,-1.302325581395348930e+00,-1.953488372093023173e+00
-1.947486871717929446e+00,-1.298324581145286372e+00,-1.622905726431607798e+00,-1.947486871717929446e+00,-1.298324581145286372e+00,-1.947486871717929446e+00
-1.941485371342835720e+00,-1.294323580895223813e+00,-1.617904476119029766e+00,-1.941485371342835720e+00,-1.294323580895223813e+00,-1.941485371342835720e+00
-1.935483870967741993e+00,-1.290322580645161255e+00,-1.612903225806451513e+00,-1.935483870967741993e+00,-1.290322580645161255e+00,-1.935483870967741993e+00
-1.929482370592648044e+00,-1.286321580395098918e+00,-1.607901975493873481e+00,-1.929482370592648044e+00,-1.286321580395098918e+00,-1.929482370592648044e+00
-1.923480870217554539e+00,-1.282320580145036137e+00,-1.602900725181295227e+00,-1.923480870217554539e+00,-1.282320580145036137e+00,-1.923480870217554539e+00
-1.917479369842460590e+00,-1.278319579894973801e+00,-1.597899474868717196e+00,-1.917479369842460590e+00,-1.278319579894973801e+00,-1.917479369842460590e+00
-1.911477869467366864e+00,-1.274318579644911242e+00,-1.592898224556138942e+00,-1.911477869467366864e+00,-1.274318579644911242e+00,-1.911477869467366864e+00
-1.905476369092272915e+00,-1.270317579394848684e+00,-1.587896974243560910e+00,-1.905476369092272915e+00,-1.270317579394848684e+00,-1.905476369092272915e+00
-1.899474868717179410e+00,-1.266316579144786125e+00,-1.582895723930982657e+00,-1.899474868717179410e+00,-1.266316579144786125e+00,-1.899474868717179410e+00
-1.893473368342085461e+00,-1.262315578894723789e+00,-1.577894473618404625e+00,-1.893473368342085461e+00,-1.262315578894723789e+00,-1.893473368342085461e+00
-1.887471867966991734e+00,-1.258314578644661230e+00,-1.572893223305826371e+00,-1.887471867966991734e+00,-1.258314578644661230e+00,-1.887471867966991734e+00
-1.881470367591898007e+00,-1.254313578394598672e+00,-1.567891972993248340e+00,-1.881470367591898007e+00,-1.254313578394598672e+00,-1.881470367591898007e+00
-1.875468867216804281e+00,-1.250312578144536113e+00,-1.562890722680670086e+00,-1.875468867216804281e+00,-1.250312578144536113e+00,-1.875468867216804281e+00
-1.869467366841710332e+00,-1.246311577894473777e+00,-1.557889472368092054e+00,-1.869467366841710332e+00,-1.246311577894473777e+00,-1.869467366841710332e+00
-1.863465866466616827e+00,-1.242310577644410996e+00,-1.552888222055513801e+00,-1.863465866466616827e+00,-1.242310577644410996e+00,-1.863465866466616827e+00
-1.857464366091522878e+00,-1.238309577394348659e+00,-1.547886971742935769e+00,-1.857464366091522878e+00,-1.238309577394348659e+00,-1.857464366091522878e+00
-1.851462865716429151e+00,-1.234308577144286101e+00,-1.542885721430357515e+00,-1.851462865716429151e+00,-1.234308577144286101e+00,-1.851462865716429151e+00
-1.845461365341335203e+00,-1.230307576894223542e+00,-1.537884471117779484e+00,-1.845461365341335203e+00,-1.230307576894223542e+00,-1.845461365341335203e+00
-1.839459864966241698e+00,-1.226306576644160984e+00,-1.532883220805201230e+00,-1.839459864966241698e+00,-1.226306576644160984e+00,-1.839459864966241698e+00
-1.833458364591147749e+00,-1.222305576394098647e+00,-1.527881970492623198e+00,-1.833458364591147749e+00,-1.222305576394098647e+00,-1.833458364591147749e+00
-1.827456864216054022e+00,-1.218304576144036089e+00,-1.522880720180044944e+00,-1.827456864216054022e+00,-1.218304576144036089e+00,-1.827456864216054022e+00
-1.821455363840960295e+00,-1.214303575893973530e+00,-1.517879469867466913e+00,-1.821455363840960295e+00,-1.214303575893973530e+00,-1.821455363840960295e+00
-1.815453863465866569e+00,-1.210302575643910972e+00,-1.512878219554888659e+00,-1.815453863465866569e+00,-1.210302575643910972e+00,-1.815453863465866569e+00
-1.809452363090772620e+00,-1.206301575393848635e+00,-1.507876969242310627e+00,-1.809452363090772620e+00,-1.206301575393848635e+00,-1.809452363090772620e+00
-1.803450862715679115e+00,-1.202300575143785855e+00,-1.502875718929732374e+00,-1.803450862715679115e+00,-1.202300575143785855e+00,-1.803450862715679115e+00
-1.797449362340585166e+00,-1.198299574893723518e+00,-1.497874468617154342e+00,-1.797449362340585166e+00,-1.198299574893723518e+00,-1.797449362340585166e+00
-1.791447861965491439e+00,-1.194298574643660960e+00,-1.492873218304576088e+00,-1.791447861965491439e+00,-1.194298574643660960e+00,-1.791447861965491439e+00
-1.785446361590397490e+00,-1.190297574393598401e+00,-1.487871967991998057e+00,-1.785446361590397490e+00,-1.190297574393598401e+00,-1.785446361590397490e+00
-1.779444861215303986e+00,-1.186296574143535842e+00,-1.482870717679419803e+00,-1.779444861215303986e+00,-1.186296574143535842e+00,-1.779444861215303986e+00
-1.773443360840210037e+00,-1.182295573893473506e+00,-1.477869467366841771e+00,-1.773443360840210037e+00,-1.182295573893473506e+00,-1.773443360840210037e+00
-1.767441860465116310e+00,-1.178294573643410725e+00,-1.472868217054263518e+00,-1.767441860465116310e+00,-1.178294573643410725e+00,-1.767441860465116310e+00
-1.761440360090022583e+00,-1.174293573393348389e+00,-1.467866966741685486e+00,-1.761440360090022583e+00,-1.174293573393348389e+00,-1.761440360090022583e+00
-1.755438859714928856e+00,-1.170292573143285830e+00,-1.462865716429107232e+00,-1.755438859714928856e+00,-1.170292573143285830e+00,-1.755438859714928856e+00
-1.749437359339834908e+00,-1.166291572893223272e+00,-1.457864466116529201e+00,-1.749437359339834908e+00,-1.166291572893223272e+00,-1.749437359339834908e+00
-1.743435858964741403e+00,-1.162290572643160713e+00,-1.452863215803950947e+00,-1.743435858964741403e+00,-1.162290572643160713e+00,-1.743435858964741403e+00
-1.737434358589647232e+00,-1.158289572393098377e+00,-1.447861965491372915e+00,-1.737434358589647232e+00,-1.158289572393098377e+00,-1.737434358589647232e+00
-1.731432858214553727e+00,-1.154288572143035818e+00,-1.442860715178794662e+00,-1.731432858214553727e+00,-1.154288572143035818e+00,-1.731432858214553727e+00
-1.725431357839459778e+00,-1.150287571892973260e+00,-1.437859464866216630e+00,-1.725431357839459778e+00,-1.150287571892973260e+00,-1.725431357839459778e+00
-1.719429857464366052e+00,-1.146286571642910701e+00,-1.432858214553638376e+00,-1.719429857464366052e+00,-1.146286571642910701e+00,-1.719429857464366052e+00
-1.713428357089272325e+00,-1.142285571392848365e+00,-1.427856964241060345e+00,-1.713428357089272325e+00,-1.142285571392848365e+00,-1.713428357089272325e+00
-1.707426856714178598e+00,-1.138284571142785584e+00,-1.422855713928482091e+00,-1.707426856714178598e+00,-1.138284571142785584e+00,-1.707426856714178598e+00
-1.701425356339084871e+00,-1.134283570892723247e+00,-1.417854463615904059e+00,-1.701425356339084871e+00,-1.134283570892723247e+00,-1.701425356339084871e+00
-1.695423855963990700e+00,-1.130282570642660689e+00,-1.412853213303325806e+00,-1.695423855963990700e+00,-1.130282570642660689e+00,-1.695423855963990700e+00
-1.689422355588897195e+00,-1.126281570392598130e+00,-1.407851962990747552e+00,-1.689422355588897195e+00,-1.126281570392598130e+00,-1.689422355588897195e+00
-1.683420855213803247e+00,-1.122280570142535572e+00,-1.402850712678169520e+00,-1.683420855213803247e+00,-1.122280570142535572e+00,-1.683420855213803247e+00
-1.677419354838709520e+00,-1.118279569892473013e+00,-1.397849462365591267e+00,-1.677419354838709520e+00,-1.118279569892473013e+00,-1.677419354838709520e+00
-1.671417854463615793e+00,-1.114278569642410677e+00,-1.392848212053013235e+00,-1.671417854463615793e+00,-1.114278569642410677e+00,-1.671417854463615793e+00
-1.665416354088522066e+00,-1.110277569392347896e+00,-1.387846961740434981e+00,-1.665416354088522066e+00,-1.110277569392347896e+00,-1.665416354088522066e+00
-1.659414853713428117e+00,-1.106276569142285560e+00,-1.382845711427856950e+00,-1.659414853713428117e+00,-1.106276569142285560e+00,-1.659414853713428117e+00
-1.653413353338334613e+00,-1.102275568892223001e+00,-1.377844461115278696e+00,-1.653413353338334613e+00,-1.102275568892223001e+00,-1.653413353338334613e+00
-1.647411852963240664e+00,-1.098274568642160443e+00,-1.372843210802700664e+00,-1.647411852963240664e+00,-1.098274568642160443e+00,-1.647411852963240664e+00
-1.641410352588146937e+00,-1.094273568392097884e+00,-1.367841960490122410e+00,-1.641410352588146937e+00,-1.094273568392097884e+00,-1.641410352588146937e+00
-1.635408852213052988e+00,-1.090272568142035547e+00,-1.362840710177544379e+00,-1.635408852213052988e+00,-1.090272568142035547e+00,-1.635408852213052988e+00
-1.629407351837959483e+00,-1.086271567891972989e+00,-1.357839459864966125e+00,-1.629407351837959483e+00,-1.086271567891972989e+00,-1.629407351837959483e+00
-1.623405851462865535e+00,-1.082270567641910430e+00,-1.352838209552388093e+00,-1.623405851462865535e+00,-1.082270567641910430e+00,-1.623405851462865535e+00
-1.617404351087771808e+00,-1.078269567391847872e+00,-1.347836959239809840e+00,-1.617404351087771808e+00,-1.078269567391847872e+00,-1.617404351087771808e+00
-1.611402850712678081e+00,-1.074268567141785535e+00,-1.342835708927231808e+00,-1.611402850712678081e+00,-1.074268567141785535e+00,-1.611402850712678081e+00
-1.605401350337584354e+00,-1.070267566891722755e+00,-1.337834458614653554e+00,-1.605401350337584354e+00,-1.070267566891722755e+00,-1.605401350337584354e+00
-1.599399849962490405e+00,-1.066266566641660196e+00,-1.332833208302075301e+00,-1.599399849962490405e+00,-1.066266566641660196e+00,-1.599399849962490405e+00
-1.593398349587396456e+00,-1.062265566391598082e+00,-1.327831957989497491e+00,-1.593398349587396456e+00,-1.062265566391598082e+00,-1.593398349587396456e+00
-1.587396849212303174e+00,-1.058264566141535301e+00,-1.322830707676919237e+00,-1.587396849212303174e+00,-1.058264566141535301e+00,-1.587396849212303174e+00
-1.581395348837209225e+00,-1.054263565891472743e+00,-1.317829457364340984e+00,-1.581395348837209225e+00,-1.054263565891472743e+00,-1.581395348837209225e+00
-1.575393848462115276e+00,-1.050262565641410184e+00,-1.312828207051762730e+00,-1.575393848462115276e+00,-1.050262565641410184e+00,-1.575393848462115276e+00
-1.569392348087021549e+00,-1.046261565391347848e+00,-1.307826956739184920e+00,-1.569392348087021549e+00,-1.046261565391347848e+00,-1.569392348087021549e+00
-1.563390847711928044e+00,-1.042260565141285289e+00,-1.302825706426606667e+00,-1.563390847711928044e+00,-1.042260565141285289e+00,-1.563390847711928044e+00
-1.557389347336834096e+00,-1.038259564891222730e+00,-1.297824456114028413e+00,-1.557389347336834096e+00,-1.038259564891222730e+00,-1.557389347336834096e+00
-1.551387846961740369e+00,-1.034258564641160172e+00,-1.292823205801450159e+00,-1.551387846961740369e+00,-1.034258564641160172e+00,-1.551387846961740369e+00
-1.545386346586646420e+00,-1.030257564391097835e+00,-1.287821955488872350e+00,-1.545386346586646420e+00,-1.030257564391097835e+00,-1.545386346586646420e+00
-1.539384846211552915e+00,-1.026256564141035277e+00,-1.282820705176294096e+00,-1.539384846211552915e+00,-1.026256564141035277e+00,-1.539384846211552915e+00
-1.533383345836459188e+00,-1.022255563890972718e+00,-1.277819454863715842e+00,-1.533383345836459188e+00,-1.022255563890972718e+00,-1.533383345836459188e+00
-1.527381845461365240e+00,-1.018254563640910160e+00,-1.272818204551137589e+00,-1.527381845461365240e+00,-1.018254563640910160e+00,-1.527381845461365240e+00
-1.521380345086271291e+00,-1.014253563390847823e+00,-1.267816954238559779e+00,-1.521380345086271291e+00,-1.014253563390847823e+00,-1.521380345086271291e+00
-1.515378844711178008e+00,-1.010252563140785265e+00,-1.262815703925981525e+00,-1.515378844711178008e+00,-1.010252563140785265e+00,-1.515378844711178008e+00
-1.509377344336084059e+00,-1.006251562890722706e+00,-1.257814453613403272e+00,-1.509377344336084059e+00,-1.006251562890722706e+00,-1.509377344336084059e+00
-1.503375843960990110e+00,-1.002250562640659926e+00,-1.252813203300825018e+00,-1.503375843960990110e+00,-1.002250562640659926e+00,-1.503375843960990110e+00
-1.497374343585896384e+00,-9.982495623905978110e-01,-1.247811952988247208e+00,-1.497374343585896384e+00,-9.982495623905978110e-01,-1.497374343585896384e+00
-1.491372843210802879e+00,-9.942485621405352525e-01,-1.242810702675668955e+00,-1.491372843210802879e+00,-9.942485621405352525e-01,-1.491372843210802879e+00
-1.485371342835708930e+00,-9.902475618904725829e-01,-1.237809452363090701e+00,-1.485371342835708930e+00,-9.902475618904725829e-01,-1.485371342835708930e+00
-1.479369842460615203e+00,-9.862465616404099134e-01,-1.232808202050512447e+00,-1.479369842460615203e+00,-9.862465616404099134e-01,-1.479369842460615203e+00
-1.473368342085521032e+00,-9.822455613903477989e-01,-1.227806951737934638e+00,-1.473368342085521032e+00,-9.822455613903477989e-01,-1.473368342085521032e+00
-1.467366841710427749e+00,-9.782445611402851293e-01,-1.222805701425356384e+00,-1.467366841710427749e+00,-9.782445611402851293e-01,-1.467366841710427749e+00
-1.461365341335333801e+00,-9.742435608902224597e-01,-1.217804451112778130e+00,-1.461365341335333801e+00,-9.742435608902224597e-01,-1.461365341335333801e+00
-1.455363840960239852e+00,-9.702425606401599012e-01,-1.212803200800199876e+00,-1.455363840960239852e+00,-9.702425606401599012e-01,-1.455363840960239852e+00
-1.449362340585146125e+00,-9.662415603900976757e-01,-1.207801950487622067e+00,-1.449362340585146125e+00,-9.662415603900976757e-01,-1.449362340585146125e+00
-1.443360840210052620e+00,-9.622405601400350061e-01,-1.202800700175043813e+00,-1.443360840210052620e+00,-9.622405601400350061e-01,-1.443360840210052620e+00
-1.437359339834958671e+00,-9.582395598899724476e-01,-1.197799449862465559e+00,-1.437359339834958671e+00,-9.582395598899724476e-01,-1.437359339834958671e+00
-1.431357839459864945e+00,-9.542385596399098890e-01,-1.192798199549887306e+00,-1.431357839459864945e+00,-9.542385596399098890e-01,-1.431357839459864945e+00
-1.425356339084770996e+00,-9.502375593898475525e-01,-1.187796949237309496e+00,-1.425356339084770996e+00,-9.502375593898475525e-01,-1.425356339084770996e+00
-1.419354838709677491e+00,-9.462365591397849940e-01,-1.182795698924731242e+00,-1.419354838709677491e+00,-9.462365591397849940e-01,-1.419354838709677491e+00
-1.413353338334583764e+00,-9.422355588897224354e-01,-1.177794448612152989e+00,-1.413353338334583764e+00,-9.422355588897224354e-01,-1.413353338334583764e+00
-1.407351837959489815e+00,-9.382345586396598769e-01,-1.172793198299574735e+00,-1.407351837959489815e+00,-9.382345586396598769e-01,-1.407351837959489815e+00
-1.401350337584395866e+00,-9.342335583895975404e-01,-1.167791947986996925e+00,-1.401350337584395866e+00,-9.342335583895975404e-01,-1.401350337584395866e+00
-1.395348837209302584e+00,-9.302325581395349818e-01,-1.162790697674418672e+00,-1.395348837209302584e+00,-9.302325581395349818e-01,-1.395348837209302584e+00
-1.389347336834208635e+00,-9.262315578894724233e-01,-1.157789447361840418e+00,-1.389347336834208635e+00,-9.262315578894724233e-01,-1.389347336834208635e+00
-1.383345836459114686e+00,-9.222305576394097537e-01,-1.152788197049262164e+00,-1.383345836459114686e+00,-9.222305576394097537e-01,-1.383345836459114686e+00
-1.377344336084020737e+00,-9.182295573893475282e-01,-1.147786946736684355e+00,-1.377344336084020737e+00,-9.182295573893475282e-01,-1.377344336084020737e+00
-1.371342835708927455e+00,-9.142285571392849697e-01,-1.142785696424106101e+00,-1.371342835708927455e+00,-9.142285571392849697e-01,-1.371342835708927455e+00
-1.365341335333833506e+00,-9.102275568892223001e-01,-1.137784446111527847e+00,-1.365341335333833506e+00,-9.102275568892223001e-01,-1.365341335333833506e+00
-1.359339834958739557e+00,-9.062265566391596305e-01,-1.132783195798949594e+00,-1.359339834958739557e+00,-9.062265566391596305e-01,-1.359339834958739557e+00
-1.353338334583645608e+00,-9.022255563890975161e-01,-1.127781945486371784e+00,-1.353338334583645608e+00,-9.022255563890975161e-01,-1.353338334583645608e+00
-1.347336834208552325e+00,-8.982245561390348465e-01,-1.122780695173793530e+00,-1.347336834208552325e+00,-8.982245561390348465e-01,-1.347336834208552325e+00
-1.341335333833458376e+00,-8.942235558889721769e-01,-1.117779444861215277e+00,-1.341335333833458376e+00,-8.942235558889721769e-01,-1.341335333833458376e+00
-1.335333833458364428e+00,-8.902225556389096184e-01,-1.112778194548637023e+00,-1.335333833458364428e+00,-8.902225556389096184e-01,-1.335333833458364428e+00
-1.329332333083270701e+00,-8.862215553888473929e-01,-1.107776944236059213e+00,-1.329332333083270701e+00,-8.862215553888473929e-01,-1.329332333083270701e+00
-1.323330832708177196e+00,-8.822205551387847233e-01,-1.102775693923480960e+00,-1.323330832708177196e+00,-8.822205551387847233e-01,-1.323330832708177196e+00
-1.317329332333083247e+00,-8.782195548887221648e-01,-1.097774443610902706e+00,-1.317329332333083247e+00,-8.782195548887221648e-01,-1.317329332333083247e+00
-1.311327831957989520e+00,-8.742185546386596062e-01,-1.092773193298324452e+00,-1.311327831957989520e+00,-8.742185546386596062e-01,-1.311327831957989520e+00
-1.305326331582895349e+00,-8.702175543885970477e-01,-1.087771942985746199e+00,-1.305326331582895349e+00,-8.702175543885970477e-01,-1.305326331582895349e+00
-1.299324831207802067e+00,-8.662165541385347112e-01,-1.082770692673168389e+00,-1.299324831207802067e+00,-8.662165541385347112e-01,-1.299324831207802067e+00
-1.293323330832708340e+00,-8.622155538884721526e-01,-1.077769442360590135e+00,-1.293323330832708340e+00,-8.622155538884721526e-01,-1.293323330832708340e+00
-1.287321830457614169e+00,-8.582145536384095941e-01,-1.072768192048011882e+00,-1.287321830457614169e+00,-8.582145536384095941e-01,-1.287321830457614169e+00
-1.281320330082520442e+00,-8.542135533883469245e-01,-1.067766941735433628e+00,-1.281320330082520442e+00,-8.542135533883469245e-01,-1.281320330082520442e+00
-1.275318829707427160e+00,-8.502125531382846990e-01,-1.062765691422855818e+00,-1.275318829707427160e+00,-8.502125531382846990e-01,-1.275318829707427160e+00
-1.269317329332332989e+00,-8.462115528882221405e-01,-1.057764441110277565e+00,-1.269317329332332989e+00,-8.462115528882221405e-01,-1.269317329332332989e+00
-1.263315828957239262e+00,-8.422105526381594709e-01,-1.052763190797699311e+00,-1.263315828957239262e+00,-8.422105526381594709e-01,-1.263315828957239262e+00
-1.257314328582145313e+00,-8.382095523880968013e-01,-1.047761940485121057e+00,-1.257314328582145313e+00,-8.382095523880968013e-01,-1.257314328582145313e+00
-1.251312828207051808e+00,-8.342085521380346869e-01,-1.042760690172543248e+00,-1.251312828207051808e+00,-8.342085521380346869e-01,-1.251312828207051808e+00
-1.245311327831958081e+00,-8.302075518879720173e-01,-1.037759439859964994e+00,-1.245311327831958081e+00,-8.302075518879720173e-01,-1.245311327831958081e+00
-1.239309827456864133e+00,-8.262065516379094587e-01,-1.032758189547386740e+00,-1.239309827456864133e+00,-8.262065516379094587e-01,-1.239309827456864133e+00
-1.233308327081770184e+00,-8.222055513878467892e-01,-1.027756939234808486e+00,-1.233308327081770184e+00,-8.222055513878467892e-01,-1.233308327081770184e+00
-1.227306826706676901e+00,-8.182045511377845637e-01,-1.022755688922230677e+00,-1.227306826706676901e+00,-8.182045511377845637e-01,-1.227306826706676901e+00
-1.221305326331582952e+00,-8.142035508877220051e-01,-1.017754438609652423e+00,-1.221305326331582952e+00,-8.142035508877220051e-01,-1.221305326331582952e+00
-1.215303825956489003e+00,-8.102025506376593356e-01,-1.012753188297074169e+00,-1.215303825956489003e+00,-8.102025506376593356e-01,-1.215303825956489003e+00
-1.209302325581395277e+00,-8.062015503875967770e-01,-1.007751937984495916e+00,-1.209302325581395277e+00,-8.062015503875967770e-01,-1.209302325581395277e+00
-1.203300825206301772e+00,-8.022005501375345515e-01,-1.002750687671918106e+00,-1.203300825206301772e+00,-8.022005501375345515e-01,-1.203300825206301772e+00
-1.197299324831207823e+00,-7.981995498874718820e-01,-9.977494373593398524e-01,-1.197299324831207823e+00,-7.981995498874718820e-01,-1.197299324831207823e+00
-1.191297824456114096e+00,-7.941985496374093234e-01,-9.927481870467615988e-01,-1.191297824456114096e+00,-7.941985496374093234e-01,-1.191297824456114096e+00
-1.185296324081019925e+00,-7.901975493873466538e-01,-9.877469367341833451e-01,-1.185296324081019925e+00,-7.901975493873466538e-01,-1.185296324081019925e+00
-1.179294823705926643e+00,-7.861965491372844284e-01,-9.827456864216055354e-01,-1.179294823705926643e+00,-7.861965491372844284e-01,-1.179294823705926643e+00
-1.173293323330832916e+00,-7.821955488872218698e-01,-9.777444361090272817e-01,-1.173293323330832916e+00,-7.821955488872218698e-01,-1.173293323330832916e+00
-1.167291822955738745e+00,-7.781945486371592002e-01,-9.727431857964490280e-01,-1.167291822955738745e+00,-7.781945486371592002e-01,-1.167291822955738745e+00
-1.161290322580645018e+00,-7.741935483870966417e-01,-9.677419354838707743e-01,-1.161290322580645018e+00,-7.741935483870966417e-01,-1.161290322580645018e+00
-1.155288822205551735e+00,-7.701925481370344162e-01,-9.627406851712929647e-01,-1.155288822205551735e+00,-7.701925481370344162e-01,-1.155288822205551735e+00
-1.149287321830457564e+00,-7.661915478869717466e-01,-9.577394348587147110e-01,-1.149287321830457564e+00,-7.661915478869717466e-01,-1.149287321830457564e+00
-1.143285821455363838e+00,-7.621905476369091881e-01,-9.527381845461364573e-01,-1.143285821455363838e+00,-7.621905476369091881e-01,-1.143285821455363838e+00
-1.137284321080269889e+00,-7.581895473868466295e-01,-9.477369342335582036e-01,-1.137284321080269889e+00,-7.581895473868466295e-01,-1.137284321080269889e+00
-1.131282820705176384e+00,-7.541885471367842930e-01,-9.427356839209803940e-01,-1.131282820705176384e+00,-7.541885471367842930e-01,-1.131282820705176384e+00
-1.125281320330082657e+00,-7.501875468867217345e-01,-9.377344336084021403e-01,-1.125281320330082657e+00,-7.501875468867217345e-01,-1.125281320330082657e+00
-1.119279819954988708e+00,-7.461865466366591759e-01,-9.327331832958238866e-01,-1.119279819954988708e+00,-7.461865466366591759e-01,-1.119279819954988708e+00
-1.113278319579894760e+00,-7.421855463865965064e-01,-9.277319329832456329e-01,-1.113278319579894760e+00,-7.421855463865965064e-01,-1.113278319579894760e+00
-1.107276819204801477e+00,-7.381845461365342809e-01,-9.227306826706678233e-01,-1.107276819204801477e+00,-7.381845461365342809e-01,-1.107276819204801477e+00
-1.101275318829707528e+00,-7.341835458864717223e-01,-9.177294323580895696e-01,-1.101275318829707528e+00,-7.341835458864717223e-01,-1.101275318829707528e+00
-1.095273818454613579e+00,-7.301825456364090527e-01,-9.127281820455113159e-01,-1.095273818454613579e+00,-7.301825456364090527e-01,-1.095273818454613579e+00
-1.089272318079519852e+00,-7.261815453863464942e-01,-9.077269317329330622e-01,-1.089272318079519852e+00,-7.261815453863464942e-01,-1.089272318079519852e+00
-1.083270817704426348e+00,-7.221805451362841577e-01,-9.027256814203552526e-01,-1.083270817704426348e+00,-7.221805451362841577e-01,-1.083270817704426348e+00
-1.077269317329332399e+00,-7.181795448862215991e-01,-8.977244311077769989e-01,-1.077269317329332399e+00,-7.181795448862215991e-01,-1.077269317329332399e+00
-1.071267816954238672e+00,-7.141785446361590406e-01,-8.927231807951987452e-01,-1.071267816954238672e+00,-7.141785446361590406e-01,-1.071267816954238672e+00
-1.065266316579144501e+00,-7.101775443860963710e-01,-8.877219304826204915e-01,-1.065266316579144501e+00,-7.101775443860963710e-01,-1.065266316579144501e+00
-1.059264816204051218e+00,-7.061765441360341455e-01,-8.827206801700426819e-01,-1.059264816204051218e+00,-7.061765441360341455e-01,-1.059264816204051218e+00
-1.053263315828957492e+00,-7.021755438859715870e-01,-8.777194298574644282e-01,-1.053263315828957492e+00,-7.021755438859715870e-01,-1.053263315828957492e+00
-1.047261815453863321e+00,-6.981745436359089174e-01,-8.727181795448861745e-01,-1.047261815453863321e+00,-6.981745436359089174e-01,-1.047261815453863321e+00
-1.041260315078769594e+00,-6.941735433858463589e-01,-8.677169292323079208e-01,-1.041260315078769594e+00,-6.941735433858463589e-01,-1.041260315078769594e+00
-1.035258814703676311e+00,-6.901725431357841334e-01,-8.627156789197301112e-01,-1.035258814703676311e+00,-6.901725431357841334e-01,-1.035258814703676311e+00
-1.029257314328582140e+00,-6.861715428857214638e-01,-8.577144286071518575e-01,-1.029257314328582140e+00,-6.861715428857214638e-01,-1.029257314328582140e+00
-1.023255813953488413e+00,-6.821705426356589053e-01,-8.527131782945736038e-01,-1.023255813953488413e+00,-6.821705426356589053e-01,-1.023255813953488413e+00
-1.017254313578394465e+00,-6.781695423855962357e-01,-8.477119279819953501e-01,-1.017254313578394465e+00,-6.781695423855962357e-01,-1.017254313578394465e+00
-1.011252813203300960e+00,-6.741685421355340102e-01,-8.427106776694175405e-01,-1.011252813203300960e+00,-6.741685421355340102e-01,-1.011252813203300960e+00
-1.005251312828207233e+00,-6.701675418854714517e-01,-8.377094273568392868e-01,-1.005251312828207233e+00,-6.701675418854714517e-01,-1.005251312828207233e+00
-9.992498124531132841e-01,-6.661665416354087821e-01,-8.327081770442610331e-01,-9.992498124531132841e-01,-6.661665416354087821e-01,-9.992498124531132841e-01
-9.932483120780193353e-01,-6.621655413853462235e-01,-8.277069267316827794e-01,-9.932483120780193353e-01,-6.621655413853462235e-01,-9.932483120780193353e-01
-9.872468117029260526e-01,-6.581645411352839981e-01,-8.227056764191049698e-01,-9.872468117029260526e-01,-6.581645411352839981e-01,-9.872468117029260526e-01
-9.812453113278321037e-01,-6.541635408852213285e-01,-8.177044261065267161e-01,-9.812453113278321037e-01,-6.541635408852213285e-01,-9.812453113278321037e-01
-9.752438109527381549e-01,-6.501625406351587699e-01,-8.127031757939484624e-01,-9.752438109527381549e-01,-6.501625406351587699e-01,-9.752438109527381549e-01
-9.692423105776442060e-01,-6.461615403850962114e-01,-8.077019254813702087e-01,-9.692423105776442060e-01,-6.461615403850962114e-01,-9.692423105776442060e-01
-9.632408102025509233e-01,-6.421605401350338749e-01,-8.027006751687923991e-01,-9.632408102025509233e-01,-6.421605401350338749e-01,-9.632408102025509233e-01
-9.572393098274569745e-01,-6.381595398849713163e-01,-7.976994248562141454e-01,-9.572393098274569745e-01,-6.381595398849713163e-01,-9.572393098274569745e-01
-9.512378094523630256e-01,-6.341585396349087578e-01,-7.926981745436358917e-01,-9.512378094523630256e-01,-6.341585396349087578e-01,-9.512378094523630256e-01
-9.452363090772690768e-01,-6.301575393848460882e-01,-7.876969242310576380e-01,-9.452363090772690768e-01,-6.301575393848460882e-01,-9.452363090772690768e-01
-9.392348087021757941e-01,-6.261565391347838627e-01,-7.826956739184798284e-01,-9.392348087021757941e-01,-6.261565391347838627e-01,-9.392348087021757941e-01
-9.332333083270818452e-01,-6.221555388847213042e-01,-7.776944236059015747e-01,-9.332333083270818452e-01,-6.221555388847213042e-01,-9.332333083270818452e-01
-9.272318079519878964e-01,-6.181545386346586346e-01,-7.726931732933233210e-01,-9.272318079519878964e-01,-6.181545386346586346e-01,-9.272318079519878964e-01
-9.212303075768941696e-01,-6.141535383845960760e-01,-7.676919229807450673e-01,-9.212303075768941696e-01,-6.141535383845960760e-01,-9.212303075768941696e-01
-9.152288072018002207e-01,-6.101525381345334065e-01,-7.626906726681668136e-01,-9.152288072018002207e-01,-6.101525381345334065e-01,-9.152288072018002207e-01
-9.092273068267067160e-01,-6.061515378844711810e-01,-7.576894223555890040e-01,-9.092273068267067160e-01,-6.061515378844711810e-01,-9.092273068267067160e-01
-9.032258064516129892e-01,-6.021505376344086224e-01,-7.526881720430107503e-01,-9.032258064516129892e-01,-6.021505376344086224e-01,-9.032258064516129892e-01
-8.972243060765190403e-01,-5.981495373843459529e-01,-7.476869217304324966e-01,-8.972243060765190403e-01,-5.981495373843459529e-01,-8.972243060765190403e-01
-8.912228057014250915e-01,-5.941485371342833943e-01,-7.426856714178542429e-01,-8.912228057014250915e-01,-5.941485371342833943e-01,-8.912228057014250915e-01
-8.852213053263318088e-01,-5.901475368842211688e-01,-7.376844211052764333e-01,-8.852213053263318088e-01,-5.901475368842211688e-01,-8.852213053263318088e-01
-8.792198049512378599e-01,-5.861465366341584993e-01,-7.326831707926981796e-01,-8.792198049512378599e-01,-5.861465366341584993e-01,-8.792198049512378599e-01
-8.732183045761439111e-01,-5.821455363840959407e-01,-7.276819204801199259e-01,-8.732183045761439111e-01,-5.821455363840959407e-01,-8.732183045761439111e-01
-8.672168042010499622e-01,-5.781445361340333822e-01,-7.226806701675416722e-01,-8.672168042010499622e-01,-5.781445361340333822e-01,-8.672168042010499622e-01
-8.612153038259566795e-01,-5.741435358839710457e-01,-7.176794198549638626e-01,-8.612153038259566795e-01,-5.741435358839710457e-01,-8.612153038259566795e-01
-8.552138034508627307e-01,-5.701425356339084871e-01,-7.126781695423856089e-01,-8.552138034508627307e-01,-5.701425356339084871e-01,-8.552138034508627307e-01
-8.492123030757687818e-01,-5.661415353838459286e-01,-7.076769192298073552e-01,-8.492123030757687818e-01,-5.661415353838459286e-01,-8.492123030757687818e-01
-8.432108027006748330e-01,-5.621405351337832590e-01,-7.026756689172291015e-01,-8.432108027006748330e-01,-5.621405351337832590e-01,-8.432108027006748330e-01
-8.372093023255815503e-01,-5.581395348837210335e-01,-6.976744186046512919e-01,-8.372093023255815503e-01,-5.581395348837210335e-01,-8.372093023255815503e-01
-8.312078019504876014e-01,-5.541385346336584750e-01,-6.926731682920730382e-01,-8.312078019504876014e-01,-5.541385346336584750e-01,-8.312078019504876014e-01
-8.252063015753936526e-01,-5.501375343835958054e-01,-6.876719179794947845e-01,-8.252063015753936526e-01,-5.501375343835958054e-01,-8.252063015753936526e-01
-8.192048012002999258e-01,-5.461365341335332468e-01,-6.826706676669165308e-01,-8.192048012002999258e-01,-5.461365341335332468e-01,-8.192048012002999258e-01
-8.132033008252064210e-01,-5.421355338834710214e-01,-6.776694173543387212e-01,-8.132033008252064210e-01,-5.421355338834710214e-01,-8.132033008252064210e-01
-8.072018004501124722e-01,-5.381345336334083518e-01,-6.726681670417604675e-01,-8.072018004501124722e-01,-5.381345336334083518e-01,-8.072018004501124722e-01
-8.012003000750187454e-01,-5.341335333833457932e-01,-6.676669167291822138e-01,-8.012003000750187454e-01,-5.341335333833457932e-01,-8.012003000750187454e-01
-7.951987996999247965e-01,-5.301325331332831237e-01,-6.626656664166039601e-01,-7.951987996999247965e-01,-5.301325331332831237e-01,-7.951987996999247965e-01
-7.891972993248312918e-01,-5.261315328832208982e-01,-6.576644161040261505e-01,-7.891972993248312918e-01,-5.261315328832208982e-01,-7.891972993248312918e-01
-7.831957989497375650e-01,-5.221305326331583396e-01,-6.526631657914478968e-01,-7.831957989497375650e-01,-5.221305326331583396e-01,-7.831957989497375650e-01
-7.771942985746436161e-01,-5.181295323830956701e-01,-6.476619154788696431e-01,-7.771942985746436161e-01,-5.181295323830956701e-01,-7.771942985746436161e-01
-7.711927981995496673e-01,-5.141285321330331115e-01,-6.426606651662913894e-01,-7.711927981995496673e-01,-5.141285321330331115e-01,-7.711927981995496673e-01
-7.651912978244563845e-01,-5.101275318829708860e-01,-6.376594148537135798e-01,-7.651912978244563845e-01,-5.101275318829708860e-01,-7.651912978244563845e-01
-7.591897974493624357e-01,-5.061265316329082165e-01,-6.326581645411353261e-01,-7.591897974493624357e-01,-5.061265316329082165e-01,-7.591897974493624357e-01
-7.531882970742684869e-01,-5.021255313828456579e-01,-6.276569142285570724e-01,-7.531882970742684869e-01,-5.021255313828456579e-01,-7.531882970742684869e-01
-7.471867966991745380e-01,-4.981245311327830994e-01,-6.226556639159788187e-01,-7.471867966991745380e-01,-4.981245311327830994e-01,-7.471867966991745380e-01
-7.411852963240812553e-01,-4.941235308827207628e-01,-6.176544136034010091e-01,-7.411852963240812553e-01,-4.941235308827207628e-01,-7.411852963240812553e-01
-7.351837959489873064e-01,-4.901225306326582043e-01,-6.126531632908227554e-01,-7.351837959489873064e-01,-4.901225306326582043e-01,-7.351837959489873064e-01
-7.291822955738933576e-01,-4.861215303825956457e-01,-6.076519129782445017e-01,-7.291822955738933576e-01,-4.861215303825956457e-01,-7.291822955738933576e-01
-7.231807951987994088e-01,-4.821205301325329762e-01,-6.026506626656662480e-01,-7.231807951987994088e-01,-4.821205301325329762e-01,-7.231807951987994088e-01
-7.171792948237061260e-01,-4.781195298824707507e-01,-5.976494123530884384e-01,-7.171792948237061260e-01,-4.781195298824707507e-01,-7.171792948237061260e-01
-7.111777944486121772e-01,-4.741185296324081921e-01,-5.926481620405101847e-01,-7.111777944486121772e-01,-4.741185296324081921e-01,-7.111777944486121772e-01
-7.051762940735182283e-01,-4.701175293823455226e-01,-5.876469117279319310e-01,-7.051762940735182283e-01,-4.701175293823455226e-01,-7.051762940735182283e-01
-6.991747936984245015e-01,-4.661165291322829640e-01,-5.826456614153536773e-01,-6.991747936984245015e-01,-4.661165291322829640e-01,-6.991747936984245015e-01
-6.931732933233309968e-01,-4.621155288822207385e-01,-5.776444111027758677e-01,-6.931732933233309968e-01,-4.621155288822207385e-01,-6.931732933233309968e-01
-6.871717929482370479e-01,-4.581145286321580690e-01,-5.726431607901976140e-01,-6.871717929482370479e-01,-4.581145286321580690e-01,-6.871717929482370479e-01
-6.811702925731433211e-01,-4.541135283820955104e-01,-5.676419104776193603e-01,-6.811702925731433211e-01,-4.541135283820955104e-01,-6.811702925731433211e-01
-6.751687921980493723e-01,-4.501125281320328408e-01,-5.626406601650411066e-01,-6.751687921980493723e-01,-4.501125281320328408e-01,-6.751687921980493723e-01
-6.691672918229558675e-01,-4.461115278819706154e-01,-5.576394098524632970e-01,-6.691672918229558675e-01,-4.461115278819706154e-01,-6.691672918229558675e-01
-6.631657914478621407e-01,-4.421105276319080568e-01,-5.526381595398850433e-01,-6.631657914478621407e-01,-4.421105276319080568e-01,-6.631657914478621407e-01
-6.571642910727681919e-01,-4.381095273818453872e-01,-5.476369092273067896e-01,-6.571642910727681919e-01,-4.381095273818453872e-01,-6.571642910727681919e-01
-6.511627906976742430e-01,-4.341085271317828287e-01,-5.426356589147285359e-01,-6.511627906976742430e-01,-4.341085271317828287e-01,-6.511627906976742430e-01
-6.451612903225807383e-01,-4.301075268817206032e-01,-5.376344086021507263e-01,-6.451612903225807383e-01,-4.301075268817206032e-01,-6.451612903225807383e-01
-6.391597899474870115e-01,-4.261065266316579336e-01,-5.326331582895724726e-01,-6.391597899474870115e-01,-4.261065266316579336e-01,-6.391597899474870115e-01
-6.331582895723930626e-01,-4.221055263815953751e-01,-5.276319079769942189e-01,-6.331582895723930626e-01,-4.221055263815953751e-01,-6.331582895723930626e-01
-6.271567891972991138e-01,-4.181045261315328165e-01,-5.226306576644159652e-01,-6.271567891972991138e-01,-4.181045261315328165e-01,-6.271567891972991138e-01
-6.211552888222058311e-01,-4.141035258814704800e-01,-5.176294073518381555e-01,-6.211552888222058311e-01,-4.141035258814704800e-01,-6.211552888222058311e-01
-6.151537884471118822e-01,-4.101025256314079215e-01,-5.126281570392599019e-01,-6.151537884471118822e-01,-4.101025256314079215e-01,-6.151537884471118822e-01
-6.091522880720179334e-01,-4.061015253813453629e-01,-5.076269067266816482e-01,-6.091522880720179334e-01,-4.061015253813453629e-01,-6.091522880720179334e-01
-6.031507876969239845e-01,-4.021005251312826934e-01,-5.026256564141033945e-01,-6.031507876969239845e-01,-4.021005251312826934e-01,-6.031507876969239845e-01
-5.971492873218307018e-01,-3.980995248812204679e-01,-4.976244061015255848e-01,-5.971492873218307018e-01,-3.980995248812204679e-01,-5.971492873218307018e-01
-5.911477869467367530e-01,-3.940985246311579093e-01,-4.926231557889473311e-01,-5.911477869467367530e-01,-3.940985246311579093e-01,-5.911477869467367530e-01
-5.851462865716428041e-01,-3.900975243810952398e-01,-4.876219054763690774e-01,-5.851462865716428041e-01,-3.900975243810952398e-01,-5.851462865716428041e-01
-5.791447861965488553e-01,-3.860965241310326812e-01,-4.826206551637908237e-01,-5.791447861965488553e-01,-3.860965241310326812e-01,-5.791447861965488553e-01
-5.731432858214555726e-01,-3.820955238809704557e-01,-4.776194048512130141e-01,-5.731432858214555726e-01,-3.820955238809704557e-01,-5.731432858214555726e-01
-5.671417854463616237e-01,-3.780945236309077861e-01,-4.726181545386347604e-01,-5.671417854463616237e-01,-3.780945236309077861e-01,-5.671417854463616237e-01
-5.611402850712676749e-01,-3.740935233808452276e-01,-4.676169042260565067e-01,-5.611402850712676749e-01,-3.740935233808452276e-01,-5.611402850712676749e-01
-5.551387846961739481e-01,-3.700925231307825580e-01,-4.626156539134782530e-01,-5.551387846961739481e-01,-3.700925231307825580e-01,-5.551387846961739481e-01
-5.491372843210804433e-01,-3.660915228807203325e-01,-4.576144036009004434e-01,-5.491372843210804433e-01,-3.660915228807203325e-01,-5.491372843210804433e-01
-5.431357839459864945e-01,-3.620905226306577740e-01,-4.526131532883221897e-01,-5.431357839459864945e-01,-3.620905226306577740e-01,-5.431357839459864945e-01
-5.371342835708927677e-01,-3.580895223805951044e-01,-4.476119029757439360e-01,-5.371342835708927677e-01,-3.580895223805951044e-01,-5.371342835708927677e-01
-5.311327831957988188e-01,-3.540885221305325459e-01,-4.426106526631656823e-01,-5.311327831957988188e-01,-3.540885221305325459e-01,-5.311327831957988188e-01
-5.251312828207053141e-01,-3.500875218804699873e-01,-4.376094023505874286e-01,-5.251312828207053141e-01,-3.500875218804699873e-01,-5.251312828207053141e-01
-5.191297824456115872e-01,-3.460865216304076508e-01,-4.326081520380096190e-01,-5.191297824456115872e-01,-3.460865216304076508e-01,-5.191297824456115872e-01
-5.131282820705176384e-01,-3.420855213803450923e-01,-4.276069017254313653e-01,-5.131282820705176384e-01,-3.420855213803450923e-01,-5.131282820705176384e-01
-5.071267816954236896e-01,-3.380845211302825337e-01,-4.226056514128531116e-01,-5.071267816954236896e-01,-3.380845211302825337e-01,-5.071267816954236896e-01
-5.011252813203304068e-01,-3.340835208802198641e-01,-4.176044011002748579e-01,-5.011252813203304068e-01,-3.340835208802198641e-01,-5.011252813203304068e-01
-4.951237809452364580e-01,-3.300825206301576387e-01,-4.126031507876970483e-01,-4.951237809452364580e-01,-3.300825206301576387e-01,-4.951237809452364580e-01
-4.891222805701425091e-01,-3.260815203800950801e-01,-4.076019004751187946e-01,-4.891222805701425091e-01,-3.260815203800950801e-01,-4.891222805701425091e-01
-4.831207801950485603e-01,-3.220805201300325216e-01,-4.026006501625405409e-01,-4.831207801950485603e-01,-3.220805201300325216e-01,-4.831207801950485603e-01
-4.771192798199552776e-01,-3.180795198799697410e-01,-3.975993998499622872e-01,-4.771192798199552776e-01,-3.180795198799697410e-01,-4.771192798199552776e-01
-4.711177794448613287e-01,-3.140785196299076265e-01,-3.925981495373844776e-01,-4.711177794448613287e-01,-3.140785196299076265e-01,-4.711177794448613287e-01
-4.651162790697673799e-01,-3.100775193798450680e-01,-3.875968992248062239e-01,-4.651162790697673799e-01,-3.100775193798450680e-01,-4.651162790697673799e-01
-4.591147786946734310e-01,-3.060765191297822874e-01,-3.825956489122279702e-01,-4.591147786946734310e-01,-3.060765191297822874e-01,-4.591147786946734310e-01
-4.531132783195801483e-01,-3.020755188797197288e-01,-3.775943985996497165e-01,-4.531132783195801483e-01,-3.020755188797197288e-01,-4.531132783195801483e-01
-4.471117779444861995e-01,-2.980745186296576144e-01,-3.725931482870719069e-01,-4.471117779444861995e-01,-2.980745186296576144e-01,-4.471117779444861995e-01
-4.411102775693922506e-01,-2.940735183795948338e-01,-3.675918979744936532e-01,-4.411102775693922506e-01,-2.940735183795948338e-01,-4.411102775693922506e-01
-4.351087771942985238e-01,-2.900725181295322752e-01,-3.625906476619153995e-01,-4.351087771942985238e-01,-2.900725181295322752e-01,-4.351087771942985238e-01
-4.291072768192050191e-01,-2.860715178794697167e-01,-3.575893973493371458e-01,-4.291072768192050191e-01,-2.860715178794697167e-01,-4.291072768192050191e-01
-4.231057764441110702e-01,-2.820705176294073802e-01,-3.525881470367593362e-01,-4.231057764441110702e-01,-2.820705176294073802e-01,-4.231057764441110702e-01
-4.171042760690173434e-01,-2.780695173793448216e-01,-3.475868967241810825e-01,-4.171042760690173434e-01,-2.780695173793448216e-01,-4.171042760690173434e-01
-4.111027756939233946e-01,-2.740685171292822631e-01,-3.425856464116028288e-01,-4.111027756939233946e-01,-2.740685171292822631e-01,-4.111027756939233946e-01
-4.051012753188298898e-01,-2.700675168792197045e-01,-3.375843960990245751e-01,-4.051012753188298898e-01,-2.700675168792197045e-01,-4.051012753188298898e-01
-3.990997749437361630e-01,-2.660665166291573680e-01,-3.325831457864467655e-01,-3.990997749437361630e-01,-2.660665166291573680e-01,-3.990997749437361630e-01
-3.930982745686422142e-01,-2.620655163790948095e-01,-3.275818954738685118e-01,-3.930982745686422142e-01,-2.620655163790948095e-01,-3.930982745686422142e-01
-3.870967741935482653e-01,-2.580645161290322509e-01,-3.225806451612902581e-01,-3.870967741935482653e-01,-2.580645161290322509e-01,-3.870967741935482653e-01
-3.810952738184549826e-01,-2.540635158789696924e-01,-3.175793948487120044e-01,-3.810952738184549826e-01,-2.540635158789696924e-01,-3.810952738184549826e-01
-3.750937734433610338e-01,-2.500625156289073558e-01,-3.125781445361341948e-01,-3.750937734433610338e-01,-2.500625156289073558e-01,-3.750937734433610338e-01
-3.690922730682670849e-01,-2.460615153788447973e-01,-3.075768942235559411e-01,-3.690922730682670849e-01,-2.460615153788447973e-01,-3.690922730682670849e-01
-3.630907726931731361e-01,-2.420605151287822387e-01,-3.025756439109776874e-01,-3.630907726931731361e-01,-2.420605151287822387e-01,-3.630907726931731361e-01
-3.570892723180798534e-01,-2.380595148787194582e-01,-2.975743935983994337e-01,-3.570892723180798534e-01,-2.380595148787194582e-01,-3.570892723180798534e-01
-3.510877719429859045e-01,-2.340585146286573437e-01,-2.925731432858216241e-01,-3.510877719429859045e-01,-2.340585146286573437e-01,-3.510877719429859045e-01
-3.450862715678919557e-01,-2.300575143785947851e-01,-2.875718929732433704e-01,-3.450862715678919557e-01,-2.300575143785947851e-01,-3.450862715678919557e-01
-3.390847711927980068e-01,-2.260565141285320045e-01,-2.825706426606651167e-01,-3.390847711927980068e-01,-2.260565141285320045e-01,-3.390847711927980068e-01
-3.330832708177047241e-01,-2.220555138784694460e-01,-2.775693923480868630e-01,-3.330832708177047241e-01,-2.220555138784694460e-01,-3.330832708177047241e-01
-3.270817704426107753e-01,-2.180545136284073315e-01,-2.725681420355090534e-01,-3.270817704426107753e-01,-2.180545136284073315e-01,-3.270817704426107753e-01
-3.210802700675168264e-01,-2.140535133783445509e-01,-2.675668917229307997e-01,-3.210802700675168264e-01,-2.140535133783445509e-01,-3.210802700675168264e-01
-3.150787696924228776e-01,-2.100525131282819924e-01,-2.625656414103525460e-01,-3.150787696924228776e-01,-2.100525131282819924e-01,-3.150787696924228776e-01
-3.090772693173295949e-01,-2.060515128782194338e-01,-2.575643910977742923e-01,-3.090772693173295949e-01,-2.060515128782194338e-01,-3.090772693173295949e-01
-3.030757689422356460e-01,-2.020505126281570973e-01,-2.525631407851964827e-01,-3.030757689422356460e-01,-2.020505126281570973e-01,-3.030757689422356460e-01
-2.970742685671416972e-01,-1.980495123780945388e-01,-2.475618904726182290e-01,-2.970742685671416972e-01,-1.980495123780945388e-01,-2.970742685671416972e-01
-2.910727681920479704e-01,-1.940485121280319802e-01,-2.425606401600399753e-01,-2.910727681920479704e-01,-1.940485121280319802e-01,-2.910727681920479704e-01
-2.850712678169544656e-01,-1.900475118779694217e-01,-2.375593898474617216e-01,-2.850712678169544656e-01,-1.900475118779694217e-01,-2.850712678169544656e-01
-2.790697674418605168e-01,-1.860465116279070852e-01,-2.325581395348839120e-01,-2.790697674418605168e-01,-1.860465116279070852e-01,-2.790697674418605168e-01
-2.730682670667667900e-01,-1.820455113778445266e-01,-2.275568892223056583e-01,-2.730682670667667900e-01,-1.820455113778445266e-01,-2.730682670667667900e-01
-2.670667666916728411e-01,-1.780445111277819681e-01,-2.225556389097274046e-01,-2.670667666916728411e-01,-1.780445111277819681e-01,-2.670667666916728411e-01
-2.610652663165793363e-01,-1.740435108777194095e-01,-2.175543885971491509e-01,-2.610652663165793363e-01,-1.740435108777194095e-01,-2.610652663165793363e-01
-2.550637659414856095e-01,-1.700425106276570730e-01,-2.125531382845713413e-01,-2.550637659414856095e-01,-1.700425106276570730e-01,-2.550637659414856095e-01
-2.490622655663916607e-01,-1.660415103775945145e-01,-2.075518879719930876e-01,-2.490622655663916607e-01,-1.660415103775945145e-01,-2.490622655663916607e-01
-2.430607651912977119e-01,-1.620405101275319559e-01,-2.025506376594148339e-01,-2.430607651912977119e-01,-1.620405101275319559e-01,-2.430607651912977119e-01
-2.370592648162044291e-01,-1.580395098774691753e-01,-1.975493873468365802e-01,-2.370592648162044291e-01,-1.580395098774691753e-01,-2.370592648162044291e-01
-2.310577644411104803e-01,-1.540385096274070609e-01,-1.925481370342587706e-01,-2.310577644411104803e-01,-1.540385096274070609e-01,-2.310577644411104803e-01
-2.250562640660165314e-01,-1.500375093773445023e-01,-1.875468867216805169e-01,-2.250562640660165314e-01,-1.500375093773445023e-01,-2.250562640660165314e-01
-2.190547636909225826e-01,-1.460365091272817217e-01,-1.825456364091022632e-01,-2.190547636909225826e-01,-1.460365091272817217e-01,-2.190547636909225826e-01
-2.130532633158292999e-01,-1.420355088772191632e-01,-1.775443860965240095e-01,-2.130532633158292999e-01,-1.420355088772191632e-01,-2.130532633158292999e-01
-2.070517629407353510e-01,-1.380345086271570487e-01,-1.725431357839461999e-01,-2.070517629407353510e-01,-1.380345086271570487e-01,-2.070517629407353510e-01
-2.010502625656414022e-01,-1.340335083770942681e-01,-1.675418854713679462e-01,-2.010502625656414022e-01,-1.340335083770942681e-01,-2.010502625656414022e-01
-1.950487621905474533e-01,-1.300325081270317096e-01,-1.625406351587896925e-01,-1.950487621905474533e-01,-1.300325081270317096e-01,-1.950487621905474533e-01
-1.890472618154541706e-01,-1.260315078769691510e-01,-1.575393848462114388e-01,-1.890472618154541706e-01,-1.260315078769691510e-01,-1.890472618154541706e-01
-1.830457614403602218e-01,-1.220305076269068145e-01,-1.525381345336336292e-01,-1.830457614403602218e-01,-1.220305076269068145e-01,-1.830457614403602218e-01
-1.770442610652662729e-01,-1.180295073768442560e-01,-1.475368842210553755e-01,-1.770442610652662729e-01,-1.180295073768442560e-01,-1.770442610652662729e-01
-1.710427606901725461e-01,-1.140285071267816974e-01,-1.425356339084771218e-01,-1.710427606901725461e-01,-1.140285071267816974e-01,-1.710427606901725461e-01
-1.650412603150790414e-01,-1.100275068767191389e-01,-1.375343835958988681e-01,-1.650412603150790414e-01,-1.100275068767191389e-01,-1.650412603150790414e-01
